(G-CODE GENERATED BY FLATCAM v8.909 - www.flatcam.org - Version Date: 2019/02/16)

(Name: copper_bottom.gbr_iso_cnc)
(Type: G-code from Geometry)
(Units: MM)

(Created on Friday, 08 March 2019 at 20:39)

(TOOL DIAMETER: 0.2 mm)
(Feedrate: 90.0 mm/min)
(Feedrate_Z: 30.0 mm/min)
(Feedrate rapids 50.0 mm/min)

(Z_Cut: -0.08 mm)
(Z_Move: 0.6 mm)
(Z Toolchange: 15.0 mm)
(X,Y Toolchange: 0.0000, 0.0000 mm)
(Z Start: None mm)
(Z End: 2.0 mm)
(Steps per circle: 64)
(Postprocessor Geometry: default)

(X range:    0.7761 ...  126.2039  mm)
(Y range:    0.7761 ...  118.2739  mm)

(Spindle Speed: 800 RPM)

G21
G90
G94

G01 F90.00
G00 Z0.6000

M03 S800
G00 X0.6764 Y1.2616
G01 F30.00
G01 Z-0.0800
G01 F90.00
G01 X0.6761 Y117.7815
G01 X0.6788 Y117.8354
G01 X0.6827 Y117.8692
G01 X0.6884 Y117.8978
G01 X0.6955 Y117.9285
G01 X0.7024 Y117.9552
G01 X0.7072 Y117.9700
G01 X0.7177 Y117.9973
G01 X0.7317 Y118.0299
G01 X0.7502 Y118.0676
G01 X0.7655 Y118.0926
G01 X0.7990 Y118.1420
G01 X0.8079 Y118.1534
G01 X0.8282 Y118.1763
G01 X0.8509 Y118.2001
G01 X0.8720 Y118.2210
G01 X0.9046 Y118.2476
G01 X0.9308 Y118.2670
G01 X0.9570 Y118.2849
G01 X0.9927 Y118.3047
G01 X1.0231 Y118.3196
G01 X1.0484 Y118.3311
G01 X1.0625 Y118.3366
G01 X1.0903 Y118.3456
G01 X1.1226 Y118.3548
G01 X1.1493 Y118.3616
G01 X1.1650 Y118.3647
G01 X1.2260 Y118.3718
G01 X1.2534 Y118.3738
G01 X1.2679 Y118.3739
G01 X125.7115 Y118.3739
G01 X125.7654 Y118.3712
G01 X125.7992 Y118.3673
G01 X125.8278 Y118.3616
G01 X125.8585 Y118.3545
G01 X125.8852 Y118.3476
G01 X125.9000 Y118.3428
G01 X125.9273 Y118.3323
G01 X125.9599 Y118.3183
G01 X125.9976 Y118.2998
G01 X126.0226 Y118.2845
G01 X126.0720 Y118.2510
G01 X126.0834 Y118.2421
G01 X126.1063 Y118.2218
G01 X126.1301 Y118.1991
G01 X126.1510 Y118.1780
G01 X126.1776 Y118.1454
G01 X126.1970 Y118.1192
G01 X126.2149 Y118.0930
G01 X126.2347 Y118.0573
G01 X126.2496 Y118.0269
G01 X126.2611 Y118.0016
G01 X126.2666 Y117.9875
G01 X126.2756 Y117.9597
G01 X126.2848 Y117.9274
G01 X126.2916 Y117.9007
G01 X126.2947 Y117.8850
G01 X126.3018 Y117.8240
G01 X126.3038 Y117.7966
G01 X126.3039 Y117.7821
G01 X126.3039 Y1.2685
G01 X126.3012 Y1.2146
G01 X126.2973 Y1.1808
G01 X126.2916 Y1.1522
G01 X126.2845 Y1.1215
G01 X126.2776 Y1.0948
G01 X126.2728 Y1.0800
G01 X126.2623 Y1.0527
G01 X126.2483 Y1.0201
G01 X126.2298 Y0.9824
G01 X126.2145 Y0.9574
G01 X126.1810 Y0.9080
G01 X126.1721 Y0.8966
G01 X126.1518 Y0.8737
G01 X126.1291 Y0.8499
G01 X126.1080 Y0.8290
G01 X126.0754 Y0.8024
G01 X126.0492 Y0.7830
G01 X126.0230 Y0.7651
G01 X125.9873 Y0.7453
G01 X125.9569 Y0.7304
G01 X125.9316 Y0.7189
G01 X125.9175 Y0.7134
G01 X125.8897 Y0.7044
G01 X125.8574 Y0.6952
G01 X125.8307 Y0.6884
G01 X125.8150 Y0.6853
G01 X125.7540 Y0.6782
G01 X125.7266 Y0.6762
G01 X125.7121 Y0.6761
G01 X1.2685 Y0.6761
G01 X1.2146 Y0.6788
G01 X1.1808 Y0.6827
G01 X1.1522 Y0.6884
G01 X1.0948 Y0.7024
G01 X1.0800 Y0.7072
G01 X1.0527 Y0.7177
G01 X1.0201 Y0.7317
G01 X0.9824 Y0.7502
G01 X0.9574 Y0.7655
G01 X0.9313 Y0.7827
G01 X0.9080 Y0.7990
G01 X0.8966 Y0.8079
G01 X0.8737 Y0.8282
G01 X0.8499 Y0.8509
G01 X0.8290 Y0.8720
G01 X0.8204 Y0.8818
G01 X0.7830 Y0.9308
G01 X0.7651 Y0.9570
G01 X0.7453 Y0.9927
G01 X0.7189 Y1.0484
G01 X0.7134 Y1.0625
G01 X0.7044 Y1.0903
G01 X0.6884 Y1.1493
G01 X0.6853 Y1.1650
G01 X0.6816 Y1.1927
G01 X0.6782 Y1.2260
G01 X0.6762 Y1.2534
G01 X0.6764 Y1.2616
G00 Z0.6000
G00 X0.8163 Y1.2636
G01 F30.00
G01 Z-0.0800
G01 F90.00
G01 X0.8161 Y117.7815
G01 X0.8186 Y117.8269
G01 X0.8211 Y117.8481
G01 X0.8243 Y117.8640
G01 X0.8324 Y117.8992
G01 X0.8399 Y117.9255
G01 X0.8613 Y117.9770
G01 X0.8727 Y117.9999
G01 X0.9100 Y118.0567
G01 X0.9283 Y118.0784
G01 X0.9656 Y118.1169
G01 X0.9861 Y118.1338
G01 X1.0303 Y118.1657
G01 X1.0530 Y118.1783
G01 X1.0866 Y118.1949
G01 X1.1116 Y118.2055
G01 X1.1629 Y118.2208
G01 X1.1898 Y118.2269
G01 X1.2421 Y118.2327
G01 X1.2679 Y118.2339
G01 X125.7115 Y118.2339
G01 X125.7569 Y118.2314
G01 X125.7781 Y118.2289
G01 X125.7940 Y118.2257
G01 X125.8292 Y118.2176
G01 X125.8555 Y118.2101
G01 X125.9070 Y118.1887
G01 X125.9299 Y118.1773
G01 X125.9867 Y118.1400
G01 X126.0084 Y118.1217
G01 X126.0469 Y118.0844
G01 X126.0638 Y118.0639
G01 X126.0957 Y118.0197
G01 X126.1083 Y117.9970
G01 X126.1249 Y117.9634
G01 X126.1355 Y117.9384
G01 X126.1508 Y117.8871
G01 X126.1569 Y117.8602
G01 X126.1627 Y117.8079
G01 X126.1639 Y117.7821
G01 X126.1639 Y1.2685
G01 X126.1614 Y1.2231
G01 X126.1589 Y1.2019
G01 X126.1557 Y1.1860
G01 X126.1476 Y1.1508
G01 X126.1401 Y1.1245
G01 X126.1187 Y1.0730
G01 X126.1073 Y1.0501
G01 X126.0700 Y0.9933
G01 X126.0517 Y0.9716
G01 X126.0144 Y0.9331
G01 X125.9939 Y0.9162
G01 X125.9497 Y0.8843
G01 X125.9270 Y0.8717
G01 X125.8934 Y0.8551
G01 X125.8684 Y0.8445
G01 X125.8171 Y0.8292
G01 X125.7902 Y0.8231
G01 X125.7379 Y0.8173
G01 X125.7121 Y0.8161
G01 X1.2685 Y0.8161
G01 X1.2231 Y0.8186
G01 X1.2019 Y0.8211
G01 X1.1360 Y0.8362
G01 X1.1094 Y0.8458
G01 X1.0730 Y0.8613
G01 X1.0501 Y0.8727
G01 X1.0363 Y0.8812
G01 X1.0063 Y0.9010
G01 X0.9843 Y0.9170
G01 X0.9447 Y0.9538
G01 X0.9262 Y0.9734
G01 X0.8943 Y1.0158
G01 X0.8843 Y1.0303
G01 X0.8717 Y1.0530
G01 X0.8488 Y1.1006
G01 X0.8395 Y1.1270
G01 X0.8255 Y1.1778
G01 X0.8211 Y1.2052
G01 X0.8173 Y1.2421
G01 X0.8163 Y1.2636
G00 Z0.6000
G00 X8.9235 Y11.6032
G01 F30.00
G01 Z-0.0800
G01 F90.00
G01 X8.9565 Y11.6160
G01 X8.9555 Y11.6213
G01 X9.0423 Y11.6375
G01 X9.0878 Y11.6437
G01 X9.1098 Y11.6452
G01 X9.1638 Y11.6461
G01 X9.1647 Y11.6514
G01 X9.2704 Y11.6328
G01 X9.2724 Y11.6382
G01 X9.3643 Y11.6037
G01 X9.3392 Y11.6927
G01 X9.3210 Y11.7971
G01 X9.3170 Y11.8322
G01 X9.3117 Y11.9285
G01 X9.3116 Y13.4627
G01 X9.3170 Y13.5678
G01 X9.3210 Y13.6029
G01 X9.3392 Y13.7073
G01 X9.3645 Y13.7968
G01 X9.3284 Y13.7829
G01 X9.3294 Y13.7771
G01 X9.2236 Y13.7589
G01 X9.2007 Y13.7563
G01 X9.1780 Y13.7548
G01 X9.1242 Y13.7539
G01 X9.1233 Y13.7486
G01 X9.0176 Y13.7672
G01 X9.0156 Y13.7618
G01 X8.9237 Y13.7963
G01 X8.9488 Y13.7073
G01 X8.9670 Y13.6029
G01 X8.9710 Y13.5678
G01 X8.9763 Y13.4715
G01 X8.9764 Y11.9373
G01 X8.9710 Y11.8322
G01 X8.9670 Y11.7971
G01 X8.9488 Y11.6927
G01 X8.9235 Y11.6032
G00 Z0.6000
G00 X9.8964 Y11.1268
G01 F30.00
G01 Z-0.0800
G01 F90.00
G01 X9.8139 Y11.1855
G01 X9.7335 Y11.2575
G01 X9.6615 Y11.3379
G01 X9.5991 Y11.4260
G01 X9.5469 Y11.5204
G01 X9.5056 Y11.6201
G01 X9.4757 Y11.7238
G01 X9.4590 Y11.8205
G01 X9.4568 Y11.8400
G01 X9.4516 Y11.9373
G01 X9.4516 Y13.4627
G01 X9.4576 Y13.5698
G01 X9.4757 Y13.6762
G01 X9.5056 Y13.7799
G01 X9.5469 Y13.8796
G01 X9.5991 Y13.9740
G01 X9.6556 Y14.0542
G01 X9.6679 Y14.0696
G01 X9.7267 Y14.1354
G01 X9.7406 Y14.1493
G01 X9.8139 Y14.2145
G01 X9.9020 Y14.2769
G01 X9.9964 Y14.3291
G01 X10.0961 Y14.3704
G01 X10.1998 Y14.4003
G01 X10.2965 Y14.4170
G01 X10.3160 Y14.4192
G01 X10.4042 Y14.4241
G01 X10.4238 Y14.4241
G01 X10.5218 Y14.4184
G01 X10.6282 Y14.4003
G01 X10.7319 Y14.3704
G01 X10.8226 Y14.3331
G01 X10.8403 Y14.3246
G01 X10.9176 Y14.2819
G01 X10.9342 Y14.2715
G01 X11.0141 Y14.2145
G01 X11.0874 Y14.1493
G01 X11.1013 Y14.1354
G01 X11.1665 Y14.0621
G01 X11.2289 Y13.9740
G01 X11.2811 Y13.8796
G01 X11.3189 Y13.7890
G01 X11.3254 Y13.7705
G01 X11.3523 Y13.6762
G01 X11.3690 Y13.5795
G01 X11.3712 Y13.5600
G01 X11.3763 Y13.4676
G01 X11.3764 Y11.9702
G01 X11.4202 Y11.9727
G01 X11.4398 Y11.9727
G01 X11.6330 Y11.9615
G01 X11.8238 Y11.9294
G01 X11.8429 Y11.9250
G01 X12.0288 Y11.8712
G01 X12.2076 Y11.7974
G01 X12.2253 Y11.7889
G01 X12.3945 Y11.6951
G01 X12.5525 Y11.5833
G01 X12.5679 Y11.5711
G01 X12.7119 Y11.4419
G01 X12.8411 Y11.2979
G01 X12.8533 Y11.2825
G01 X12.9651 Y11.1245
G01 X13.0634 Y10.9466
G01 X13.1412 Y10.7588
G01 X13.1950 Y10.5729
G01 X13.1994 Y10.5538
G01 X13.2302 Y10.3727
G01 X13.2324 Y10.3532
G01 X13.2429 Y10.1600
G01 X13.2324 Y9.9668
G01 X13.2302 Y9.9473
G01 X13.1975 Y9.7566
G01 X13.1412 Y9.5612
G01 X13.0634 Y9.3734
G01 X12.9651 Y9.1955
G01 X12.8474 Y9.0297
G01 X12.7187 Y8.8852
G01 X12.7048 Y8.8713
G01 X12.5679 Y8.7489
G01 X12.5525 Y8.7367
G01 X12.3945 Y8.6249
G01 X12.2166 Y8.5266
G01 X12.0288 Y8.4488
G01 X11.8334 Y8.3925
G01 X11.6330 Y8.3585
G01 X11.4398 Y8.3473
G01 X11.4202 Y8.3473
G01 X11.2368 Y8.3576
G01 X11.2173 Y8.3598
G01 X11.0266 Y8.3925
G01 X10.8312 Y8.4488
G01 X10.6434 Y8.5266
G01 X10.4655 Y8.6249
G01 X10.2997 Y8.7426
G01 X10.1552 Y8.8713
G01 X10.1413 Y8.8852
G01 X10.0189 Y9.0221
G01 X10.0067 Y9.0375
G01 X9.8949 Y9.1955
G01 X9.7966 Y9.3734
G01 X9.7188 Y9.5612
G01 X9.6625 Y9.7566
G01 X9.6285 Y9.9570
G01 X9.6171 Y10.1600
G01 X9.6285 Y10.3630
G01 X9.6606 Y10.5538
G01 X9.6650 Y10.5729
G01 X9.7158 Y10.7494
G01 X9.7223 Y10.7679
G01 X9.7966 Y10.9466
G01 X9.8964 Y11.1268
G00 Z0.6000
G00 X13.3810 Y10.1159
G01 F30.00
G01 Z-0.0800
G01 F90.00
G01 X13.4106 Y10.1452
G01 X13.4357 Y10.1656
G01 X13.4661 Y10.1883
G01 X13.4927 Y10.2063
G01 X13.5221 Y10.2228
G01 X13.5587 Y10.2411
G01 X13.5890 Y10.2544
G01 X13.6194 Y10.2647
G01 X13.6571 Y10.2758
G01 X13.6935 Y10.2845
G01 X13.7217 Y10.2887
G01 X13.7616 Y10.2930
G01 X13.7977 Y10.2950
G01 X13.8269 Y10.2941
G01 X13.8670 Y10.2913
G01 X13.9012 Y10.2871
G01 X13.9310 Y10.2810
G01 X13.9700 Y10.2711
G01 X14.0025 Y10.2612
G01 X14.0324 Y10.2491
G01 X14.0671 Y10.2334
G01 X14.0898 Y10.2222
G01 X14.1899 Y10.1646
G01 X14.8818 Y9.9792
G01 X15.5982 Y9.9792
G01 X16.2213 Y10.1462
G01 X16.2388 Y10.1503
G01 X16.2726 Y10.1572
G01 X16.2989 Y10.1613
G01 X16.3242 Y10.1635
G01 X16.3695 Y10.1655
G01 X16.3919 Y10.1656
G01 X16.4117 Y10.1915
G01 X16.4316 Y10.2135
G01 X16.4675 Y10.2504
G01 X16.4848 Y10.2659
G01 X16.5097 Y10.2851
G01 X16.5501 Y10.3141
G01 X16.9106 Y10.5229
G01 X17.4171 Y11.0294
G01 X17.7754 Y11.6498
G01 X17.9608 Y12.3418
G01 X17.9608 Y13.0582
G01 X17.7754 Y13.7502
G01 X17.4171 Y14.3706
G01 X16.9106 Y14.8771
G01 X16.2902 Y15.2354
G01 X15.5982 Y15.4208
G01 X14.8818 Y15.4208
G01 X14.1898 Y15.2354
G01 X13.5694 Y14.8771
G01 X13.0629 Y14.3706
G01 X12.7046 Y13.7502
G01 X12.5280 Y13.0907
G01 X12.5322 Y13.0893
G01 X12.4944 Y12.9766
G01 X12.4774 Y12.9363
G01 X12.4656 Y12.9109
G01 X12.4404 Y12.8668
G01 X12.4091 Y12.8219
G01 X12.3766 Y12.7832
G01 X12.3547 Y12.7610
G01 X12.3201 Y12.7297
G01 X12.2983 Y12.7115
G01 X12.2532 Y12.6802
G01 X12.2103 Y12.6558
G01 X12.1598 Y12.6328
G01 X12.1126 Y12.6159
G01 X12.0589 Y12.6021
G01 X12.0093 Y12.5941
G01 X11.9539 Y12.5899
G01 X11.9037 Y12.5908
G01 X11.8500 Y12.5963
G01 X11.8241 Y12.6013
G01 X11.7991 Y12.6062
G01 X11.7472 Y12.6212
G01 X11.6998 Y12.6396
G01 X11.6500 Y12.6642
G01 X11.6074 Y12.6902
G01 X11.5629 Y12.7231
G01 X11.5261 Y12.7558
G01 X11.5165 Y12.7659
G01 X11.5165 Y12.1086
G01 X11.6487 Y12.1007
G01 X11.8472 Y12.0674
G01 X11.8817 Y12.0596
G01 X12.0582 Y12.0087
G01 X12.0915 Y11.9970
G01 X12.2773 Y11.9195
G01 X12.4538 Y11.8226
G01 X12.4837 Y11.8038
G01 X12.6476 Y11.6869
G01 X12.8109 Y11.5409
G01 X12.9569 Y11.3776
G01 X13.0738 Y11.2137
G01 X13.0926 Y11.1838
G01 X13.1814 Y11.0230
G01 X13.1968 Y10.9912
G01 X13.2733 Y10.8050
G01 X13.3296 Y10.6117
G01 X13.3374 Y10.5772
G01 X13.3707 Y10.3787
G01 X13.3824 Y10.1777
G01 X13.3829 Y10.1600
G01 X13.3810 Y10.1159
G00 Z0.6000
G00 X19.4966 Y7.0389
G01 F30.00
G01 Z-0.0800
G01 F90.00
G01 X19.4877 Y7.0121
G01 X19.4174 Y6.8424
G01 X19.4089 Y6.8247
G01 X19.3151 Y6.6555
G01 X19.2033 Y6.4975
G01 X19.1911 Y6.4821
G01 X19.0619 Y6.3381
G01 X18.9103 Y6.2026
G01 X18.7445 Y6.0849
G01 X18.5666 Y5.9866
G01 X18.3788 Y5.9088
G01 X18.1834 Y5.8525
G01 X17.9830 Y5.8185
G01 X17.7898 Y5.8073
G01 X17.7702 Y5.8073
G01 X17.5868 Y5.8176
G01 X17.5673 Y5.8198
G01 X17.3766 Y5.8525
G01 X17.1812 Y5.9088
G01 X16.9934 Y5.9866
G01 X16.8239 Y6.0800
G01 X16.8073 Y6.0904
G01 X16.6575 Y6.1967
G01 X16.6421 Y6.2089
G01 X16.4981 Y6.3381
G01 X16.3626 Y6.4897
G01 X16.2449 Y6.6555
G01 X16.1466 Y6.8334
G01 X16.0688 Y7.0212
G01 X16.0125 Y7.2166
G01 X15.9785 Y7.4170
G01 X15.9673 Y7.6102
G01 X15.9673 Y7.6298
G01 X15.9776 Y7.8132
G01 X15.9798 Y7.8327
G01 X16.0125 Y8.0234
G01 X16.0688 Y8.2188
G01 X16.1466 Y8.4066
G01 X16.2400 Y8.5761
G01 X16.2504 Y8.5927
G01 X16.3626 Y8.7503
G01 X16.4913 Y8.8948
G01 X16.5052 Y8.9087
G01 X16.6497 Y9.0374
G01 X16.8073 Y9.1496
G01 X16.8239 Y9.1600
G01 X16.9934 Y9.2534
G01 X17.1721 Y9.3277
G01 X17.1906 Y9.3342
G01 X17.3766 Y9.3875
G01 X17.5673 Y9.4202
G01 X17.5868 Y9.4224
G01 X17.7800 Y9.4329
G01 X17.9830 Y9.4215
G01 X18.1738 Y9.3894
G01 X18.1929 Y9.3850
G01 X18.3788 Y9.3312
G01 X18.5666 Y9.2534
G01 X18.7361 Y9.1600
G01 X18.7527 Y9.1496
G01 X18.9103 Y9.0374
G01 X19.0619 Y8.9019
G01 X19.1911 Y8.7579
G01 X19.2033 Y8.7425
G01 X19.3151 Y8.5845
G01 X19.4134 Y8.4066
G01 X19.4877 Y8.2279
G01 X19.4942 Y8.2094
G01 X19.5450 Y8.0329
G01 X19.5494 Y8.0138
G01 X19.5607 Y7.9471
G01 X113.7893 Y7.9471
G01 X113.8025 Y8.0234
G01 X113.8588 Y8.2188
G01 X113.9326 Y8.3976
G01 X113.9411 Y8.4153
G01 X114.0300 Y8.5761
G01 X114.0404 Y8.5927
G01 X114.1526 Y8.7503
G01 X114.2813 Y8.8948
G01 X114.2952 Y8.9087
G01 X114.4396 Y9.0374
G01 X114.5973 Y9.1496
G01 X114.6139 Y9.1600
G01 X114.7747 Y9.2489
G01 X114.7924 Y9.2574
G01 X114.9712 Y9.3312
G01 X115.1159 Y9.3732
G01 X115.1159 Y10.5530
G01 X115.1179 Y10.5934
G01 X115.1201 Y10.6129
G01 X115.1272 Y10.6534
G01 X115.1383 Y10.6929
G01 X115.1448 Y10.7115
G01 X115.1608 Y10.7494
G01 X115.1805 Y10.7855
G01 X115.1909 Y10.8021
G01 X115.2090 Y10.8276
G01 X115.2213 Y10.8430
G01 X115.2484 Y10.8729
G01 X122.2279 Y17.8524
G01 X122.2279 Y107.2066
G01 X119.1446 Y110.2899
G01 X83.8193 Y110.2899
G01 X83.7789 Y110.2919
G01 X83.7594 Y110.2941
G01 X83.7189 Y110.3012
G01 X83.6794 Y110.3123
G01 X83.6608 Y110.3188
G01 X83.6319 Y110.3308
G01 X83.6142 Y110.3393
G01 X83.5784 Y110.3594
G01 X83.5447 Y110.3830
G01 X83.5293 Y110.3953
G01 X83.4989 Y110.4229
G01 X83.4649 Y110.4608
G01 X83.4354 Y110.5024
G01 X83.4108 Y110.5469
G01 X83.3913 Y110.5940
G01 X83.3772 Y110.6429
G01 X83.3687 Y110.6932
G01 X83.3661 Y110.7335
G01 X83.3659 Y111.4208
G01 X83.3080 Y111.4531
G01 X83.2199 Y111.5155
G01 X83.1395 Y111.5875
G01 X83.0675 Y111.6679
G01 X83.0051 Y111.7560
G01 X82.9529 Y111.8504
G01 X82.9116 Y111.9501
G01 X82.8817 Y112.0538
G01 X82.8636 Y112.1602
G01 X82.8576 Y112.2673
G01 X82.8576 Y113.7927
G01 X82.8628 Y113.8900
G01 X82.8650 Y113.9095
G01 X82.8817 Y114.0062
G01 X82.9086 Y114.1005
G01 X82.9151 Y114.1190
G01 X82.9529 Y114.2096
G01 X83.0001 Y114.2956
G01 X83.0105 Y114.3122
G01 X83.0616 Y114.3842
G01 X83.0739 Y114.3996
G01 X83.1395 Y114.4725
G01 X83.2124 Y114.5381
G01 X83.2278 Y114.5504
G01 X83.3080 Y114.6069
G01 X83.4024 Y114.6591
G01 X83.4930 Y114.6969
G01 X83.5115 Y114.7034
G01 X83.5963 Y114.7278
G01 X83.6155 Y114.7322
G01 X83.7122 Y114.7484
G01 X83.8102 Y114.7541
G01 X83.8298 Y114.7541
G01 X83.9278 Y114.7484
G01 X84.0245 Y114.7322
G01 X84.0437 Y114.7278
G01 X84.1379 Y114.7004
G01 X84.2376 Y114.6591
G01 X84.3236 Y114.6119
G01 X84.3402 Y114.6015
G01 X84.4201 Y114.5445
G01 X84.5005 Y114.4725
G01 X84.5661 Y114.3996
G01 X84.5784 Y114.3842
G01 X84.6349 Y114.3040
G01 X84.6826 Y114.2183
G01 X84.6911 Y114.2006
G01 X84.7284 Y114.1099
G01 X84.7583 Y114.0062
G01 X84.7764 Y113.8998
G01 X84.7821 Y113.8025
G01 X84.7824 Y112.2673
G01 X84.7764 Y112.1602
G01 X84.7583 Y112.0538
G01 X84.7284 Y111.9501
G01 X84.6871 Y111.8504
G01 X84.6399 Y111.7644
G01 X84.6295 Y111.7478
G01 X84.5725 Y111.6679
G01 X84.5073 Y111.5946
G01 X84.4934 Y111.5807
G01 X84.4276 Y111.5219
G01 X84.4122 Y111.5096
G01 X84.3320 Y111.4531
G01 X84.2741 Y111.4208
G01 X84.2741 Y111.1981
G01 X119.3334 Y111.1981
G01 X119.3835 Y111.1953
G01 X119.4241 Y111.1887
G01 X119.4433 Y111.1843
G01 X119.4733 Y111.1757
G01 X119.4919 Y111.1692
G01 X119.5298 Y111.1532
G01 X119.5743 Y111.1286
G01 X119.6159 Y111.0991
G01 X119.6498 Y111.0690
G01 X123.0070 Y107.7118
G01 X123.0371 Y107.6779
G01 X123.0611 Y107.6445
G01 X123.0715 Y107.6279
G01 X123.0867 Y107.6005
G01 X123.0952 Y107.5828
G01 X123.1107 Y107.5447
G01 X123.1248 Y107.4958
G01 X123.1333 Y107.4455
G01 X123.1361 Y107.4003
G01 X123.1361 Y17.6587
G01 X123.1333 Y17.6135
G01 X123.1248 Y17.5632
G01 X123.1107 Y17.5143
G01 X123.0952 Y17.4762
G01 X123.0867 Y17.4585
G01 X123.0715 Y17.4311
G01 X123.0611 Y17.4145
G01 X123.0371 Y17.3811
G01 X123.0036 Y17.3437
G01 X116.0241 Y10.3642
G01 X116.0241 Y9.3732
G01 X116.1688 Y9.3312
G01 X116.3476 Y9.2574
G01 X116.3653 Y9.2489
G01 X116.5261 Y9.1600
G01 X116.5427 Y9.1496
G01 X116.7004 Y9.0374
G01 X116.8519 Y8.9019
G01 X116.9874 Y8.7503
G01 X117.0996 Y8.5927
G01 X117.1100 Y8.5761
G01 X117.2034 Y8.4066
G01 X117.2777 Y8.2279
G01 X117.2842 Y8.2094
G01 X117.3375 Y8.0234
G01 X117.3715 Y7.8230
G01 X117.3829 Y7.6200
G01 X117.3715 Y7.4170
G01 X117.3394 Y7.2262
G01 X117.3350 Y7.2071
G01 X117.2812 Y7.0212
G01 X117.2074 Y6.8424
G01 X117.1989 Y6.8247
G01 X117.1100 Y6.6639
G01 X117.0996 Y6.6473
G01 X116.9874 Y6.4897
G01 X116.8519 Y6.3381
G01 X116.7003 Y6.2026
G01 X116.5345 Y6.0849
G01 X116.3566 Y5.9866
G01 X116.1779 Y5.9123
G01 X116.1594 Y5.9058
G01 X115.9829 Y5.8550
G01 X115.9638 Y5.8506
G01 X115.7730 Y5.8185
G01 X115.5798 Y5.8073
G01 X115.5602 Y5.8073
G01 X115.3670 Y5.8185
G01 X115.1666 Y5.8525
G01 X114.9712 Y5.9088
G01 X114.7924 Y5.9826
G01 X114.7747 Y5.9911
G01 X114.6055 Y6.0849
G01 X114.4475 Y6.1967
G01 X114.4321 Y6.2089
G01 X114.2952 Y6.3313
G01 X114.2813 Y6.3452
G01 X114.1526 Y6.4897
G01 X114.0349 Y6.6555
G01 X113.9366 Y6.8334
G01 X113.8623 Y7.0121
G01 X113.8534 Y7.0389
G01 X19.4966 Y7.0389
G00 Z0.6000
G00 X15.2275 Y17.2768
G01 F30.00
G01 Z-0.0800
G01 F90.00
G01 X15.2336 Y17.2790
G01 X15.2326 Y17.2845
G01 X15.2481 Y17.2873
G01 X15.2400 Y17.3068
G01 X15.2275 Y17.2768
G00 Z0.6000
G00 X15.2491 Y18.2752
G01 F30.00
G01 Z-0.0800
G01 F90.00
G01 X15.2275 Y18.2833
G01 X15.2400 Y18.2532
G01 X15.2491 Y18.2752
G00 Z0.6000
G00 X13.2619 Y18.7666
G01 F30.00
G01 Z-0.0800
G01 F90.00
G01 X13.2619 Y21.1810
G01 X13.2304 Y21.1940
G01 X13.2127 Y21.2025
G01 X13.1096 Y21.2599
G01 X13.0132 Y21.3279
G01 X12.9978 Y21.3402
G01 X12.9100 Y21.4190
G01 X12.8312 Y21.5068
G01 X12.8189 Y21.5222
G01 X12.7563 Y21.6104
G01 X12.7459 Y21.6270
G01 X12.6890 Y21.7304
G01 X12.6436 Y21.8394
G01 X12.6371 Y21.8579
G01 X12.6047 Y21.9714
G01 X12.5847 Y22.0877
G01 X12.5825 Y22.1072
G01 X12.5762 Y22.2250
G01 X12.5833 Y22.3526
G01 X12.6047 Y22.4786
G01 X12.6401 Y22.6015
G01 X12.6890 Y22.7196
G01 X12.7459 Y22.8230
G01 X12.7563 Y22.8396
G01 X12.8189 Y22.9278
G01 X12.8312 Y22.9432
G01 X12.9100 Y23.0310
G01 X13.0053 Y23.1162
G01 X13.1096 Y23.1901
G01 X13.2214 Y23.2520
G01 X13.3395 Y23.3009
G01 X13.4529 Y23.3338
G01 X13.4720 Y23.3382
G01 X13.5787 Y23.3563
G01 X13.5982 Y23.3585
G01 X13.7160 Y23.3648
G01 X13.8436 Y23.3577
G01 X13.9696 Y23.3363
G01 X14.0831 Y23.3039
G01 X14.1016 Y23.2974
G01 X14.2106 Y23.2520
G01 X14.3224 Y23.1901
G01 X14.4188 Y23.1221
G01 X14.4342 Y23.1098
G01 X14.5220 Y23.0310
G01 X14.6008 Y22.9432
G01 X14.6131 Y22.9278
G01 X14.6811 Y22.8314
G01 X14.7430 Y22.7196
G01 X14.7919 Y22.6015
G01 X14.8248 Y22.4881
G01 X14.8292 Y22.4690
G01 X14.8487 Y22.3526
G01 X14.8558 Y22.2250
G01 X14.8495 Y22.1072
G01 X14.8473 Y22.0877
G01 X14.8273 Y21.9714
G01 X14.7949 Y21.8579
G01 X14.7884 Y21.8394
G01 X14.7430 Y21.7304
G01 X14.6861 Y21.6270
G01 X14.6757 Y21.6104
G01 X14.6131 Y21.5222
G01 X14.6008 Y21.5068
G01 X14.5220 Y21.4190
G01 X14.4342 Y21.3402
G01 X14.4188 Y21.3279
G01 X14.3224 Y21.2599
G01 X14.2193 Y21.2025
G01 X14.2016 Y21.1940
G01 X14.1701 Y21.1810
G01 X14.1701 Y18.9778
G01 X14.2406 Y18.9656
G01 X14.3623 Y18.9308
G01 X14.3808 Y18.9243
G01 X14.4976 Y18.8756
G01 X14.6170 Y18.8097
G01 X14.7203 Y18.7366
G01 X14.7357 Y18.7244
G01 X14.8299 Y18.6399
G01 X14.9144 Y18.5457
G01 X14.9266 Y18.5303
G01 X14.9996 Y18.4270
G01 X15.0656 Y18.3076
G01 X15.1178 Y18.1816
G01 X15.1531 Y18.0601
G01 X15.1575 Y18.0410
G01 X15.1784 Y17.9162
G01 X15.1860 Y17.7800
G01 X15.1792 Y17.6536
G01 X15.1770 Y17.6341
G01 X15.1575 Y17.5190
G01 X15.1531 Y17.4999
G01 X15.1178 Y17.3784
G01 X15.0696 Y17.2613
G01 X15.0611 Y17.2437
G01 X14.9996 Y17.1330
G01 X14.9207 Y17.0218
G01 X14.8299 Y16.9201
G01 X14.7282 Y16.8293
G01 X14.6170 Y16.7503
G01 X14.4976 Y16.6844
G01 X14.3716 Y16.6322
G01 X14.2501 Y16.5969
G01 X14.2310 Y16.5925
G01 X14.1159 Y16.5730
G01 X14.0964 Y16.5708
G01 X13.9700 Y16.5640
G01 X13.8338 Y16.5716
G01 X13.6994 Y16.5944
G01 X13.5777 Y16.6292
G01 X13.5592 Y16.6357
G01 X13.4513 Y16.6804
G01 X13.4337 Y16.6889
G01 X13.3230 Y16.7503
G01 X13.2118 Y16.8293
G01 X13.1101 Y16.9201
G01 X13.0193 Y17.0218
G01 X12.9404 Y17.1330
G01 X12.8789 Y17.2437
G01 X12.8704 Y17.2613
G01 X12.8257 Y17.3692
G01 X12.8192 Y17.3877
G01 X12.7844 Y17.5094
G01 X12.7616 Y17.6438
G01 X12.7540 Y17.7800
G01 X12.7616 Y17.9162
G01 X12.7844 Y18.0506
G01 X12.8222 Y18.1816
G01 X12.8744 Y18.3076
G01 X12.9354 Y18.4185
G01 X12.9458 Y18.4351
G01 X13.0193 Y18.5382
G01 X13.1034 Y18.6327
G01 X13.1173 Y18.6466
G01 X13.2043 Y18.7244
G01 X13.2197 Y18.7366
G01 X13.2619 Y18.7666
G00 Z0.6000
G00 X13.0331 Y21.1422
G01 F30.00
G01 Z-0.0800
G01 F90.00
G01 X13.0449 Y21.1296
G01 X13.0528 Y21.1198
G01 X13.0658 Y21.1027
G01 X13.0842 Y21.0756
G01 X13.1019 Y21.0456
G01 X13.1257 Y20.9924
G01 X13.1329 Y20.9712
G01 X13.1440 Y20.9273
G01 X13.1503 Y20.8926
G01 X13.1534 Y20.8492
G01 X13.1539 Y20.8364
G01 X13.1539 Y19.0230
G01 X13.1528 Y18.9913
G01 X13.1513 Y18.9766
G01 X13.1482 Y18.9545
G01 X13.1396 Y18.9109
G01 X13.1294 Y18.8780
G01 X13.1128 Y18.8354
G01 X13.0966 Y18.8041
G01 X13.0726 Y18.7652
G01 X13.0607 Y18.7486
G01 X13.0226 Y18.7051
G01 X12.8475 Y18.5300
G01 X12.6459 Y18.0434
G01 X12.6459 Y17.5166
G01 X12.8475 Y17.0300
G01 X13.2200 Y16.6575
G01 X13.7066 Y16.4559
G01 X14.2334 Y16.4559
G01 X14.7200 Y16.6575
G01 X15.0997 Y17.0372
G01 X15.1340 Y17.0678
G01 X15.1503 Y17.0807
G01 X15.1950 Y17.1092
G01 X15.2091 Y17.1174
G01 X15.2333 Y17.1287
G01 X15.2834 Y17.1483
G01 X15.3094 Y17.1552
G01 X15.3476 Y17.1631
G01 X15.3628 Y17.1653
G01 X15.3865 Y17.1676
G01 X15.4422 Y17.1686
G01 X15.4614 Y17.1668
G01 X15.4144 Y17.2524
G01 X15.3657 Y17.3692
G01 X15.3592 Y17.3877
G01 X15.3269 Y17.4999
G01 X15.3225 Y17.5190
G01 X15.3016 Y17.6438
G01 X15.2940 Y17.7800
G01 X15.3016 Y17.9162
G01 X15.3225 Y18.0410
G01 X15.3269 Y18.0601
G01 X15.3592 Y18.1723
G01 X15.3657 Y18.1908
G01 X15.4144 Y18.3076
G01 X15.4614 Y18.3932
G01 X15.4527 Y18.3924
G01 X15.3970 Y18.3914
G01 X15.3716 Y18.3938
G01 X15.3316 Y18.3998
G01 X15.3086 Y18.4049
G01 X15.2930 Y18.4092
G01 X15.2542 Y18.4224
G01 X15.2186 Y18.4381
G01 X15.1814 Y18.4587
G01 X15.1606 Y18.4719
G01 X15.1480 Y18.4816
G01 X15.1191 Y18.5051
G01 X15.1004 Y18.5221
G01 X14.7200 Y18.9025
G01 X14.5568 Y18.9701
G01 X14.5127 Y18.9914
G01 X14.4950 Y19.0021
G01 X14.4577 Y19.0276
G01 X14.4443 Y19.0376
G01 X14.4319 Y19.0486
G01 X14.3965 Y19.0834
G01 X14.3848 Y19.0963
G01 X14.3757 Y19.1081
G01 X14.3480 Y19.1473
G01 X14.3393 Y19.1610
G01 X14.3313 Y19.1762
G01 X14.3180 Y19.2048
G01 X14.3095 Y19.2029
G01 X14.2849 Y19.3108
G01 X14.2824 Y19.3287
G01 X14.2781 Y19.3867
G01 X14.2781 Y20.8358
G01 X14.2792 Y20.8675
G01 X14.2807 Y20.8822
G01 X14.2838 Y20.9043
G01 X14.2925 Y20.9485
G01 X14.2984 Y20.9687
G01 X14.3035 Y20.9830
G01 X14.3192 Y21.0233
G01 X14.3250 Y21.0348
G01 X14.3354 Y21.0547
G01 X14.3594 Y21.0936
G01 X14.3716 Y21.1104
G01 X14.3818 Y21.1227
G01 X14.4094 Y21.1537
G01 X14.7739 Y21.5181
G01 X14.9639 Y21.9768
G01 X14.9639 Y22.4732
G01 X14.7739 Y22.9319
G01 X14.4229 Y23.2829
G01 X13.9642 Y23.4729
G01 X13.4678 Y23.4729
G01 X13.0091 Y23.2829
G01 X12.6581 Y22.9319
G01 X12.4681 Y22.4732
G01 X12.4681 Y21.9768
G01 X12.6581 Y21.5181
G01 X13.0221 Y21.1542
G01 X13.0331 Y21.1422
G00 Z0.6000
G00 X5.7397 Y20.9973
G01 F30.00
G01 Z-0.0800
G01 F90.00
G01 X5.6741 Y21.0167
G01 X5.6741 Y20.9404
G01 X5.6980 Y20.9642
G01 X5.7078 Y20.9728
G01 X5.7397 Y20.9973
G00 Z0.6000
G00 X4.6259 Y21.5907
G01 F30.00
G01 Z-0.0800
G01 F90.00
G01 X4.6279 Y21.6311
G01 X4.6301 Y21.6506
G01 X4.6372 Y21.6911
G01 X4.6483 Y21.7306
G01 X4.6548 Y21.7492
G01 X4.6708 Y21.7871
G01 X4.6954 Y21.8316
G01 X4.7249 Y21.8732
G01 X4.7550 Y21.9071
G01 X4.9621 Y22.1143
G01 X4.9562 Y22.2250
G01 X4.9625 Y22.3428
G01 X4.9647 Y22.3623
G01 X4.9847 Y22.4786
G01 X5.0171 Y22.5921
G01 X5.0236 Y22.6106
G01 X5.0367 Y22.6421
G01 X4.7550 Y22.9239
G01 X4.7249 Y22.9578
G01 X4.7009 Y22.9912
G01 X4.6905 Y23.0078
G01 X4.6708 Y23.0439
G01 X4.6548 Y23.0818
G01 X4.6483 Y23.1004
G01 X4.6372 Y23.1399
G01 X4.6301 Y23.1804
G01 X4.6279 Y23.1999
G01 X4.6259 Y23.2354
G01 X4.6259 Y41.4076
G01 X4.6287 Y41.4529
G01 X4.6353 Y41.4934
G01 X4.6397 Y41.5126
G01 X4.6513 Y41.5520
G01 X4.6668 Y41.5901
G01 X4.6753 Y41.6078
G01 X4.6954 Y41.6436
G01 X4.7190 Y41.6773
G01 X4.7313 Y41.6927
G01 X4.7584 Y41.7226
G01 X5.1637 Y42.1279
G01 X5.1506 Y42.1594
G01 X5.1441 Y42.1779
G01 X5.1142 Y42.2819
G01 X5.1098 Y42.3010
G01 X5.0903 Y42.4174
G01 X5.0832 Y42.5450
G01 X5.0903 Y42.6726
G01 X5.1098 Y42.7890
G01 X5.1142 Y42.8081
G01 X5.1441 Y42.9121
G01 X5.1506 Y42.9306
G01 X5.1637 Y42.9621
G01 X4.7584 Y43.3674
G01 X4.7313 Y43.3973
G01 X4.7190 Y43.4127
G01 X4.6954 Y43.4464
G01 X4.6753 Y43.4822
G01 X4.6668 Y43.4999
G01 X4.6513 Y43.5380
G01 X4.6397 Y43.5774
G01 X4.6353 Y43.5966
G01 X4.6287 Y43.6371
G01 X4.6261 Y43.6775
G01 X4.6259 Y52.0756
G01 X4.6287 Y52.1209
G01 X4.6353 Y52.1614
G01 X4.6397 Y52.1806
G01 X4.6513 Y52.2200
G01 X4.6708 Y52.2671
G01 X4.6905 Y52.3032
G01 X4.7009 Y52.3198
G01 X4.7190 Y52.3453
G01 X4.7313 Y52.3607
G01 X4.7584 Y52.3906
G01 X5.7078 Y53.3400
G01 X4.7584 Y54.2894
G01 X4.7313 Y54.3193
G01 X4.7190 Y54.3347
G01 X4.6954 Y54.3684
G01 X4.6753 Y54.4042
G01 X4.6668 Y54.4219
G01 X4.6513 Y54.4600
G01 X4.6397 Y54.4994
G01 X4.6353 Y54.5186
G01 X4.6301 Y54.5494
G01 X4.6279 Y54.5689
G01 X4.6259 Y54.6093
G01 X4.6259 Y61.9767
G01 X4.6279 Y62.0171
G01 X4.6301 Y62.0366
G01 X4.6372 Y62.0771
G01 X4.6483 Y62.1166
G01 X4.6548 Y62.1352
G01 X4.6708 Y62.1731
G01 X4.6905 Y62.2092
G01 X4.7009 Y62.2258
G01 X4.7249 Y62.2592
G01 X4.7584 Y62.2966
G01 X5.1637 Y62.7019
G01 X5.1506 Y62.7334
G01 X5.1441 Y62.7519
G01 X5.1142 Y62.8559
G01 X5.1098 Y62.8750
G01 X5.0903 Y62.9914
G01 X5.0832 Y63.1190
G01 X5.0903 Y63.2466
G01 X5.1098 Y63.3630
G01 X5.1142 Y63.3821
G01 X5.1441 Y63.4861
G01 X5.1506 Y63.5046
G01 X5.1637 Y63.5361
G01 X4.7584 Y63.9414
G01 X4.7249 Y63.9788
G01 X4.7009 Y64.0122
G01 X4.6905 Y64.0288
G01 X4.6708 Y64.0649
G01 X4.6548 Y64.1028
G01 X4.6483 Y64.1214
G01 X4.6372 Y64.1609
G01 X4.6301 Y64.2014
G01 X4.6279 Y64.2209
G01 X4.6259 Y64.2613
G01 X4.6259 Y72.3956
G01 X4.6287 Y72.4409
G01 X4.6353 Y72.4814
G01 X4.6397 Y72.5006
G01 X4.6513 Y72.5400
G01 X4.6708 Y72.5871
G01 X4.6905 Y72.6232
G01 X4.7009 Y72.6398
G01 X4.7190 Y72.6653
G01 X4.7313 Y72.6807
G01 X4.7584 Y72.7106
G01 X5.8348 Y73.7870
G01 X4.7584 Y74.8634
G01 X4.7313 Y74.8933
G01 X4.7190 Y74.9087
G01 X4.7009 Y74.9342
G01 X4.6905 Y74.9508
G01 X4.6708 Y74.9869
G01 X4.6513 Y75.0340
G01 X4.6397 Y75.0734
G01 X4.6353 Y75.0926
G01 X4.6287 Y75.1331
G01 X4.6261 Y75.1735
G01 X4.6259 Y81.7887
G01 X4.6279 Y81.8291
G01 X4.6301 Y81.8486
G01 X4.6372 Y81.8891
G01 X4.6483 Y81.9286
G01 X4.6548 Y81.9472
G01 X4.6708 Y81.9851
G01 X4.6905 Y82.0212
G01 X4.7009 Y82.0378
G01 X4.7249 Y82.0712
G01 X4.7584 Y82.1086
G01 X5.1637 Y82.5139
G01 X5.1506 Y82.5454
G01 X5.1441 Y82.5639
G01 X5.1117 Y82.6774
G01 X5.0903 Y82.8034
G01 X5.0834 Y82.9212
G01 X5.0834 Y82.9408
G01 X5.0903 Y83.0586
G01 X5.1059 Y83.1519
G01 X4.7584 Y83.4994
G01 X4.7313 Y83.5293
G01 X4.7190 Y83.5447
G01 X4.6954 Y83.5784
G01 X4.6753 Y83.6142
G01 X4.6668 Y83.6319
G01 X4.6513 Y83.6700
G01 X4.6397 Y83.7094
G01 X4.6353 Y83.7286
G01 X4.6287 Y83.7691
G01 X4.6261 Y83.8095
G01 X4.6259 Y92.7107
G01 X4.6279 Y92.7511
G01 X4.6301 Y92.7706
G01 X4.6372 Y92.8111
G01 X4.6483 Y92.8506
G01 X4.6548 Y92.8692
G01 X4.6708 Y92.9071
G01 X4.6905 Y92.9432
G01 X4.7009 Y92.9598
G01 X4.7190 Y92.9853
G01 X4.7313 Y93.0007
G01 X4.7584 Y93.0306
G01 X5.8348 Y94.1070
G01 X4.7516 Y95.1905
G01 X4.7249 Y95.2208
G01 X4.7009 Y95.2542
G01 X4.6905 Y95.2708
G01 X4.6708 Y95.3069
G01 X4.6548 Y95.3448
G01 X4.6483 Y95.3634
G01 X4.6372 Y95.4029
G01 X4.6301 Y95.4434
G01 X4.6279 Y95.4629
G01 X4.6259 Y95.5033
G01 X4.6259 Y101.6056
G01 X4.6287 Y101.6509
G01 X4.6353 Y101.6914
G01 X4.6397 Y101.7106
G01 X4.6513 Y101.7500
G01 X4.6708 Y101.7971
G01 X4.6905 Y101.8332
G01 X4.7009 Y101.8498
G01 X4.7249 Y101.8832
G01 X4.7584 Y101.9206
G01 X5.2907 Y102.4529
G01 X5.2776 Y102.4844
G01 X5.2711 Y102.5029
G01 X5.2412 Y102.6069
G01 X5.2368 Y102.6260
G01 X5.2173 Y102.7424
G01 X5.2104 Y102.8602
G01 X5.2104 Y102.8798
G01 X5.2173 Y102.9976
G01 X5.2387 Y103.1236
G01 X5.2741 Y103.2465
G01 X5.3190 Y103.3556
G01 X5.3275 Y103.3733
G01 X5.3849 Y103.4764
G01 X5.4529 Y103.5728
G01 X5.4652 Y103.5882
G01 X5.5440 Y103.6760
G01 X5.6393 Y103.7612
G01 X5.7354 Y103.8297
G01 X5.7520 Y103.8401
G01 X5.8467 Y103.8925
G01 X5.8644 Y103.9010
G01 X5.8959 Y103.9140
G01 X5.8959 Y110.4907
G01 X5.8987 Y110.5409
G01 X5.9072 Y110.5911
G01 X5.9213 Y110.6400
G01 X5.9408 Y110.6871
G01 X5.9605 Y110.7232
G01 X5.9709 Y110.7398
G01 X5.9949 Y110.7732
G01 X6.0221 Y110.8040
G01 X6.0360 Y110.8179
G01 X6.0668 Y110.8451
G01 X6.1084 Y110.8746
G01 X6.1529 Y110.8992
G01 X6.1908 Y110.9152
G01 X6.2094 Y110.9217
G01 X6.2489 Y110.9328
G01 X6.2894 Y110.9399
G01 X6.3089 Y110.9421
G01 X6.3493 Y110.9441
G01 X48.0719 Y110.9441
G01 X48.7859 Y111.6582
G01 X48.7716 Y111.6758
G01 X48.7205 Y111.7478
G01 X48.7101 Y111.7644
G01 X48.6629 Y111.8504
G01 X48.6216 Y111.9501
G01 X48.5942 Y112.0443
G01 X48.5898 Y112.0635
G01 X48.5736 Y112.1602
G01 X48.5679 Y112.2575
G01 X48.5679 Y113.8025
G01 X48.5736 Y113.8998
G01 X48.5917 Y114.0062
G01 X48.6216 Y114.1099
G01 X48.6629 Y114.2096
G01 X48.7151 Y114.3040
G01 X48.7716 Y114.3842
G01 X48.7839 Y114.3996
G01 X48.8427 Y114.4654
G01 X48.8566 Y114.4793
G01 X48.9299 Y114.5445
G01 X49.0180 Y114.6069
G01 X49.1124 Y114.6591
G01 X49.2121 Y114.7004
G01 X49.3158 Y114.7303
G01 X49.4125 Y114.7470
G01 X49.4320 Y114.7492
G01 X49.5202 Y114.7541
G01 X49.5398 Y114.7541
G01 X49.6378 Y114.7484
G01 X49.7442 Y114.7303
G01 X49.8479 Y114.7004
G01 X49.9476 Y114.6591
G01 X50.0420 Y114.6069
G01 X50.1301 Y114.5445
G01 X50.2105 Y114.4725
G01 X50.2825 Y114.3921
G01 X50.3449 Y114.3040
G01 X50.3971 Y114.2096
G01 X50.4384 Y114.1099
G01 X50.4658 Y114.0157
G01 X50.4702 Y113.9965
G01 X50.4864 Y113.8998
G01 X50.4924 Y113.7927
G01 X50.4923 Y112.2624
G01 X50.4864 Y112.1602
G01 X50.4702 Y112.0635
G01 X50.4658 Y112.0443
G01 X50.4384 Y111.9501
G01 X50.3971 Y111.8504
G01 X50.3449 Y111.7560
G01 X50.2825 Y111.6679
G01 X50.2173 Y111.5946
G01 X50.2034 Y111.5807
G01 X50.1301 Y111.5155
G01 X50.0502 Y111.4585
G01 X50.0336 Y111.4481
G01 X49.9563 Y111.4054
G01 X49.9386 Y111.3969
G01 X49.8479 Y111.3596
G01 X49.7414 Y111.3292
G01 X48.5735 Y110.1616
G01 X48.5432 Y110.1349
G01 X48.5098 Y110.1109
G01 X48.4932 Y110.1005
G01 X48.4571 Y110.0808
G01 X48.4100 Y110.0613
G01 X48.3706 Y110.0497
G01 X48.3514 Y110.0453
G01 X48.3108 Y110.0387
G01 X48.2607 Y110.0359
G01 X6.8041 Y110.0359
G01 X6.8041 Y103.9140
G01 X6.8356 Y103.9010
G01 X6.8533 Y103.8925
G01 X6.9564 Y103.8351
G01 X7.0528 Y103.7671
G01 X7.0682 Y103.7548
G01 X7.1560 Y103.6760
G01 X7.2348 Y103.5882
G01 X7.2471 Y103.5728
G01 X7.3097 Y103.4846
G01 X7.3201 Y103.4680
G01 X7.3770 Y103.3646
G01 X7.4224 Y103.2556
G01 X7.4289 Y103.2371
G01 X7.4613 Y103.1236
G01 X7.4813 Y103.0073
G01 X7.4835 Y102.9878
G01 X7.4898 Y102.8700
G01 X7.4827 Y102.7424
G01 X7.4613 Y102.6164
G01 X7.4259 Y102.4935
G01 X7.3770 Y102.3754
G01 X7.3151 Y102.2636
G01 X7.2412 Y102.1593
G01 X7.1560 Y102.0640
G01 X7.0607 Y101.9788
G01 X6.9646 Y101.9103
G01 X6.9480 Y101.8999
G01 X6.8446 Y101.8430
G01 X6.7265 Y101.7941
G01 X6.6036 Y101.7587
G01 X6.4776 Y101.7373
G01 X6.3500 Y101.7302
G01 X6.2224 Y101.7373
G01 X6.0964 Y101.7587
G01 X5.9829 Y101.7911
G01 X5.9644 Y101.7976
G01 X5.9329 Y101.8107
G01 X5.5341 Y101.4119
G01 X5.5341 Y95.6921
G01 X6.6651 Y94.5611
G01 X7.1656 Y94.5611
G01 X7.1657 Y94.8746
G01 X7.1716 Y94.9768
G01 X7.1897 Y95.0832
G01 X7.2166 Y95.1775
G01 X7.2231 Y95.1960
G01 X7.2609 Y95.2866
G01 X7.3081 Y95.3726
G01 X7.3185 Y95.3892
G01 X7.3755 Y95.4691
G01 X7.4475 Y95.5495
G01 X7.5204 Y95.6151
G01 X7.5358 Y95.6274
G01 X7.6078 Y95.6785
G01 X7.6244 Y95.6889
G01 X7.7017 Y95.7316
G01 X7.7194 Y95.7401
G01 X7.8101 Y95.7774
G01 X7.9043 Y95.8048
G01 X7.9235 Y95.8092
G01 X8.0202 Y95.8254
G01 X8.1280 Y95.8314
G01 X8.2260 Y95.8262
G01 X8.2455 Y95.8240
G01 X8.3422 Y95.8073
G01 X8.4365 Y95.7804
G01 X8.4550 Y95.7739
G01 X8.5456 Y95.7361
G01 X8.6400 Y95.6839
G01 X8.7281 Y95.6215
G01 X8.8085 Y95.5495
G01 X8.8804 Y95.4691
G01 X8.9375 Y95.3892
G01 X8.9479 Y95.3726
G01 X8.9951 Y95.2866
G01 X9.0329 Y95.1960
G01 X9.0394 Y95.1775
G01 X9.0638 Y95.0927
G01 X9.0682 Y95.0735
G01 X9.0844 Y94.9768
G01 X9.0904 Y94.8697
G01 X9.0903 Y93.3394
G01 X9.0844 Y93.2372
G01 X9.0663 Y93.1308
G01 X9.0364 Y93.0271
G01 X8.9951 Y92.9274
G01 X8.9429 Y92.8330
G01 X8.8804 Y92.7449
G01 X8.8085 Y92.6645
G01 X8.7356 Y92.5989
G01 X8.7202 Y92.5866
G01 X8.6400 Y92.5301
G01 X8.5543 Y92.4824
G01 X8.5366 Y92.4739
G01 X8.4550 Y92.4401
G01 X8.4365 Y92.4336
G01 X8.3422 Y92.4067
G01 X8.2358 Y92.3886
G01 X8.1280 Y92.3826
G01 X8.0202 Y92.3886
G01 X7.9138 Y92.4067
G01 X7.8101 Y92.4366
G01 X7.7104 Y92.4779
G01 X7.6160 Y92.5301
G01 X7.5279 Y92.5925
G01 X7.4475 Y92.6645
G01 X7.3755 Y92.7449
G01 X7.3185 Y92.8248
G01 X7.3081 Y92.8414
G01 X7.2609 Y92.9274
G01 X7.2231 Y93.0180
G01 X7.2166 Y93.0365
G01 X7.1922 Y93.1213
G01 X7.1878 Y93.1405
G01 X7.1716 Y93.2372
G01 X7.1659 Y93.3345
G01 X7.1656 Y93.6529
G01 X6.6651 Y93.6529
G01 X5.5341 Y92.5219
G01 X5.5341 Y84.0081
G01 X5.6354 Y83.9068
G01 X5.7284 Y83.9580
G01 X5.8374 Y84.0034
G01 X5.8559 Y84.0099
G01 X5.9694 Y84.0423
G01 X6.0857 Y84.0623
G01 X6.1052 Y84.0645
G01 X6.2230 Y84.0708
G01 X6.3408 Y84.0645
G01 X6.3603 Y84.0623
G01 X6.4766 Y84.0423
G01 X6.5995 Y84.0069
G01 X6.7176 Y83.9580
G01 X6.8210 Y83.9011
G01 X6.8376 Y83.8907
G01 X6.9337 Y83.8222
G01 X7.0290 Y83.7370
G01 X7.1142 Y83.6417
G01 X7.1827 Y83.5456
G01 X7.1931 Y83.5290
G01 X7.2500 Y83.4256
G01 X7.2954 Y83.3166
G01 X7.3019 Y83.2981
G01 X7.3318 Y83.1941
G01 X7.3362 Y83.1750
G01 X7.3557 Y83.0586
G01 X7.3628 Y82.9310
G01 X7.3557 Y82.8034
G01 X7.3343 Y82.6774
G01 X7.2989 Y82.5545
G01 X7.2500 Y82.4364
G01 X7.1881 Y82.3246
G01 X7.1142 Y82.2203
G01 X7.0290 Y82.1250
G01 X6.9412 Y82.0462
G01 X6.9258 Y82.0339
G01 X6.8294 Y81.9659
G01 X6.7263 Y81.9085
G01 X6.7086 Y81.9000
G01 X6.6086 Y81.8586
G01 X6.5901 Y81.8521
G01 X6.4766 Y81.8197
G01 X6.3603 Y81.7997
G01 X6.3408 Y81.7975
G01 X6.2230 Y81.7912
G01 X6.0954 Y81.7983
G01 X5.9694 Y81.8197
G01 X5.8559 Y81.8521
G01 X5.8374 Y81.8586
G01 X5.8059 Y81.8717
G01 X5.5341 Y81.5999
G01 X5.5341 Y75.3721
G01 X6.6651 Y74.2411
G01 X6.7846 Y74.2411
G01 X6.7847 Y74.5546
G01 X6.7906 Y74.6568
G01 X6.8087 Y74.7632
G01 X6.8356 Y74.8575
G01 X6.8421 Y74.8760
G01 X6.8799 Y74.9666
G01 X6.9271 Y75.0526
G01 X6.9375 Y75.0692
G01 X6.9945 Y75.1491
G01 X7.0597 Y75.2224
G01 X7.0736 Y75.2363
G01 X7.1469 Y75.3015
G01 X7.2350 Y75.3639
G01 X7.3207 Y75.4116
G01 X7.3384 Y75.4201
G01 X7.4291 Y75.4574
G01 X7.5233 Y75.4848
G01 X7.5425 Y75.4892
G01 X7.6392 Y75.5054
G01 X7.7372 Y75.5111
G01 X7.7568 Y75.5111
G01 X7.8548 Y75.5054
G01 X7.9515 Y75.4892
G01 X7.9707 Y75.4848
G01 X8.0649 Y75.4574
G01 X8.1556 Y75.4201
G01 X8.1733 Y75.4116
G01 X8.2590 Y75.3639
G01 X8.3392 Y75.3074
G01 X8.3546 Y75.2951
G01 X8.4204 Y75.2363
G01 X8.4343 Y75.2224
G01 X8.4994 Y75.1491
G01 X8.5565 Y75.0692
G01 X8.5669 Y75.0526
G01 X8.6141 Y74.9666
G01 X8.6554 Y74.8669
G01 X8.6853 Y74.7632
G01 X8.7020 Y74.6665
G01 X8.7042 Y74.6470
G01 X8.7094 Y74.5497
G01 X8.7093 Y73.0194
G01 X8.7034 Y72.9172
G01 X8.6853 Y72.8108
G01 X8.6554 Y72.7071
G01 X8.6141 Y72.6074
G01 X8.5619 Y72.5130
G01 X8.4994 Y72.4249
G01 X8.4275 Y72.3445
G01 X8.3546 Y72.2789
G01 X8.3392 Y72.2666
G01 X8.2590 Y72.2101
G01 X8.1733 Y72.1624
G01 X8.1556 Y72.1539
G01 X8.0740 Y72.1201
G01 X8.0555 Y72.1136
G01 X7.9612 Y72.0867
G01 X7.8548 Y72.0686
G01 X7.7470 Y72.0626
G01 X7.6490 Y72.0678
G01 X7.6295 Y72.0700
G01 X7.5328 Y72.0867
G01 X7.4291 Y72.1166
G01 X7.3294 Y72.1579
G01 X7.2434 Y72.2051
G01 X7.2268 Y72.2155
G01 X7.1548 Y72.2666
G01 X7.1394 Y72.2789
G01 X7.0665 Y72.3445
G01 X6.9945 Y72.4249
G01 X6.9321 Y72.5130
G01 X6.8799 Y72.6074
G01 X6.8386 Y72.7071
G01 X6.8087 Y72.8108
G01 X6.7906 Y72.9172
G01 X6.7849 Y73.0145
G01 X6.7846 Y73.3329
G01 X6.6651 Y73.3329
G01 X5.5341 Y72.2019
G01 X5.5341 Y64.4501
G01 X5.8059 Y64.1783
G01 X5.8374 Y64.1914
G01 X5.8559 Y64.1979
G01 X5.9694 Y64.2303
G01 X6.0954 Y64.2517
G01 X6.2230 Y64.2588
G01 X6.3408 Y64.2525
G01 X6.3603 Y64.2503
G01 X6.4766 Y64.2303
G01 X6.5901 Y64.1979
G01 X6.6086 Y64.1914
G01 X6.7086 Y64.1500
G01 X6.7263 Y64.1415
G01 X6.8294 Y64.0841
G01 X6.9258 Y64.0161
G01 X6.9412 Y64.0038
G01 X7.0290 Y63.9250
G01 X7.1142 Y63.8297
G01 X7.1881 Y63.7254
G01 X7.2500 Y63.6136
G01 X7.2989 Y63.4955
G01 X7.3343 Y63.3726
G01 X7.3557 Y63.2466
G01 X7.3628 Y63.1190
G01 X7.3557 Y62.9914
G01 X7.3343 Y62.8654
G01 X7.2989 Y62.7425
G01 X7.2500 Y62.6244
G01 X7.1881 Y62.5126
G01 X7.1142 Y62.4083
G01 X7.0290 Y62.3130
G01 X6.9412 Y62.2342
G01 X6.9258 Y62.2219
G01 X6.8294 Y62.1539
G01 X6.7263 Y62.0965
G01 X6.7086 Y62.0880
G01 X6.6086 Y62.0466
G01 X6.5901 Y62.0401
G01 X6.4766 Y62.0077
G01 X6.3603 Y61.9877
G01 X6.3408 Y61.9855
G01 X6.2230 Y61.9792
G01 X6.0954 Y61.9863
G01 X5.9694 Y62.0077
G01 X5.8559 Y62.0401
G01 X5.8374 Y62.0466
G01 X5.8059 Y62.0597
G01 X5.5341 Y61.7879
G01 X5.5341 Y54.7981
G01 X6.3500 Y53.9822
G01 X6.4139 Y54.0460
G01 X6.4403 Y54.0697
G01 X6.4557 Y54.0820
G01 X6.4894 Y54.1056
G01 X6.5252 Y54.1257
G01 X6.5429 Y54.1342
G01 X6.5810 Y54.1497
G01 X6.6204 Y54.1613
G01 X6.6396 Y54.1657
G01 X6.6801 Y54.1723
G01 X6.7254 Y54.1751
G01 X7.0386 Y54.1751
G01 X7.0387 Y54.4886
G01 X7.0446 Y54.5908
G01 X7.0627 Y54.6972
G01 X7.0896 Y54.7915
G01 X7.0961 Y54.8100
G01 X7.1339 Y54.9006
G01 X7.1811 Y54.9866
G01 X7.1915 Y55.0032
G01 X7.2485 Y55.0831
G01 X7.3205 Y55.1635
G01 X7.3934 Y55.2291
G01 X7.4088 Y55.2414
G01 X7.4890 Y55.2979
G01 X7.5834 Y55.3501
G01 X7.6740 Y55.3879
G01 X7.6925 Y55.3944
G01 X7.7773 Y55.4188
G01 X7.7965 Y55.4232
G01 X7.8932 Y55.4394
G01 X7.9912 Y55.4451
G01 X8.0108 Y55.4451
G01 X8.1088 Y55.4394
G01 X8.2152 Y55.4213
G01 X8.3189 Y55.3914
G01 X8.4096 Y55.3541
G01 X8.4273 Y55.3456
G01 X8.5130 Y55.2979
G01 X8.6011 Y55.2355
G01 X8.6815 Y55.1635
G01 X8.7535 Y55.0831
G01 X8.8159 Y54.9950
G01 X8.8681 Y54.9006
G01 X8.9094 Y54.8009
G01 X8.9393 Y54.6972
G01 X8.9574 Y54.5908
G01 X8.9634 Y54.4837
G01 X8.9633 Y52.9534
G01 X8.9574 Y52.8512
G01 X8.9393 Y52.7448
G01 X8.9094 Y52.6411
G01 X8.8681 Y52.5414
G01 X8.8159 Y52.4470
G01 X8.7535 Y52.3589
G01 X8.6815 Y52.2785
G01 X8.6086 Y52.2129
G01 X8.5932 Y52.2006
G01 X8.5130 Y52.1441
G01 X8.4186 Y52.0919
G01 X8.3189 Y52.0506
G01 X8.2247 Y52.0232
G01 X8.2055 Y52.0188
G01 X8.1088 Y52.0026
G01 X8.0108 Y51.9969
G01 X7.9912 Y51.9969
G01 X7.9030 Y52.0018
G01 X7.8835 Y52.0040
G01 X7.7868 Y52.0207
G01 X7.6831 Y52.0506
G01 X7.5834 Y52.0919
G01 X7.4974 Y52.1391
G01 X7.4808 Y52.1495
G01 X7.4088 Y52.2006
G01 X7.3934 Y52.2129
G01 X7.3205 Y52.2785
G01 X7.2485 Y52.3589
G01 X7.1861 Y52.4470
G01 X7.1339 Y52.5414
G01 X7.0926 Y52.6411
G01 X7.0627 Y52.7448
G01 X7.0446 Y52.8512
G01 X7.0389 Y52.9485
G01 X7.0386 Y53.2669
G01 X6.9191 Y53.2669
G01 X5.5341 Y51.8819
G01 X5.5341 Y43.8761
G01 X5.8059 Y43.6043
G01 X5.8374 Y43.6174
G01 X5.8559 Y43.6239
G01 X5.9694 Y43.6563
G01 X6.0954 Y43.6777
G01 X6.2230 Y43.6848
G01 X6.3408 Y43.6785
G01 X6.3603 Y43.6763
G01 X6.4766 Y43.6563
G01 X6.5901 Y43.6239
G01 X6.6086 Y43.6174
G01 X6.7086 Y43.5760
G01 X6.7263 Y43.5675
G01 X6.8294 Y43.5101
G01 X6.9258 Y43.4421
G01 X6.9412 Y43.4298
G01 X7.0290 Y43.3510
G01 X7.1142 Y43.2557
G01 X7.1881 Y43.1514
G01 X7.2500 Y43.0396
G01 X7.2989 Y42.9215
G01 X7.3343 Y42.7986
G01 X7.3557 Y42.6726
G01 X7.3628 Y42.5450
G01 X7.3557 Y42.4174
G01 X7.3343 Y42.2914
G01 X7.2989 Y42.1685
G01 X7.2500 Y42.0504
G01 X7.1881 Y41.9386
G01 X7.1142 Y41.8343
G01 X7.0290 Y41.7390
G01 X6.9412 Y41.6602
G01 X6.9258 Y41.6479
G01 X6.8294 Y41.5799
G01 X6.7263 Y41.5225
G01 X6.7086 Y41.5140
G01 X6.6086 Y41.4726
G01 X6.5901 Y41.4661
G01 X6.4766 Y41.4337
G01 X6.3603 Y41.4137
G01 X6.3408 Y41.4115
G01 X6.2230 Y41.4052
G01 X6.0954 Y41.4123
G01 X5.9694 Y41.4337
G01 X5.8559 Y41.4661
G01 X5.8374 Y41.4726
G01 X5.8059 Y41.4857
G01 X5.5341 Y41.2139
G01 X5.5341 Y33.4741
G01 X6.9116 Y33.4741
G01 X6.9117 Y33.9146
G01 X6.9176 Y34.0168
G01 X6.9357 Y34.1232
G01 X6.9656 Y34.2269
G01 X7.0029 Y34.3176
G01 X7.0114 Y34.3353
G01 X7.0591 Y34.4210
G01 X7.1156 Y34.5012
G01 X7.1279 Y34.5166
G01 X7.1935 Y34.5895
G01 X7.2664 Y34.6551
G01 X7.2818 Y34.6674
G01 X7.3620 Y34.7239
G01 X7.4477 Y34.7716
G01 X7.4654 Y34.7801
G01 X7.5561 Y34.8174
G01 X7.6598 Y34.8473
G01 X7.7565 Y34.8640
G01 X7.7760 Y34.8662
G01 X7.8740 Y34.8714
G01 X7.9720 Y34.8662
G01 X7.9915 Y34.8640
G01 X8.0882 Y34.8473
G01 X8.1919 Y34.8174
G01 X8.2916 Y34.7761
G01 X8.3860 Y34.7239
G01 X8.4741 Y34.6615
G01 X8.5474 Y34.5963
G01 X8.5613 Y34.5824
G01 X8.6201 Y34.5166
G01 X8.6324 Y34.5012
G01 X8.6889 Y34.4210
G01 X8.7366 Y34.3353
G01 X8.7451 Y34.3176
G01 X8.7824 Y34.2269
G01 X8.8098 Y34.1327
G01 X8.8142 Y34.1135
G01 X8.8304 Y34.0168
G01 X8.8363 Y33.9146
G01 X8.8364 Y32.3843
G01 X8.8304 Y32.2772
G01 X8.8123 Y32.1708
G01 X8.7824 Y32.0671
G01 X8.7451 Y31.9764
G01 X8.7366 Y31.9587
G01 X8.6939 Y31.8814
G01 X8.6835 Y31.8648
G01 X8.6265 Y31.7849
G01 X8.5545 Y31.7045
G01 X8.4741 Y31.6325
G01 X8.3860 Y31.5701
G01 X8.2916 Y31.5179
G01 X8.2010 Y31.4801
G01 X8.1825 Y31.4736
G01 X8.0977 Y31.4492
G01 X8.0785 Y31.4448
G01 X7.9818 Y31.4286
G01 X7.8838 Y31.4229
G01 X7.8642 Y31.4229
G01 X7.7662 Y31.4286
G01 X7.6598 Y31.4467
G01 X7.5561 Y31.4766
G01 X7.4564 Y31.5179
G01 X7.3620 Y31.5701
G01 X7.2739 Y31.6325
G01 X7.1935 Y31.7045
G01 X7.1215 Y31.7849
G01 X7.0591 Y31.8730
G01 X7.0069 Y31.9674
G01 X6.9656 Y32.0671
G01 X6.9382 Y32.1613
G01 X6.9338 Y32.1805
G01 X6.9190 Y32.2675
G01 X6.9168 Y32.2870
G01 X6.9117 Y32.3794
G01 X6.9116 Y32.5659
G01 X5.5341 Y32.5659
G01 X5.5341 Y23.4291
G01 X5.6789 Y23.2843
G01 X5.7104 Y23.2974
G01 X5.7289 Y23.3039
G01 X5.8424 Y23.3363
G01 X5.9684 Y23.3577
G01 X6.0960 Y23.3648
G01 X6.2236 Y23.3577
G01 X6.3496 Y23.3363
G01 X6.4725 Y23.3009
G01 X6.5906 Y23.2520
G01 X6.6940 Y23.1951
G01 X6.7106 Y23.1847
G01 X6.7988 Y23.1221
G01 X6.8142 Y23.1098
G01 X6.9020 Y23.0310
G01 X6.9808 Y22.9432
G01 X6.9931 Y22.9278
G01 X7.0611 Y22.8314
G01 X7.1185 Y22.7283
G01 X7.1270 Y22.7106
G01 X7.1719 Y22.6015
G01 X7.2073 Y22.4786
G01 X7.2287 Y22.3526
G01 X7.2358 Y22.2250
G01 X7.2287 Y22.0974
G01 X7.2092 Y21.9810
G01 X7.2048 Y21.9619
G01 X7.1749 Y21.8579
G01 X7.1684 Y21.8394
G01 X7.1230 Y21.7304
G01 X7.0661 Y21.6270
G01 X7.0557 Y21.6104
G01 X6.9872 Y21.5143
G01 X6.9020 Y21.4190
G01 X6.8067 Y21.3338
G01 X6.7106 Y21.2653
G01 X6.6940 Y21.2549
G01 X6.5993 Y21.2025
G01 X6.5816 Y21.1940
G01 X6.4725 Y21.1491
G01 X6.3591 Y21.1162
G01 X6.3400 Y21.1118
G01 X6.2236 Y21.0923
G01 X6.0960 Y21.0852
G01 X5.9684 Y21.0923
G01 X5.8520 Y21.1118
G01 X5.8329 Y21.1162
G01 X5.7289 Y21.1461
G01 X5.7104 Y21.1526
G01 X5.6014 Y21.1980
G01 X5.5341 Y21.2349
G01 X5.5341 Y15.6476
G01 X5.5756 Y15.6246
G01 X5.6093 Y15.6010
G01 X5.6247 Y15.5887
G01 X5.6546 Y15.5616
G01 X7.1368 Y14.0795
G01 X7.1935 Y14.1425
G01 X7.2664 Y14.2081
G01 X7.2818 Y14.2204
G01 X7.3538 Y14.2715
G01 X7.3704 Y14.2819
G01 X7.4564 Y14.3291
G01 X7.5470 Y14.3669
G01 X7.5655 Y14.3734
G01 X7.6598 Y14.4003
G01 X7.7662 Y14.4184
G01 X7.8740 Y14.4244
G01 X7.9720 Y14.4192
G01 X7.9915 Y14.4170
G01 X8.0882 Y14.4003
G01 X8.1919 Y14.3704
G01 X8.2916 Y14.3291
G01 X8.3860 Y14.2769
G01 X8.4741 Y14.2145
G01 X8.5545 Y14.1425
G01 X8.6265 Y14.0621
G01 X8.6835 Y13.9822
G01 X8.6939 Y13.9656
G01 X8.7411 Y13.8796
G01 X8.7789 Y13.7890
G01 X8.7854 Y13.7705
G01 X8.8098 Y13.6857
G01 X8.8142 Y13.6665
G01 X8.8304 Y13.5698
G01 X8.8361 Y13.4725
G01 X8.8364 Y11.9373
G01 X8.8304 Y11.8302
G01 X8.8142 Y11.7335
G01 X8.8098 Y11.7143
G01 X8.7824 Y11.6201
G01 X8.7411 Y11.5204
G01 X8.6889 Y11.4260
G01 X8.6324 Y11.3458
G01 X8.6201 Y11.3304
G01 X8.5545 Y11.2575
G01 X8.4816 Y11.1919
G01 X8.4662 Y11.1796
G01 X8.3942 Y11.1285
G01 X8.3776 Y11.1181
G01 X8.2916 Y11.0709
G01 X8.1919 Y11.0296
G01 X8.0977 Y11.0022
G01 X8.0785 Y10.9978
G01 X7.9818 Y10.9816
G01 X7.8838 Y10.9759
G01 X7.8642 Y10.9759
G01 X7.7662 Y10.9816
G01 X7.6695 Y10.9978
G01 X7.6503 Y11.0022
G01 X7.5561 Y11.0296
G01 X7.4654 Y11.0669
G01 X7.4477 Y11.0754
G01 X7.3620 Y11.1231
G01 X7.2818 Y11.1796
G01 X7.2664 Y11.1919
G01 X7.1935 Y11.2575
G01 X7.1279 Y11.3304
G01 X7.1156 Y11.3458
G01 X7.0591 Y11.4260
G01 X7.0114 Y11.5117
G01 X7.0029 Y11.5294
G01 X6.9656 Y11.6201
G01 X6.9382 Y11.7143
G01 X6.9338 Y11.7335
G01 X6.9176 Y11.8302
G01 X6.9116 Y11.9373
G01 X6.9116 Y13.0201
G01 X5.1459 Y14.7859
G01 X5.0744 Y14.7859
G01 X5.0389 Y14.7879
G01 X5.0194 Y14.7901
G01 X4.9789 Y14.7972
G01 X4.9394 Y14.8083
G01 X4.9208 Y14.8148
G01 X4.8829 Y14.8308
G01 X4.8384 Y14.8554
G01 X4.8047 Y14.8790
G01 X4.7893 Y14.8913
G01 X4.7589 Y14.9189
G01 X4.7249 Y14.9568
G01 X4.7009 Y14.9902
G01 X4.6905 Y15.0068
G01 X4.6708 Y15.0429
G01 X4.6513 Y15.0900
G01 X4.6397 Y15.1294
G01 X4.6353 Y15.1486
G01 X4.6287 Y15.1891
G01 X4.6259 Y15.2393
G01 X4.6259 Y21.5907
G00 Z0.6000
G00 X4.7420 Y22.7811
G01 F30.00
G01 Z-0.0800
G01 F90.00
G01 X4.7600 Y22.7584
G01 X4.7784 Y22.7313
G01 X4.7961 Y22.7013
G01 X4.8028 Y22.6870
G01 X4.8198 Y22.6481
G01 X4.8239 Y22.6355
G01 X4.8304 Y22.6146
G01 X4.8382 Y22.5830
G01 X4.8421 Y22.5622
G01 X4.8444 Y22.5486
G01 X4.8457 Y22.5335
G01 X4.8481 Y22.4921
G01 X4.8481 Y22.3395
G01 X4.8470 Y22.3082
G01 X4.8455 Y22.2929
G01 X4.8424 Y22.2710
G01 X4.8372 Y22.2436
G01 X4.8337 Y22.2269
G01 X4.8278 Y22.2066
G01 X4.8070 Y22.1520
G01 X4.7907 Y22.1206
G01 X4.7670 Y22.0819
G01 X4.7544 Y22.0645
G01 X4.7168 Y22.0216
G01 X4.6034 Y21.9084
G01 X4.5179 Y21.7018
G01 X4.5179 Y15.1282
G01 X4.6035 Y14.9216
G01 X4.7616 Y14.7635
G01 X4.9814 Y14.6725
G01 X5.0273 Y14.6635
G01 X5.0476 Y14.6576
G01 X5.1022 Y14.6368
G01 X5.1336 Y14.6205
G01 X5.1723 Y14.5968
G01 X5.1897 Y14.5842
G01 X5.2225 Y14.5558
G01 X5.2325 Y14.5466
G01 X6.6721 Y13.1071
G01 X6.7028 Y13.0727
G01 X6.7158 Y13.0556
G01 X6.7342 Y13.0285
G01 X6.7519 Y12.9985
G01 X6.7586 Y12.9842
G01 X6.7756 Y12.9453
G01 X6.7862 Y12.9118
G01 X6.7940 Y12.8802
G01 X6.8002 Y12.8458
G01 X6.8033 Y12.8022
G01 X6.8039 Y12.7893
G01 X6.8039 Y11.7252
G01 X6.9668 Y11.3319
G01 X7.2679 Y11.0308
G01 X7.6612 Y10.8679
G01 X8.0868 Y10.8679
G01 X8.4801 Y11.0308
G01 X8.8310 Y11.3813
G01 X8.8584 Y11.4054
G01 X8.8747 Y11.4183
G01 X8.9194 Y11.4468
G01 X8.9335 Y11.4550
G01 X8.9582 Y11.4666
G01 X8.9916 Y11.4800
G01 X9.0170 Y11.4887
G01 X9.0722 Y11.5007
G01 X9.1108 Y11.5052
G01 X9.1502 Y11.5063
G01 X9.1771 Y11.5056
G01 X9.2320 Y11.4978
G01 X9.2464 Y11.4948
G01 X9.2706 Y11.4884
G01 X9.3094 Y11.4752
G01 X9.3317 Y11.4659
G01 X9.3457 Y11.4591
G01 X9.3791 Y11.4407
G01 X9.4029 Y11.4257
G01 X9.4155 Y11.4161
G01 X9.4562 Y11.3823
G01 X9.5325 Y11.3058
G01 X9.5588 Y11.2761
G01 X9.5709 Y11.2596
G01 X9.5960 Y11.2212
G01 X9.6044 Y11.2071
G01 X9.6116 Y11.1923
G01 X9.6301 Y11.1488
G01 X9.6357 Y11.1341
G01 X9.6411 Y11.1146
G01 X9.6513 Y11.0696
G01 X9.6545 Y11.0517
G01 X9.6579 Y10.9907
G01 X9.6577 Y10.9714
G01 X9.6564 Y10.9555
G01 X9.6504 Y10.9108
G01 X9.6477 Y10.8950
G01 X9.6428 Y10.8762
G01 X9.6245 Y10.8208
G01 X9.5090 Y10.5421
G01 X9.5090 Y9.7779
G01 X9.8015 Y9.0719
G01 X10.3419 Y8.5315
G01 X11.0479 Y8.2390
G01 X11.8121 Y8.2390
G01 X12.5181 Y8.5315
G01 X13.0585 Y9.0719
G01 X13.3655 Y9.8129
G01 X13.3712 Y9.8349
G01 X13.3789 Y9.8570
G01 X13.3960 Y9.8975
G01 X13.4055 Y9.9169
G01 X13.4362 Y9.9654
G01 X13.4457 Y9.9788
G01 X13.4591 Y9.9948
G01 X13.4902 Y10.0279
G01 X13.5054 Y10.0423
G01 X13.5182 Y10.0526
G01 X13.5625 Y10.0850
G01 X13.5825 Y10.0965
G01 X13.6219 Y10.1161
G01 X13.6382 Y10.1234
G01 X13.6557 Y10.1295
G01 X13.7092 Y10.1447
G01 X13.7340 Y10.1492
G01 X13.7792 Y10.1541
G01 X13.8146 Y10.1547
G01 X13.8595 Y10.1514
G01 X13.8816 Y10.1486
G01 X13.8961 Y10.1454
G01 X13.9365 Y10.1352
G01 X13.9538 Y10.1301
G01 X13.9733 Y10.1222
G01 X14.0107 Y10.1053
G01 X14.0252 Y10.0981
G01 X14.1358 Y10.0342
G01 X14.8633 Y9.8392
G01 X15.6167 Y9.8392
G01 X16.2575 Y10.0110
G01 X16.2845 Y10.0167
G01 X16.2845 Y10.0257
G01 X16.3967 Y10.0254
G01 X16.4106 Y10.0241
G01 X16.4642 Y10.0166
G01 X16.4755 Y10.0380
G01 X16.4835 Y10.0507
G01 X16.5077 Y10.0870
G01 X16.5200 Y10.1027
G01 X16.5622 Y10.1473
G01 X16.5760 Y10.1596
G01 X16.5898 Y10.1703
G01 X16.6255 Y10.1961
G01 X16.6415 Y10.2058
G01 X16.9966 Y10.4108
G01 X17.5292 Y10.9434
G01 X17.9058 Y11.5958
G01 X18.1008 Y12.3233
G01 X18.1008 Y13.0767
G01 X17.9058 Y13.8042
G01 X17.5292 Y14.4566
G01 X16.9966 Y14.9892
G01 X16.3442 Y15.3658
G01 X15.6167 Y15.5608
G01 X14.8633 Y15.5608
G01 X14.1358 Y15.3658
G01 X13.4834 Y14.9892
G01 X12.9508 Y14.4566
G01 X12.5742 Y13.8042
G01 X12.3760 Y13.0646
G01 X12.3617 Y13.0212
G01 X12.3529 Y13.0003
G01 X12.3412 Y12.9751
G01 X12.3220 Y12.9415
G01 X12.2980 Y12.9071
G01 X12.2733 Y12.8776
G01 X12.2522 Y12.8564
G01 X12.2335 Y12.8395
G01 X12.2135 Y12.8229
G01 X12.1790 Y12.7989
G01 X12.1461 Y12.7802
G01 X12.1075 Y12.7626
G01 X12.0714 Y12.7497
G01 X12.0304 Y12.7392
G01 X11.9925 Y12.7331
G01 X11.9662 Y12.7310
G01 X11.9502 Y12.7299
G01 X11.9119 Y12.7305
G01 X11.8706 Y12.7348
G01 X11.8320 Y12.7423
G01 X11.8173 Y12.7465
G01 X11.7921 Y12.7539
G01 X11.7560 Y12.7678
G01 X11.7179 Y12.7866
G01 X11.6854 Y12.8065
G01 X11.6513 Y12.8316
G01 X11.6231 Y12.8567
G01 X11.5940 Y12.8875
G01 X11.5794 Y12.9059
G01 X11.5696 Y12.9184
G01 X11.5470 Y12.9531
G01 X11.5290 Y12.9866
G01 X11.5184 Y13.0115
G01 X11.5123 Y13.0259
G01 X11.5005 Y13.0624
G01 X11.4912 Y13.1032
G01 X11.4860 Y13.1414
G01 X11.4841 Y13.1817
G01 X11.4841 Y13.6748
G01 X11.3212 Y14.0681
G01 X11.0201 Y14.3692
G01 X10.6268 Y14.5321
G01 X10.2012 Y14.5321
G01 X9.8079 Y14.3692
G01 X9.4639 Y14.0252
G01 X9.4296 Y13.9946
G01 X9.4135 Y13.9819
G01 X9.3668 Y13.9520
G01 X9.3451 Y13.9401
G01 X9.3298 Y13.9334
G01 X9.2961 Y13.9199
G01 X9.2710 Y13.9113
G01 X9.2160 Y13.8993
G01 X9.1999 Y13.8969
G01 X9.1769 Y13.8948
G01 X9.1378 Y13.8937
G01 X9.1214 Y13.8938
G01 X9.0960 Y13.8962
G01 X9.0560 Y13.9022
G01 X9.0330 Y13.9073
G01 X9.0174 Y13.9116
G01 X8.9786 Y13.9248
G01 X8.9563 Y13.9341
G01 X8.9430 Y13.9405
G01 X8.9081 Y13.9597
G01 X8.8850 Y13.9743
G01 X8.8318 Y14.0176
G01 X8.4801 Y14.3692
G01 X8.0868 Y14.5321
G01 X7.6612 Y14.5321
G01 X7.3570 Y14.4061
G01 X7.3124 Y14.3903
G01 X7.2913 Y14.3851
G01 X7.2460 Y14.3766
G01 X7.2294 Y14.3742
G01 X7.2109 Y14.3732
G01 X7.1643 Y14.3729
G01 X7.1461 Y14.3737
G01 X7.1313 Y14.3756
G01 X7.0858 Y14.3834
G01 X7.0657 Y14.3881
G01 X7.0092 Y14.4078
G01 X6.9924 Y14.4148
G01 X6.9777 Y14.4225
G01 X6.9370 Y14.4460
G01 X6.9240 Y14.4543
G01 X6.9095 Y14.4655
G01 X6.8654 Y14.5035
G01 X5.7739 Y15.5949
G01 X5.7432 Y15.6293
G01 X5.7302 Y15.6464
G01 X5.7118 Y15.6735
G01 X5.6941 Y15.7035
G01 X5.6704 Y15.7567
G01 X5.6663 Y15.7693
G01 X5.6598 Y15.7902
G01 X5.6520 Y15.8218
G01 X5.6458 Y15.8562
G01 X5.6421 Y15.9127
G01 X5.6421 Y20.5247
G01 X5.6446 Y20.5701
G01 X5.6470 Y20.5908
G01 X5.6500 Y20.6063
G01 X5.6624 Y20.6577
G01 X5.6718 Y20.6838
G01 X5.6873 Y20.7202
G01 X5.6987 Y20.7431
G01 X5.7360 Y20.7999
G01 X5.7543 Y20.8216
G01 X5.7916 Y20.8601
G01 X5.8121 Y20.8770
G01 X5.8418 Y20.8989
G01 X5.8654 Y20.9143
G01 X5.9266 Y20.9444
G01 X5.9530 Y20.9537
G01 X6.0038 Y20.9677
G01 X6.0312 Y20.9721
G01 X6.0681 Y20.9759
G01 X6.0939 Y20.9771
G01 X6.3442 Y20.9771
G01 X6.8029 Y21.1671
G01 X7.1539 Y21.5181
G01 X7.3439 Y21.9768
G01 X7.3439 Y22.4732
G01 X7.1539 Y22.9319
G01 X6.8029 Y23.2829
G01 X6.3442 Y23.4729
G01 X6.0945 Y23.4729
G01 X6.0491 Y23.4754
G01 X6.0279 Y23.4779
G01 X5.9768 Y23.4892
G01 X5.9505 Y23.4967
G01 X5.8990 Y23.5181
G01 X5.8761 Y23.5295
G01 X5.8193 Y23.5668
G01 X5.7976 Y23.5851
G01 X5.7591 Y23.6224
G01 X5.7422 Y23.6429
G01 X5.7203 Y23.6726
G01 X5.7049 Y23.6962
G01 X5.6748 Y23.7574
G01 X5.6655 Y23.7838
G01 X5.6552 Y23.8197
G01 X5.6491 Y23.8466
G01 X5.6433 Y23.8989
G01 X5.6421 Y23.9247
G01 X5.6421 Y32.0055
G01 X5.6446 Y32.0509
G01 X5.6471 Y32.0721
G01 X5.6584 Y32.1232
G01 X5.6659 Y32.1495
G01 X5.6873 Y32.2010
G01 X5.6987 Y32.2239
G01 X5.7360 Y32.2807
G01 X5.7543 Y32.3024
G01 X5.7916 Y32.3409
G01 X5.8121 Y32.3578
G01 X5.8563 Y32.3897
G01 X5.8790 Y32.4023
G01 X5.9126 Y32.4189
G01 X5.9376 Y32.4295
G01 X5.9889 Y32.4448
G01 X6.0158 Y32.4509
G01 X6.0834 Y32.4578
G01 X6.3251 Y32.4579
G01 X6.3254 Y32.4623
G01 X6.4021 Y32.4572
G01 X6.4037 Y32.4642
G01 X6.5064 Y32.4405
G01 X6.5298 Y32.4330
G01 X6.5734 Y32.4154
G01 X6.5881 Y32.4086
G01 X6.6047 Y32.3993
G01 X6.6432 Y32.3751
G01 X6.6592 Y32.3639
G01 X6.7045 Y32.3233
G01 X6.7155 Y32.3122
G01 X6.7282 Y32.2973
G01 X6.7553 Y32.2620
G01 X6.7672 Y32.2447
G01 X6.7747 Y32.2314
G01 X6.8007 Y32.1798
G01 X6.9668 Y31.7789
G01 X7.2679 Y31.4778
G01 X7.6612 Y31.3149
G01 X8.0868 Y31.3149
G01 X8.4801 Y31.4778
G01 X8.8241 Y31.8218
G01 X8.8584 Y31.8524
G01 X8.8747 Y31.8653
G01 X8.8877 Y31.8740
G01 X8.9208 Y31.8947
G01 X8.9431 Y31.9070
G01 X8.9916 Y31.9270
G01 X9.0078 Y31.9329
G01 X9.0338 Y31.9398
G01 X9.0721 Y31.9477
G01 X9.0958 Y31.9509
G01 X9.1108 Y31.9522
G01 X9.1502 Y31.9533
G01 X9.1771 Y31.9526
G01 X9.1942 Y31.9506
G01 X9.2320 Y31.9448
G01 X9.2550 Y31.9397
G01 X9.2706 Y31.9354
G01 X9.3094 Y31.9222
G01 X9.3450 Y31.9065
G01 X9.3943 Y31.8786
G01 X9.4156 Y31.8630
G01 X9.4562 Y31.8294
G01 X9.5635 Y31.7222
G01 X9.5960 Y31.6859
G01 X9.6083 Y31.6691
G01 X9.6330 Y31.6312
G01 X9.6415 Y31.6170
G01 X9.6498 Y31.5998
G01 X9.6671 Y31.5590
G01 X9.6728 Y31.5441
G01 X9.6783 Y31.5243
G01 X9.6885 Y31.4796
G01 X9.6917 Y31.4615
G01 X9.6951 Y31.4006
G01 X9.6949 Y31.3813
G01 X9.6936 Y31.3654
G01 X9.6876 Y31.3205
G01 X9.6849 Y31.3049
G01 X9.6800 Y31.2860
G01 X9.6617 Y31.2307
G01 X9.5090 Y30.8621
G01 X9.5090 Y30.0979
G01 X9.8015 Y29.3919
G01 X10.3419 Y28.8515
G01 X11.0479 Y28.5590
G01 X11.8121 Y28.5590
G01 X12.5181 Y28.8515
G01 X13.0585 Y29.3919
G01 X13.3655 Y30.1329
G01 X13.3712 Y30.1549
G01 X13.3789 Y30.1770
G01 X13.3960 Y30.2175
G01 X13.4055 Y30.2369
G01 X13.4362 Y30.2854
G01 X13.4457 Y30.2988
G01 X13.4591 Y30.3148
G01 X13.4902 Y30.3479
G01 X13.5054 Y30.3623
G01 X13.5182 Y30.3726
G01 X13.5625 Y30.4050
G01 X13.5825 Y30.4165
G01 X13.6219 Y30.4361
G01 X13.6382 Y30.4434
G01 X13.6557 Y30.4495
G01 X13.7092 Y30.4647
G01 X13.7340 Y30.4692
G01 X13.7792 Y30.4741
G01 X13.8146 Y30.4747
G01 X13.8595 Y30.4714
G01 X13.8816 Y30.4686
G01 X13.8961 Y30.4654
G01 X13.9365 Y30.4552
G01 X13.9538 Y30.4501
G01 X13.9733 Y30.4422
G01 X14.0107 Y30.4253
G01 X14.0252 Y30.4181
G01 X14.1358 Y30.3542
G01 X14.8633 Y30.1592
G01 X15.6167 Y30.1592
G01 X16.2574 Y30.3310
G01 X16.2845 Y30.3368
G01 X16.2845 Y30.3457
G01 X16.3967 Y30.3454
G01 X16.4106 Y30.3441
G01 X16.4641 Y30.3367
G01 X16.4819 Y30.3684
G01 X16.5078 Y30.4073
G01 X16.5200 Y30.4227
G01 X16.5622 Y30.4673
G01 X16.5760 Y30.4796
G01 X16.5898 Y30.4903
G01 X16.6255 Y30.5161
G01 X16.6415 Y30.5258
G01 X16.9966 Y30.7308
G01 X17.5292 Y31.2634
G01 X17.9058 Y31.9158
G01 X18.1008 Y32.6433
G01 X18.1008 Y33.3967
G01 X17.9058 Y34.1242
G01 X17.5292 Y34.7766
G01 X16.9966 Y35.3092
G01 X16.3442 Y35.6858
G01 X15.6167 Y35.8808
G01 X14.8633 Y35.8808
G01 X14.1358 Y35.6858
G01 X13.4834 Y35.3092
G01 X12.9508 Y34.7766
G01 X12.5742 Y34.1242
G01 X12.3760 Y33.3846
G01 X12.3617 Y33.3412
G01 X12.3412 Y33.2951
G01 X12.3220 Y33.2615
G01 X12.3130 Y33.2485
G01 X12.2980 Y33.2271
G01 X12.2733 Y33.1976
G01 X12.2522 Y33.1764
G01 X12.2335 Y33.1595
G01 X12.2135 Y33.1429
G01 X12.1790 Y33.1189
G01 X12.1461 Y33.1002
G01 X12.1075 Y33.0826
G01 X12.0714 Y33.0697
G01 X12.0304 Y33.0592
G01 X11.9925 Y33.0531
G01 X11.9502 Y33.0499
G01 X11.9119 Y33.0505
G01 X11.8706 Y33.0548
G01 X11.8320 Y33.0623
G01 X11.7921 Y33.0739
G01 X11.7560 Y33.0878
G01 X11.7323 Y33.0995
G01 X11.7179 Y33.1066
G01 X11.6854 Y33.1265
G01 X11.6513 Y33.1516
G01 X11.6231 Y33.1767
G01 X11.5940 Y33.2075
G01 X11.5696 Y33.2384
G01 X11.5470 Y33.2731
G01 X11.5290 Y33.3066
G01 X11.5123 Y33.3459
G01 X11.5005 Y33.3824
G01 X11.4912 Y33.4232
G01 X11.4860 Y33.4614
G01 X11.4841 Y33.5017
G01 X11.4841 Y34.1218
G01 X11.3212 Y34.5151
G01 X11.0201 Y34.8162
G01 X10.6268 Y34.9791
G01 X10.2012 Y34.9791
G01 X9.8079 Y34.8162
G01 X9.4639 Y34.4722
G01 X9.4296 Y34.4416
G01 X9.4135 Y34.4289
G01 X9.3668 Y34.3990
G01 X9.3451 Y34.3871
G01 X9.2961 Y34.3669
G01 X9.2800 Y34.3611
G01 X9.2542 Y34.3542
G01 X9.2160 Y34.3463
G01 X9.1999 Y34.3439
G01 X9.1769 Y34.3418
G01 X9.1378 Y34.3407
G01 X9.1214 Y34.3408
G01 X9.0960 Y34.3432
G01 X9.0560 Y34.3492
G01 X9.0330 Y34.3543
G01 X9.0174 Y34.3586
G01 X8.9786 Y34.3718
G01 X8.9563 Y34.3811
G01 X8.9430 Y34.3875
G01 X8.9081 Y34.4067
G01 X8.8850 Y34.4213
G01 X8.8318 Y34.4646
G01 X8.4801 Y34.8162
G01 X8.0868 Y34.9791
G01 X7.6612 Y34.9791
G01 X7.2679 Y34.8162
G01 X6.9668 Y34.5151
G01 X6.8039 Y34.1218
G01 X6.8036 Y34.0254
G01 X6.8014 Y33.9891
G01 X6.7989 Y33.9679
G01 X6.7838 Y33.9020
G01 X6.7742 Y33.8754
G01 X6.7587 Y33.8390
G01 X6.7473 Y33.8161
G01 X6.7100 Y33.7593
G01 X6.6917 Y33.7376
G01 X6.6662 Y33.7107
G01 X6.6466 Y33.6922
G01 X6.6042 Y33.6603
G01 X6.5897 Y33.6503
G01 X6.5670 Y33.6377
G01 X6.5334 Y33.6211
G01 X6.5084 Y33.6105
G01 X6.4571 Y33.5952
G01 X6.4302 Y33.5891
G01 X6.3626 Y33.5822
G01 X6.0854 Y33.5824
G01 X6.0491 Y33.5846
G01 X6.0279 Y33.5871
G01 X5.9768 Y33.5984
G01 X5.9505 Y33.6059
G01 X5.8990 Y33.6273
G01 X5.8761 Y33.6387
G01 X5.8323 Y33.6670
G01 X5.8103 Y33.6830
G01 X5.7976 Y33.6943
G01 X5.7707 Y33.7198
G01 X5.7522 Y33.7394
G01 X5.7203 Y33.7818
G01 X5.7103 Y33.7963
G01 X5.6977 Y33.8190
G01 X5.6811 Y33.8526
G01 X5.6705 Y33.8776
G01 X5.6655 Y33.8930
G01 X5.6552 Y33.9289
G01 X5.6491 Y33.9558
G01 X5.6433 Y34.0081
G01 X5.6421 Y34.0339
G01 X5.6421 Y40.8447
G01 X5.6446 Y40.8901
G01 X5.6471 Y40.9113
G01 X5.6503 Y40.9272
G01 X5.6584 Y40.9624
G01 X5.6659 Y40.9887
G01 X5.6873 Y41.0402
G01 X5.6987 Y41.0631
G01 X5.7072 Y41.0769
G01 X5.7270 Y41.1069
G01 X5.7430 Y41.1289
G01 X5.7543 Y41.1416
G01 X5.7916 Y41.1801
G01 X5.8121 Y41.1970
G01 X5.8418 Y41.2189
G01 X5.8654 Y41.2343
G01 X5.9266 Y41.2644
G01 X5.9530 Y41.2737
G01 X6.0038 Y41.2877
G01 X6.0312 Y41.2921
G01 X6.0834 Y41.2970
G01 X6.4712 Y41.2971
G01 X6.9299 Y41.4871
G01 X7.2809 Y41.8381
G01 X7.4709 Y42.2968
G01 X7.4709 Y42.7932
G01 X7.2809 Y43.2519
G01 X6.9299 Y43.6029
G01 X6.4712 Y43.7929
G01 X6.0945 Y43.7929
G01 X6.0491 Y43.7954
G01 X6.0279 Y43.7979
G01 X6.0120 Y43.8011
G01 X5.9620 Y43.8130
G01 X5.9354 Y43.8226
G01 X5.8990 Y43.8381
G01 X5.8761 Y43.8495
G01 X5.8193 Y43.8868
G01 X5.7976 Y43.9051
G01 X5.7591 Y43.9424
G01 X5.7422 Y43.9629
G01 X5.7203 Y43.9926
G01 X5.7049 Y44.0162
G01 X5.6748 Y44.0774
G01 X5.6655 Y44.1038
G01 X5.6552 Y44.1397
G01 X5.6491 Y44.1666
G01 X5.6433 Y44.2189
G01 X5.6421 Y44.2447
G01 X5.6421 Y51.6507
G01 X5.6432 Y51.6820
G01 X5.6478 Y51.7195
G01 X5.6565 Y51.7633
G01 X5.6624 Y51.7836
G01 X5.6832 Y51.8382
G01 X5.6995 Y51.8696
G01 X5.7232 Y51.9083
G01 X5.7358 Y51.9257
G01 X5.7734 Y51.9685
G01 X6.3409 Y52.5360
G01 X6.3744 Y52.5660
G01 X6.4047 Y52.5888
G01 X6.4486 Y52.6151
G01 X6.4752 Y52.6280
G01 X6.5222 Y52.6460
G01 X6.5645 Y52.6569
G01 X6.6009 Y52.6635
G01 X6.6438 Y52.6668
G01 X6.6827 Y52.6669
G01 X6.7108 Y52.6646
G01 X6.7257 Y52.6623
G01 X6.7492 Y52.6583
G01 X6.7734 Y52.6528
G01 X6.7910 Y52.6482
G01 X6.8385 Y52.6310
G01 X6.8647 Y52.6189
G01 X6.9096 Y52.5928
G01 X6.9330 Y52.5764
G01 X6.9729 Y52.5428
G01 X6.9929 Y52.5224
G01 X7.0258 Y52.4828
G01 X7.0427 Y52.4581
G01 X7.0678 Y52.4137
G01 X7.0939 Y52.3529
G01 X7.3949 Y52.0518
G01 X7.7882 Y51.8889
G01 X8.2138 Y51.8889
G01 X8.6071 Y52.0518
G01 X8.9580 Y52.4023
G01 X8.9854 Y52.4264
G01 X9.0017 Y52.4393
G01 X9.0464 Y52.4678
G01 X9.0679 Y52.4799
G01 X9.0852 Y52.4876
G01 X9.1348 Y52.5069
G01 X9.1608 Y52.5138
G01 X9.1990 Y52.5217
G01 X9.2225 Y52.5249
G01 X9.2379 Y52.5262
G01 X9.2772 Y52.5273
G01 X9.3041 Y52.5266
G01 X9.3590 Y52.5188
G01 X9.3734 Y52.5158
G01 X9.3976 Y52.5094
G01 X9.4364 Y52.4962
G01 X9.4720 Y52.4805
G01 X9.5069 Y52.4613
G01 X9.5300 Y52.4467
G01 X9.5832 Y52.4034
G01 X9.6752 Y52.3115
G01 X9.6979 Y52.2864
G01 X9.7127 Y52.2687
G01 X9.7446 Y52.2206
G01 X9.7531 Y52.2064
G01 X9.7614 Y52.1892
G01 X9.7766 Y52.1534
G01 X9.7871 Y52.1550
G01 X9.8036 Y52.0462
G01 X9.8067 Y51.9902
G01 X9.8065 Y51.9704
G01 X9.8052 Y51.9547
G01 X9.7967 Y51.8952
G01 X9.7919 Y51.8768
G01 X9.7778 Y51.8325
G01 X9.7732 Y51.8200
G01 X9.5090 Y51.1821
G01 X9.5090 Y50.4179
G01 X9.8015 Y49.7119
G01 X10.3419 Y49.1715
G01 X11.0479 Y48.8790
G01 X11.8121 Y48.8790
G01 X12.5181 Y49.1715
G01 X13.0585 Y49.7119
G01 X13.3655 Y50.4529
G01 X13.3712 Y50.4749
G01 X13.3789 Y50.4970
G01 X13.3960 Y50.5375
G01 X13.4055 Y50.5569
G01 X13.4362 Y50.6054
G01 X13.4457 Y50.6188
G01 X13.4591 Y50.6348
G01 X13.4902 Y50.6679
G01 X13.5054 Y50.6823
G01 X13.5182 Y50.6926
G01 X13.5625 Y50.7250
G01 X13.5825 Y50.7365
G01 X13.6219 Y50.7561
G01 X13.6382 Y50.7634
G01 X13.6557 Y50.7695
G01 X13.7092 Y50.7847
G01 X13.7340 Y50.7892
G01 X13.7792 Y50.7941
G01 X13.8146 Y50.7947
G01 X13.8595 Y50.7914
G01 X13.8816 Y50.7886
G01 X13.8961 Y50.7854
G01 X13.9365 Y50.7752
G01 X13.9538 Y50.7701
G01 X13.9733 Y50.7622
G01 X14.0107 Y50.7453
G01 X14.0252 Y50.7381
G01 X14.1358 Y50.6742
G01 X14.8633 Y50.4792
G01 X15.6167 Y50.4792
G01 X16.2575 Y50.6510
G01 X16.2845 Y50.6567
G01 X16.2845 Y50.6657
G01 X16.3967 Y50.6654
G01 X16.4106 Y50.6641
G01 X16.4641 Y50.6567
G01 X16.4819 Y50.6884
G01 X16.5078 Y50.7273
G01 X16.5200 Y50.7427
G01 X16.5526 Y50.7777
G01 X16.5770 Y50.8004
G01 X16.5899 Y50.8104
G01 X16.6255 Y50.8361
G01 X16.6415 Y50.8458
G01 X16.9966 Y51.0508
G01 X17.5292 Y51.5834
G01 X17.9058 Y52.2358
G01 X18.1008 Y52.9633
G01 X18.1008 Y53.7167
G01 X17.9058 Y54.4442
G01 X17.5292 Y55.0966
G01 X16.9966 Y55.6292
G01 X16.3442 Y56.0058
G01 X15.6167 Y56.2008
G01 X14.8633 Y56.2008
G01 X14.1358 Y56.0058
G01 X13.4834 Y55.6292
G01 X12.9508 Y55.0966
G01 X12.5742 Y54.4442
G01 X12.4985 Y54.1629
G01 X12.4887 Y54.1353
G01 X12.4802 Y54.1149
G01 X12.4621 Y54.0783
G01 X12.4488 Y54.0552
G01 X12.4250 Y54.0211
G01 X12.4003 Y53.9916
G01 X12.3792 Y53.9704
G01 X12.3605 Y53.9535
G01 X12.3411 Y53.9373
G01 X12.3061 Y53.9130
G01 X12.2731 Y53.8942
G01 X12.2345 Y53.8765
G01 X12.1984 Y53.8637
G01 X12.1566 Y53.8530
G01 X12.1195 Y53.8471
G01 X12.0772 Y53.8439
G01 X12.0398 Y53.8444
G01 X12.0093 Y53.8474
G01 X11.9843 Y53.8513
G01 X11.9595 Y53.8562
G01 X11.9185 Y53.8680
G01 X11.8830 Y53.8818
G01 X11.8593 Y53.8935
G01 X11.8449 Y53.9006
G01 X11.8129 Y53.9201
G01 X11.7783 Y53.9457
G01 X11.7495 Y53.9712
G01 X11.7210 Y54.0015
G01 X11.6970 Y54.0318
G01 X11.6738 Y54.0674
G01 X11.6559 Y54.1008
G01 X11.6457 Y54.1248
G01 X11.6393 Y54.1397
G01 X11.6275 Y54.1762
G01 X11.6182 Y54.2174
G01 X11.6130 Y54.2554
G01 X11.6111 Y54.2956
G01 X11.6111 Y54.6958
G01 X11.4482 Y55.0891
G01 X11.1471 Y55.3902
G01 X10.7538 Y55.5531
G01 X10.3282 Y55.5531
G01 X9.9349 Y55.3902
G01 X9.5909 Y55.0462
G01 X9.5566 Y55.0156
G01 X9.5405 Y55.0029
G01 X9.4938 Y54.9730
G01 X9.4721 Y54.9611
G01 X9.4231 Y54.9409
G01 X9.4070 Y54.9351
G01 X9.3812 Y54.9282
G01 X9.3430 Y54.9203
G01 X9.3269 Y54.9179
G01 X9.3039 Y54.9158
G01 X9.2648 Y54.9147
G01 X9.2484 Y54.9148
G01 X9.2230 Y54.9172
G01 X9.1830 Y54.9232
G01 X9.1600 Y54.9283
G01 X9.1444 Y54.9326
G01 X9.1056 Y54.9458
G01 X9.0833 Y54.9551
G01 X9.0700 Y54.9615
G01 X9.0351 Y54.9807
G01 X9.0120 Y54.9953
G01 X8.9588 Y55.0386
G01 X8.6071 Y55.3902
G01 X8.2138 Y55.5531
G01 X7.7882 Y55.5531
G01 X7.3949 Y55.3902
G01 X7.0938 Y55.0891
G01 X6.9299 Y54.6935
G01 X6.9282 Y54.6647
G01 X6.9252 Y54.6452
G01 X6.9158 Y54.6006
G01 X6.9116 Y54.5841
G01 X6.9062 Y54.5684
G01 X6.8884 Y54.5244
G01 X6.8801 Y54.5067
G01 X6.8726 Y54.4935
G01 X6.8483 Y54.4550
G01 X6.8369 Y54.4386
G01 X6.7967 Y54.3937
G01 X6.7808 Y54.3782
G01 X6.7338 Y54.3415
G01 X6.7201 Y54.3319
G01 X6.7044 Y54.3230
G01 X6.6526 Y54.2969
G01 X6.6027 Y54.2763
G01 X6.5573 Y54.2603
G01 X6.5371 Y54.2553
G01 X6.4763 Y54.2445
G01 X6.4576 Y54.2434
G01 X6.4093 Y54.2431
G01 X6.3918 Y54.2439
G01 X6.3425 Y54.2517
G01 X6.3389 Y54.2430
G01 X6.2334 Y54.2875
G01 X6.1825 Y54.3164
G01 X6.1697 Y54.3246
G01 X6.1552 Y54.3357
G01 X6.1112 Y54.3737
G01 X5.7739 Y54.7109
G01 X5.7432 Y54.7453
G01 X5.7302 Y54.7624
G01 X5.7118 Y54.7895
G01 X5.6941 Y54.8195
G01 X5.6704 Y54.8727
G01 X5.6598 Y54.9062
G01 X5.6520 Y54.9378
G01 X5.6458 Y54.9722
G01 X5.6421 Y55.0287
G01 X5.6421 Y61.4187
G01 X5.6446 Y61.4641
G01 X5.6471 Y61.4853
G01 X5.6503 Y61.5012
G01 X5.6584 Y61.5364
G01 X5.6659 Y61.5627
G01 X5.6873 Y61.6142
G01 X5.6987 Y61.6371
G01 X5.7072 Y61.6509
G01 X5.7270 Y61.6809
G01 X5.7430 Y61.7029
G01 X5.7543 Y61.7156
G01 X5.7916 Y61.7541
G01 X5.8121 Y61.7710
G01 X5.8418 Y61.7929
G01 X5.8654 Y61.8083
G01 X5.9266 Y61.8384
G01 X5.9530 Y61.8477
G01 X6.0038 Y61.8617
G01 X6.0312 Y61.8661
G01 X6.0834 Y61.8710
G01 X6.4712 Y61.8711
G01 X6.9299 Y62.0611
G01 X7.2809 Y62.4121
G01 X7.4709 Y62.8708
G01 X7.4709 Y63.3672
G01 X7.2809 Y63.8259
G01 X6.9299 Y64.1769
G01 X6.4712 Y64.3669
G01 X6.0945 Y64.3669
G01 X6.0491 Y64.3694
G01 X6.0279 Y64.3719
G01 X6.0120 Y64.3751
G01 X5.9620 Y64.3870
G01 X5.9354 Y64.3966
G01 X5.8990 Y64.4121
G01 X5.8761 Y64.4235
G01 X5.8193 Y64.4608
G01 X5.7976 Y64.4791
G01 X5.7591 Y64.5164
G01 X5.7422 Y64.5369
G01 X5.7203 Y64.5666
G01 X5.7049 Y64.5902
G01 X5.6748 Y64.6514
G01 X5.6655 Y64.6778
G01 X5.6552 Y64.7137
G01 X5.6491 Y64.7406
G01 X5.6433 Y64.7929
G01 X5.6421 Y64.8187
G01 X5.6421 Y71.9707
G01 X5.6432 Y72.0020
G01 X5.6478 Y72.0392
G01 X5.6565 Y72.0833
G01 X5.6624 Y72.1036
G01 X5.6832 Y72.1582
G01 X5.6995 Y72.1896
G01 X5.7232 Y72.2283
G01 X5.7358 Y72.2457
G01 X5.7734 Y72.2885
G01 X6.0869 Y72.6020
G01 X6.1204 Y72.6320
G01 X6.1507 Y72.6548
G01 X6.1946 Y72.6811
G01 X6.2212 Y72.6940
G01 X6.2682 Y72.7120
G01 X6.2860 Y72.7170
G01 X6.3105 Y72.7229
G01 X6.3320 Y72.7269
G01 X6.3467 Y72.7295
G01 X6.3646 Y72.7313
G01 X6.3898 Y72.7328
G01 X6.4287 Y72.7329
G01 X6.4568 Y72.7306
G01 X6.4952 Y72.7243
G01 X6.5370 Y72.7142
G01 X6.5845 Y72.6970
G01 X6.6107 Y72.6849
G01 X6.6556 Y72.6588
G01 X6.6790 Y72.6424
G01 X6.7189 Y72.6088
G01 X6.7389 Y72.5884
G01 X6.7618 Y72.5612
G01 X6.7718 Y72.5488
G01 X6.7887 Y72.5241
G01 X6.8138 Y72.4797
G01 X6.8399 Y72.4189
G01 X7.1409 Y72.1178
G01 X7.5342 Y71.9549
G01 X7.9598 Y71.9549
G01 X8.3531 Y72.1178
G01 X8.7040 Y72.4683
G01 X8.7314 Y72.4924
G01 X8.7477 Y72.5053
G01 X8.7924 Y72.5338
G01 X8.8139 Y72.5459
G01 X8.8312 Y72.5536
G01 X8.8808 Y72.5729
G01 X8.9066 Y72.5797
G01 X8.9452 Y72.5877
G01 X8.9688 Y72.5909
G01 X8.9838 Y72.5922
G01 X9.0232 Y72.5933
G01 X9.0501 Y72.5926
G01 X9.1050 Y72.5848
G01 X9.1194 Y72.5818
G01 X9.1436 Y72.5754
G01 X9.1824 Y72.5622
G01 X9.2180 Y72.5465
G01 X9.2529 Y72.5273
G01 X9.2760 Y72.5127
G01 X9.3292 Y72.4694
G01 X9.5325 Y72.2658
G01 X9.5638 Y72.2298
G01 X9.5960 Y72.1812
G01 X9.6044 Y72.1671
G01 X9.6124 Y72.1503
G01 X9.6301 Y72.1089
G01 X9.6356 Y72.0941
G01 X9.6411 Y72.0745
G01 X9.6513 Y72.0298
G01 X9.6545 Y72.0117
G01 X9.6579 Y71.9508
G01 X9.6577 Y71.9314
G01 X9.6564 Y71.9155
G01 X9.6478 Y71.8553
G01 X9.6428 Y71.8364
G01 X9.6245 Y71.7808
G01 X9.5090 Y71.5021
G01 X9.5090 Y70.7379
G01 X9.8015 Y70.0319
G01 X10.3419 Y69.4915
G01 X11.0479 Y69.1990
G01 X11.8121 Y69.1990
G01 X12.5181 Y69.4915
G01 X13.0585 Y70.0319
G01 X13.3655 Y70.7729
G01 X13.3712 Y70.7949
G01 X13.3789 Y70.8170
G01 X13.3960 Y70.8575
G01 X13.4055 Y70.8769
G01 X13.4362 Y70.9254
G01 X13.4457 Y70.9388
G01 X13.4591 Y70.9548
G01 X13.4902 Y70.9879
G01 X13.5054 Y71.0023
G01 X13.5182 Y71.0126
G01 X13.5625 Y71.0450
G01 X13.5825 Y71.0565
G01 X13.6219 Y71.0761
G01 X13.6382 Y71.0834
G01 X13.6557 Y71.0895
G01 X13.7092 Y71.1047
G01 X13.7340 Y71.1092
G01 X13.7792 Y71.1141
G01 X13.8146 Y71.1147
G01 X13.8595 Y71.1114
G01 X13.8816 Y71.1086
G01 X13.8961 Y71.1054
G01 X13.9365 Y71.0952
G01 X13.9538 Y71.0901
G01 X13.9733 Y71.0822
G01 X14.0107 Y71.0653
G01 X14.0252 Y71.0581
G01 X14.1358 Y70.9942
G01 X14.8633 Y70.7992
G01 X15.6167 Y70.7992
G01 X16.2575 Y70.9710
G01 X16.2845 Y70.9767
G01 X16.2845 Y70.9857
G01 X16.3967 Y70.9854
G01 X16.4106 Y70.9841
G01 X16.4642 Y70.9766
G01 X16.4755 Y70.9980
G01 X16.4835 Y71.0107
G01 X16.5077 Y71.0470
G01 X16.5200 Y71.0627
G01 X16.5622 Y71.1073
G01 X16.5760 Y71.1196
G01 X16.5898 Y71.1303
G01 X16.6255 Y71.1561
G01 X16.6415 Y71.1658
G01 X16.9966 Y71.3708
G01 X17.5292 Y71.9034
G01 X17.9058 Y72.5558
G01 X18.1008 Y73.2833
G01 X18.1008 Y74.0367
G01 X17.9058 Y74.7642
G01 X17.5292 Y75.4166
G01 X16.9966 Y75.9492
G01 X16.3442 Y76.3258
G01 X15.6167 Y76.5208
G01 X14.8633 Y76.5208
G01 X14.1358 Y76.3258
G01 X13.4834 Y75.9492
G01 X12.9508 Y75.4166
G01 X12.5742 Y74.7642
G01 X12.3792 Y74.0367
G01 X12.3793 Y73.4815
G01 X12.3767 Y73.4384
G01 X12.3730 Y73.4119
G01 X12.3682 Y73.3872
G01 X12.3590 Y73.3512
G01 X12.3493 Y73.3231
G01 X12.3282 Y73.2761
G01 X12.3141 Y73.2509
G01 X12.2944 Y73.2217
G01 X12.2855 Y73.2089
G01 X12.2661 Y73.1854
G01 X12.2310 Y73.1498
G01 X12.2082 Y73.1303
G01 X12.1665 Y73.1008
G01 X12.1295 Y73.0803
G01 X12.0947 Y73.0642
G01 X12.0547 Y73.0506
G01 X12.0178 Y73.0409
G01 X11.9760 Y73.0345
G01 X11.9373 Y73.0316
G01 X11.9079 Y73.0318
G01 X11.8576 Y73.0364
G01 X11.8331 Y73.0410
G01 X11.8004 Y73.0413
G01 X11.7641 Y73.0435
G01 X11.7429 Y73.0460
G01 X11.6918 Y73.0573
G01 X11.6655 Y73.0648
G01 X11.6140 Y73.0862
G01 X11.5911 Y73.0976
G01 X11.5473 Y73.1259
G01 X11.5253 Y73.1419
G01 X11.4857 Y73.1787
G01 X11.4672 Y73.1983
G01 X11.4353 Y73.2407
G01 X11.4199 Y73.2643
G01 X11.3961 Y73.3115
G01 X11.3855 Y73.3365
G01 X11.3805 Y73.3519
G01 X11.3665 Y73.4027
G01 X11.3621 Y73.4301
G01 X11.3572 Y73.4823
G01 X11.3571 Y74.7618
G01 X11.1942 Y75.1551
G01 X10.8931 Y75.4562
G01 X10.4998 Y75.6191
G01 X10.0742 Y75.6191
G01 X9.6809 Y75.4562
G01 X9.3369 Y75.1122
G01 X9.3026 Y75.0816
G01 X9.2865 Y75.0689
G01 X9.2398 Y75.0390
G01 X9.2181 Y75.0271
G01 X9.1691 Y75.0069
G01 X9.1530 Y75.0011
G01 X9.1272 Y74.9942
G01 X9.0890 Y74.9863
G01 X9.0729 Y74.9839
G01 X9.0499 Y74.9818
G01 X9.0108 Y74.9807
G01 X8.9944 Y74.9808
G01 X8.9690 Y74.9832
G01 X8.9290 Y74.9892
G01 X8.9060 Y74.9943
G01 X8.8904 Y74.9986
G01 X8.8516 Y75.0118
G01 X8.8293 Y75.0211
G01 X8.8160 Y75.0275
G01 X8.7811 Y75.0467
G01 X8.7580 Y75.0613
G01 X8.7048 Y75.1046
G01 X8.3531 Y75.4562
G01 X7.9598 Y75.6191
G01 X7.5342 Y75.6191
G01 X7.1409 Y75.4562
G01 X6.8399 Y75.1551
G01 X6.8187 Y75.1056
G01 X6.8051 Y75.0780
G01 X6.7855 Y75.0450
G01 X6.7555 Y75.0044
G01 X6.7358 Y74.9823
G01 X6.6989 Y74.9474
G01 X6.6652 Y74.9220
G01 X6.6436 Y74.9079
G01 X6.6222 Y74.8955
G01 X6.5950 Y74.8820
G01 X6.5597 Y74.8673
G01 X6.5319 Y74.8582
G01 X6.4946 Y74.8495
G01 X6.4697 Y74.8453
G01 X6.4519 Y74.8429
G01 X6.4016 Y74.8406
G01 X6.3723 Y74.8419
G01 X6.3209 Y74.8486
G01 X6.2932 Y74.8548
G01 X6.2442 Y74.8704
G01 X6.2165 Y74.8821
G01 X6.1715 Y74.9060
G01 X6.1475 Y74.9214
G01 X6.1071 Y74.9530
G01 X6.0868 Y74.9721
G01 X5.7739 Y75.2849
G01 X5.7432 Y75.3193
G01 X5.7302 Y75.3364
G01 X5.7118 Y75.3635
G01 X5.6941 Y75.3935
G01 X5.6704 Y75.4467
G01 X5.6598 Y75.4802
G01 X5.6520 Y75.5118
G01 X5.6458 Y75.5462
G01 X5.6421 Y75.6027
G01 X5.6421 Y81.2307
G01 X5.6446 Y81.2761
G01 X5.6471 Y81.2973
G01 X5.6584 Y81.3484
G01 X5.6659 Y81.3747
G01 X5.6718 Y81.3898
G01 X5.6873 Y81.4262
G01 X5.6987 Y81.4491
G01 X5.7360 Y81.5059
G01 X5.7543 Y81.5276
G01 X5.7916 Y81.5661
G01 X5.8121 Y81.5830
G01 X5.8418 Y81.6049
G01 X5.8654 Y81.6203
G01 X5.9266 Y81.6504
G01 X5.9530 Y81.6597
G01 X6.0038 Y81.6737
G01 X6.0312 Y81.6781
G01 X6.0834 Y81.6830
G01 X6.4712 Y81.6831
G01 X6.9299 Y81.8731
G01 X7.2809 Y82.2241
G01 X7.4709 Y82.6828
G01 X7.4709 Y83.1792
G01 X7.2809 Y83.6379
G01 X6.9299 Y83.9889
G01 X6.4712 Y84.1789
G01 X6.0945 Y84.1789
G01 X6.0491 Y84.1814
G01 X6.0279 Y84.1839
G01 X6.0120 Y84.1871
G01 X5.9620 Y84.1990
G01 X5.9354 Y84.2086
G01 X5.8990 Y84.2241
G01 X5.8761 Y84.2355
G01 X5.8193 Y84.2728
G01 X5.7976 Y84.2911
G01 X5.7591 Y84.3284
G01 X5.7422 Y84.3489
G01 X5.7203 Y84.3786
G01 X5.7049 Y84.4022
G01 X5.6748 Y84.4634
G01 X5.6656 Y84.4896
G01 X5.6552 Y84.5260
G01 X5.6491 Y84.5526
G01 X5.6433 Y84.6049
G01 X5.6421 Y84.6307
G01 X5.6421 Y92.2907
G01 X5.6432 Y92.3220
G01 X5.6478 Y92.3592
G01 X5.6565 Y92.4033
G01 X5.6624 Y92.4236
G01 X5.6832 Y92.4782
G01 X5.6995 Y92.5096
G01 X5.7232 Y92.5483
G01 X5.7358 Y92.5657
G01 X5.7734 Y92.6085
G01 X6.3563 Y93.1914
G01 X6.3899 Y93.2215
G01 X6.4195 Y93.2438
G01 X6.4640 Y93.2705
G01 X6.4904 Y93.2833
G01 X6.5240 Y93.2963
G01 X6.5382 Y93.3016
G01 X6.5799 Y93.3123
G01 X6.6163 Y93.3189
G01 X6.6592 Y93.3222
G01 X6.6981 Y93.3223
G01 X6.7262 Y93.3200
G01 X6.7625 Y93.3140
G01 X6.7772 Y93.3113
G01 X6.8062 Y93.3037
G01 X6.8541 Y93.2863
G01 X6.8801 Y93.2743
G01 X6.8946 Y93.2661
G01 X6.9250 Y93.2482
G01 X6.9481 Y93.2321
G01 X6.9886 Y93.1978
G01 X7.0083 Y93.1778
G01 X7.0412 Y93.1382
G01 X7.0581 Y93.1135
G01 X7.0827 Y93.0701
G01 X7.0942 Y93.0446
G01 X7.2209 Y92.7389
G01 X7.5219 Y92.4378
G01 X7.9152 Y92.2749
G01 X8.3408 Y92.2749
G01 X8.7341 Y92.4378
G01 X8.8798 Y92.5836
G01 X8.9075 Y92.6089
G01 X8.9317 Y92.6276
G01 X8.9731 Y92.6549
G01 X8.9890 Y92.6636
G01 X9.0024 Y92.6699
G01 X9.0463 Y92.6888
G01 X9.0616 Y92.6940
G01 X9.0779 Y92.6984
G01 X9.1235 Y92.7090
G01 X9.1420 Y92.7117
G01 X9.1569 Y92.7130
G01 X9.1906 Y92.7150
G01 X9.2160 Y92.7149
G01 X9.2349 Y92.7137
G01 X9.2840 Y92.7076
G01 X9.3143 Y92.7004
G01 X9.3616 Y92.6856
G01 X9.3781 Y92.6789
G01 X9.3922 Y92.6722
G01 X9.4345 Y92.6500
G01 X9.4487 Y92.6410
G01 X9.4889 Y92.6109
G01 X9.5120 Y92.5910
G01 X9.5230 Y92.5796
G01 X9.5553 Y92.5437
G01 X9.5650 Y92.5310
G01 X9.5991 Y92.4774
G01 X9.6070 Y92.4620
G01 X9.6133 Y92.4476
G01 X9.6310 Y92.4032
G01 X9.6360 Y92.3870
G01 X9.6469 Y92.3379
G01 X9.6514 Y92.3074
G01 X9.6534 Y92.2445
G01 X9.6525 Y92.2280
G01 X9.6506 Y92.2119
G01 X9.6455 Y92.1772
G01 X9.6392 Y92.1476
G01 X9.6199 Y92.0897
G01 X9.5090 Y91.8221
G01 X9.5090 Y91.0579
G01 X9.8015 Y90.3519
G01 X10.3419 Y89.8115
G01 X11.0479 Y89.5190
G01 X11.8121 Y89.5190
G01 X12.5181 Y89.8115
G01 X13.0585 Y90.3519
G01 X13.3655 Y91.0929
G01 X13.3712 Y91.1149
G01 X13.3789 Y91.1370
G01 X13.3960 Y91.1775
G01 X13.4055 Y91.1969
G01 X13.4362 Y91.2454
G01 X13.4457 Y91.2588
G01 X13.4591 Y91.2748
G01 X13.4902 Y91.3079
G01 X13.5054 Y91.3223
G01 X13.5182 Y91.3326
G01 X13.5625 Y91.3650
G01 X13.5825 Y91.3765
G01 X13.6219 Y91.3961
G01 X13.6382 Y91.4034
G01 X13.6557 Y91.4095
G01 X13.7092 Y91.4247
G01 X13.7340 Y91.4292
G01 X13.7792 Y91.4341
G01 X13.8146 Y91.4347
G01 X13.8595 Y91.4314
G01 X13.8816 Y91.4286
G01 X13.8961 Y91.4254
G01 X13.9365 Y91.4152
G01 X13.9538 Y91.4101
G01 X13.9733 Y91.4022
G01 X14.0107 Y91.3853
G01 X14.0252 Y91.3781
G01 X14.1358 Y91.3142
G01 X14.8633 Y91.1192
G01 X15.6167 Y91.1192
G01 X16.2574 Y91.2910
G01 X16.2845 Y91.2968
G01 X16.2845 Y91.3057
G01 X16.3967 Y91.3054
G01 X16.4106 Y91.3041
G01 X16.4642 Y91.2966
G01 X16.4755 Y91.3180
G01 X16.4835 Y91.3307
G01 X16.5077 Y91.3670
G01 X16.5200 Y91.3827
G01 X16.5622 Y91.4273
G01 X16.5760 Y91.4396
G01 X16.5898 Y91.4503
G01 X16.6255 Y91.4761
G01 X16.6415 Y91.4858
G01 X16.9966 Y91.6908
G01 X17.5292 Y92.2234
G01 X17.9058 Y92.8758
G01 X18.1008 Y93.6033
G01 X18.1008 Y94.3567
G01 X17.9058 Y95.0842
G01 X17.5292 Y95.7366
G01 X16.9966 Y96.2692
G01 X16.3442 Y96.6458
G01 X15.6167 Y96.8408
G01 X14.8633 Y96.8408
G01 X14.1358 Y96.6458
G01 X13.4834 Y96.2692
G01 X12.9508 Y95.7366
G01 X12.5463 Y95.0359
G01 X12.5238 Y95.0008
G01 X12.5074 Y94.9798
G01 X12.4823 Y94.9512
G01 X12.4718 Y94.9399
G01 X12.4519 Y94.9220
G01 X12.4200 Y94.8967
G01 X12.3976 Y94.8810
G01 X12.3534 Y94.8567
G01 X12.3377 Y94.8489
G01 X12.3122 Y94.8390
G01 X12.2619 Y94.8231
G01 X12.2353 Y94.8179
G01 X12.1987 Y94.8127
G01 X12.1829 Y94.8110
G01 X12.1575 Y94.8104
G01 X12.1030 Y94.8130
G01 X12.0745 Y94.8175
G01 X12.0228 Y94.8294
G01 X11.9969 Y94.8386
G01 X11.9635 Y94.8525
G01 X11.9381 Y94.8646
G01 X11.8916 Y94.8939
G01 X11.8712 Y94.9088
G01 X11.8326 Y94.9439
G01 X11.8123 Y94.9651
G01 X11.7721 Y95.0186
G01 X11.7572 Y95.0442
G01 X11.7354 Y95.0882
G01 X11.5751 Y95.4751
G01 X11.2741 Y95.7762
G01 X10.8808 Y95.9391
G01 X10.4552 Y95.9391
G01 X10.0619 Y95.7762
G01 X9.7179 Y95.4322
G01 X9.6836 Y95.4016
G01 X9.6675 Y95.3889
G01 X9.6208 Y95.3590
G01 X9.5991 Y95.3471
G01 X9.5501 Y95.3269
G01 X9.5340 Y95.3211
G01 X9.5082 Y95.3142
G01 X9.4700 Y95.3063
G01 X9.4539 Y95.3039
G01 X9.4309 Y95.3018
G01 X9.3918 Y95.3007
G01 X9.3754 Y95.3008
G01 X9.3500 Y95.3032
G01 X9.3100 Y95.3092
G01 X9.2870 Y95.3143
G01 X9.2714 Y95.3186
G01 X9.2326 Y95.3318
G01 X9.2103 Y95.3411
G01 X9.1970 Y95.3475
G01 X9.1621 Y95.3667
G01 X9.1390 Y95.3813
G01 X9.0858 Y95.4246
G01 X8.7341 Y95.7762
G01 X8.3408 Y95.9391
G01 X7.9152 Y95.9391
G01 X7.5219 Y95.7762
G01 X7.2209 Y95.4751
G01 X7.0944 Y95.1698
G01 X7.0881 Y95.1562
G01 X7.0748 Y95.1290
G01 X7.0549 Y95.0956
G01 X7.0249 Y95.0550
G01 X7.0052 Y95.0329
G01 X6.9683 Y94.9980
G01 X6.9451 Y94.9797
G01 X6.9130 Y94.9585
G01 X6.8916 Y94.9461
G01 X6.8644 Y94.9326
G01 X6.8291 Y94.9179
G01 X6.8013 Y94.9088
G01 X6.7640 Y94.9001
G01 X6.7391 Y94.8959
G01 X6.7213 Y94.8935
G01 X6.7065 Y94.8926
G01 X6.6710 Y94.8912
G01 X6.6417 Y94.8925
G01 X6.5903 Y94.8992
G01 X6.5626 Y94.9054
G01 X6.5136 Y94.9210
G01 X6.4747 Y94.9384
G01 X6.4525 Y94.9502
G01 X6.4314 Y94.9628
G01 X6.4161 Y94.9727
G01 X6.4040 Y94.9819
G01 X6.3765 Y95.0036
G01 X6.3562 Y95.0227
G01 X5.7739 Y95.6049
G01 X5.7432 Y95.6393
G01 X5.7302 Y95.6564
G01 X5.7118 Y95.6835
G01 X5.6941 Y95.7135
G01 X5.6704 Y95.7667
G01 X5.6598 Y95.8002
G01 X5.6520 Y95.8318
G01 X5.6481 Y95.8526
G01 X5.6458 Y95.8662
G01 X5.6445 Y95.8813
G01 X5.6421 Y95.9227
G01 X5.6421 Y101.1697
G01 X5.6446 Y101.2151
G01 X5.6471 Y101.2363
G01 X5.6622 Y101.3022
G01 X5.6718 Y101.3288
G01 X5.6873 Y101.3652
G01 X5.6987 Y101.3881
G01 X5.7360 Y101.4449
G01 X5.7543 Y101.4666
G01 X5.7916 Y101.5051
G01 X5.8121 Y101.5220
G01 X5.8418 Y101.5439
G01 X5.8563 Y101.5539
G01 X5.8790 Y101.5665
G01 X5.9126 Y101.5831
G01 X5.9376 Y101.5937
G01 X5.9530 Y101.5987
G01 X6.0038 Y101.6127
G01 X6.0312 Y101.6171
G01 X6.0834 Y101.6220
G01 X6.5982 Y101.6221
G01 X7.0569 Y101.8121
G01 X7.4079 Y102.1631
G01 X7.5979 Y102.6218
G01 X7.5979 Y103.1182
G01 X7.4079 Y103.5769
G01 X7.0439 Y103.9408
G01 X7.0211 Y103.9654
G01 X7.0132 Y103.9752
G01 X7.0002 Y103.9923
G01 X6.9819 Y104.0193
G01 X6.9715 Y104.0366
G01 X6.9637 Y104.0501
G01 X6.9466 Y104.0880
G01 X6.9403 Y104.1026
G01 X6.9331 Y104.1238
G01 X6.9220 Y104.1677
G01 X6.9157 Y104.2024
G01 X6.9121 Y104.2586
G01 X6.9121 Y109.4755
G01 X6.9146 Y109.5209
G01 X6.9171 Y109.5421
G01 X6.9322 Y109.6080
G01 X6.9418 Y109.6346
G01 X6.9573 Y109.6710
G01 X6.9687 Y109.6939
G01 X6.9970 Y109.7377
G01 X7.0130 Y109.7597
G01 X7.0243 Y109.7724
G01 X7.0616 Y109.8109
G01 X7.0821 Y109.8278
G01 X7.1118 Y109.8497
G01 X7.1354 Y109.8651
G01 X7.1826 Y109.8889
G01 X7.2076 Y109.8995
G01 X7.2230 Y109.9045
G01 X7.2738 Y109.9185
G01 X7.3012 Y109.9229
G01 X7.3534 Y109.9278
G01 X28.2181 Y109.9280
G01 X28.2625 Y109.9254
G01 X28.2842 Y109.9225
G01 X28.3007 Y109.9200
G01 X28.3497 Y109.9077
G01 X28.3773 Y109.8983
G01 X28.4248 Y109.8769
G01 X28.4500 Y109.8628
G01 X28.4920 Y109.8342
G01 X28.5155 Y109.8148
G01 X28.5516 Y109.7793
G01 X28.5706 Y109.7569
G01 X28.6005 Y109.7148
G01 X28.6206 Y109.6782
G01 X28.6367 Y109.6434
G01 X28.6467 Y109.6159
G01 X28.6570 Y109.5785
G01 X28.6621 Y109.5540
G01 X28.6664 Y109.5247
G01 X28.6693 Y109.4860
G01 X28.6691 Y109.4569
G01 X28.6644 Y109.4060
G01 X28.6592 Y109.3775
G01 X28.6479 Y109.3365
G01 X28.6479 Y104.2592
G01 X28.6468 Y104.2275
G01 X28.6422 Y104.1907
G01 X28.6370 Y104.1631
G01 X28.6335 Y104.1465
G01 X28.6276 Y104.1263
G01 X28.6225 Y104.1120
G01 X28.6068 Y104.0717
G01 X28.5906 Y104.0403
G01 X28.5666 Y104.0014
G01 X28.5544 Y103.9846
G01 X28.5166 Y103.9413
G01 X28.1521 Y103.5769
G01 X27.9621 Y103.1182
G01 X27.9621 Y102.6218
G01 X28.1521 Y102.1631
G01 X28.5161 Y101.7992
G01 X28.5389 Y101.7746
G01 X28.5468 Y101.7648
G01 X28.5598 Y101.7477
G01 X28.5782 Y101.7206
G01 X28.5886 Y101.7030
G01 X28.5959 Y101.6906
G01 X28.6134 Y101.6520
G01 X28.6197 Y101.6374
G01 X28.6269 Y101.6162
G01 X28.6380 Y101.5723
G01 X28.6443 Y101.5376
G01 X28.6479 Y101.4814
G01 X28.6479 Y96.2812
G01 X28.7335 Y96.0746
G01 X30.0401 Y94.7681
G01 X30.0708 Y94.7337
G01 X30.0838 Y94.7166
G01 X30.1022 Y94.6895
G01 X30.1199 Y94.6595
G01 X30.1436 Y94.6063
G01 X30.1542 Y94.5728
G01 X30.1620 Y94.5412
G01 X30.1659 Y94.5204
G01 X30.1682 Y94.5068
G01 X30.1695 Y94.4917
G01 X30.1719 Y94.4503
G01 X30.1719 Y94.2723
G01 X30.1708 Y94.2410
G01 X30.1662 Y94.2035
G01 X30.1610 Y94.1764
G01 X30.1575 Y94.1597
G01 X30.1516 Y94.1394
G01 X30.1308 Y94.0848
G01 X30.1145 Y94.0534
G01 X30.0908 Y94.0147
G01 X30.0782 Y93.9973
G01 X30.0406 Y93.9545
G01 X29.2095 Y93.1237
G01 X29.1817 Y93.0992
G01 X29.1646 Y93.0862
G01 X29.1375 Y93.0678
G01 X29.1075 Y93.0501
G01 X29.0543 Y93.0264
G01 X29.0208 Y93.0158
G01 X28.9892 Y93.0080
G01 X28.9548 Y93.0018
G01 X28.8983 Y92.9981
G01 X28.5646 Y92.9981
G01 X27.6519 Y92.0854
G01 X27.6519 Y90.7947
G01 X28.2107 Y90.2359
G01 X28.2257 Y90.2201
G01 X28.2410 Y90.2020
G01 X28.2551 Y90.1834
G01 X28.2735 Y90.1570
G01 X28.2903 Y90.1277
G01 X28.2970 Y90.1133
G01 X28.3097 Y90.0858
G01 X28.3214 Y90.0534
G01 X28.3332 Y90.0077
G01 X28.3388 Y89.9748
G01 X28.3424 Y89.9292
G01 X28.3422 Y89.9060
G01 X28.3410 Y89.8817
G01 X28.3375 Y89.8477
G01 X28.3311 Y89.8145
G01 X28.3183 Y89.7693
G01 X28.3064 Y89.7382
G01 X28.2859 Y89.6960
G01 X28.2684 Y89.6673
G01 X28.2500 Y89.6418
G01 X28.2404 Y89.6289
G01 X28.2182 Y89.6038
G01 X28.1850 Y89.5720
G01 X28.1578 Y89.5504
G01 X28.1192 Y89.5249
G01 X28.0892 Y89.5087
G01 X28.0612 Y89.4965
G01 X28.0466 Y89.4903
G01 X28.0139 Y89.4796
G01 X27.9692 Y89.4692
G01 X27.9352 Y89.4644
G01 X27.8907 Y89.4621
G01 X19.9877 Y89.4621
G01 X19.9874 Y89.4581
G01 X19.8822 Y89.4646
G01 X19.8589 Y89.4679
G01 X19.8150 Y89.4771
G01 X19.7984 Y89.4813
G01 X19.7826 Y89.4868
G01 X19.7386 Y89.5046
G01 X19.7239 Y89.5114
G01 X19.7073 Y89.5207
G01 X19.6688 Y89.5449
G01 X19.6528 Y89.5561
G01 X19.6075 Y89.5967
G01 X19.5965 Y89.6078
G01 X19.5838 Y89.6227
G01 X19.5482 Y89.6700
G01 X19.5376 Y89.6879
G01 X19.5169 Y89.7280
G01 X19.5112 Y89.7402
G01 X19.4085 Y89.9881
G01 X18.8681 Y90.5285
G01 X18.1621 Y90.8210
G01 X17.3979 Y90.8210
G01 X17.0425 Y90.6737
G01 X16.9992 Y90.6586
G01 X16.9704 Y90.6509
G01 X16.9550 Y90.6481
G01 X16.9118 Y90.6416
G01 X16.8913 Y90.6402
G01 X16.8304 Y90.6414
G01 X16.8110 Y90.6436
G01 X16.7807 Y90.6496
G01 X16.7634 Y90.6209
G01 X16.7697 Y90.6153
G01 X16.6955 Y90.5321
G01 X16.1515 Y89.9881
G01 X15.8590 Y89.2821
G01 X15.8590 Y88.5179
G01 X16.1515 Y87.8119
G01 X16.6919 Y87.2715
G01 X17.3979 Y86.9790
G01 X18.1621 Y86.9790
G01 X18.8681 Y87.2715
G01 X19.4085 Y87.8119
G01 X19.5109 Y88.0592
G01 X19.5296 Y88.0981
G01 X19.5428 Y88.1209
G01 X19.5685 Y88.1583
G01 X19.5795 Y88.1729
G01 X19.5906 Y88.1853
G01 X19.6243 Y88.2195
G01 X19.6373 Y88.2313
G01 X19.6492 Y88.2404
G01 X19.6881 Y88.2679
G01 X19.7017 Y88.2766
G01 X19.7168 Y88.2845
G01 X19.7457 Y88.2981
G01 X19.7438 Y88.3065
G01 X19.8462 Y88.3301
G01 X19.8696 Y88.3336
G01 X19.9275 Y88.3379
G01 X27.8899 Y88.3379
G01 X27.9358 Y88.3354
G01 X27.9578 Y88.3324
G01 X27.9907 Y88.3264
G01 X28.0226 Y88.3178
G01 X28.0522 Y88.3071
G01 X28.0667 Y88.3017
G01 X28.0983 Y88.2867
G01 X28.1371 Y88.2640
G01 X28.1658 Y88.2437
G01 X28.2008 Y88.2136
G01 X28.2245 Y88.1895
G01 X28.2461 Y88.1634
G01 X28.2732 Y88.1254
G01 X28.2960 Y88.0845
G01 X28.3098 Y88.0534
G01 X28.3250 Y88.0095
G01 X28.3333 Y87.9755
G01 X28.3379 Y87.9464
G01 X28.3403 Y87.9305
G01 X28.3424 Y87.8963
G01 X28.3414 Y87.8506
G01 X28.3375 Y87.8159
G01 X28.3283 Y87.7706
G01 X28.3183 Y87.7372
G01 X28.3073 Y87.7095
G01 X28.3015 Y87.6952
G01 X28.2856 Y87.6637
G01 X28.2612 Y87.6244
G01 X28.2412 Y87.5979
G01 X28.2112 Y87.5646
G01 X27.6519 Y87.0053
G01 X27.6519 Y85.7146
G01 X28.5162 Y84.8505
G01 X28.5389 Y84.8259
G01 X28.5598 Y84.7990
G01 X28.5778 Y84.7725
G01 X28.5890 Y84.7538
G01 X28.5963 Y84.7412
G01 X28.6197 Y84.6887
G01 X28.6269 Y84.6675
G01 X28.6380 Y84.6240
G01 X28.6443 Y84.5889
G01 X28.6455 Y84.5741
G01 X28.6479 Y84.5327
G01 X28.6479 Y84.4472
G01 X28.6468 Y84.4155
G01 X28.6422 Y84.3787
G01 X28.6335 Y84.3345
G01 X28.6276 Y84.3143
G01 X28.6068 Y84.2597
G01 X28.5966 Y84.2388
G01 X28.5668 Y84.1896
G01 X28.5542 Y84.1722
G01 X28.5166 Y84.1294
G01 X28.1521 Y83.7649
G01 X27.9621 Y83.3062
G01 X27.9621 Y82.8098
G01 X28.1521 Y82.3511
G01 X28.5161 Y81.9872
G01 X28.5389 Y81.9626
G01 X28.5468 Y81.9528
G01 X28.5598 Y81.9357
G01 X28.5781 Y81.9087
G01 X28.5963 Y81.8779
G01 X28.6197 Y81.8254
G01 X28.6269 Y81.8042
G01 X28.6380 Y81.7603
G01 X28.6442 Y81.7259
G01 X28.6455 Y81.7108
G01 X28.6479 Y81.6694
G01 X28.6476 Y72.9386
G01 X28.6468 Y72.9162
G01 X28.6422 Y72.8794
G01 X28.6336 Y72.8358
G01 X28.6275 Y72.8147
G01 X28.6225 Y72.8006
G01 X28.6068 Y72.7604
G01 X28.5906 Y72.7290
G01 X28.5666 Y72.6901
G01 X28.5542 Y72.6729
G01 X28.5437 Y72.6605
G01 X28.5167 Y72.6300
G01 X27.6519 Y71.7654
G01 X27.6519 Y70.4747
G01 X28.2107 Y69.9159
G01 X28.2257 Y69.9001
G01 X28.2410 Y69.8820
G01 X28.2551 Y69.8634
G01 X28.2735 Y69.8370
G01 X28.2903 Y69.8077
G01 X28.2970 Y69.7933
G01 X28.3097 Y69.7658
G01 X28.3214 Y69.7334
G01 X28.3332 Y69.6877
G01 X28.3388 Y69.6548
G01 X28.3424 Y69.6092
G01 X28.3422 Y69.5860
G01 X28.3410 Y69.5617
G01 X28.3375 Y69.5277
G01 X28.3311 Y69.4945
G01 X28.3183 Y69.4493
G01 X28.3064 Y69.4182
G01 X28.2859 Y69.3760
G01 X28.2684 Y69.3473
G01 X28.2500 Y69.3218
G01 X28.2404 Y69.3089
G01 X28.2182 Y69.2838
G01 X28.1850 Y69.2520
G01 X28.1578 Y69.2304
G01 X28.1192 Y69.2049
G01 X28.0892 Y69.1887
G01 X28.0466 Y69.1703
G01 X28.0139 Y69.1596
G01 X27.9692 Y69.1492
G01 X27.9352 Y69.1444
G01 X27.8907 Y69.1421
G01 X19.9877 Y69.1421
G01 X19.9874 Y69.1381
G01 X19.8823 Y69.1446
G01 X19.8597 Y69.1478
G01 X19.8143 Y69.1573
G01 X19.7981 Y69.1615
G01 X19.7826 Y69.1668
G01 X19.7386 Y69.1846
G01 X19.7239 Y69.1914
G01 X19.7077 Y69.2005
G01 X19.6786 Y69.2189
G01 X19.6720 Y69.2123
G01 X19.5980 Y69.2863
G01 X19.5841 Y69.3023
G01 X19.5482 Y69.3501
G01 X19.5374 Y69.3682
G01 X19.5171 Y69.4077
G01 X19.5112 Y69.4202
G01 X19.4085 Y69.6681
G01 X18.8681 Y70.2085
G01 X18.1621 Y70.5010
G01 X17.3979 Y70.5010
G01 X17.0425 Y70.3537
G01 X16.9992 Y70.3386
G01 X16.9704 Y70.3309
G01 X16.9550 Y70.3281
G01 X16.9118 Y70.3216
G01 X16.8913 Y70.3202
G01 X16.8304 Y70.3214
G01 X16.8110 Y70.3236
G01 X16.7807 Y70.3296
G01 X16.7634 Y70.3009
G01 X16.7697 Y70.2953
G01 X16.6955 Y70.2121
G01 X16.1515 Y69.6681
G01 X15.8590 Y68.9621
G01 X15.8590 Y68.1979
G01 X16.1515 Y67.4919
G01 X16.6919 Y66.9515
G01 X17.3979 Y66.6590
G01 X18.1621 Y66.6590
G01 X18.8681 Y66.9515
G01 X19.4085 Y67.4919
G01 X19.5149 Y67.7479
G01 X19.5325 Y67.7840
G01 X19.5427 Y67.8007
G01 X19.5639 Y67.8315
G01 X19.5571 Y67.8391
G01 X19.6346 Y67.9088
G01 X19.6489 Y67.9202
G01 X19.6882 Y67.9480
G01 X19.7019 Y67.9567
G01 X19.7457 Y67.9780
G01 X19.7438 Y67.9865
G01 X19.8462 Y68.0101
G01 X19.8696 Y68.0136
G01 X19.9275 Y68.0179
G01 X27.8899 Y68.0179
G01 X27.9358 Y68.0154
G01 X27.9578 Y68.0124
G01 X27.9907 Y68.0064
G01 X28.0226 Y67.9978
G01 X28.0522 Y67.9871
G01 X28.0667 Y67.9817
G01 X28.0983 Y67.9667
G01 X28.1371 Y67.9440
G01 X28.1658 Y67.9237
G01 X28.2008 Y67.8936
G01 X28.2245 Y67.8695
G01 X28.2461 Y67.8434
G01 X28.2732 Y67.8054
G01 X28.2960 Y67.7645
G01 X28.3098 Y67.7334
G01 X28.3250 Y67.6895
G01 X28.3333 Y67.6555
G01 X28.3379 Y67.6264
G01 X28.3403 Y67.6105
G01 X28.3424 Y67.5763
G01 X28.3414 Y67.5306
G01 X28.3375 Y67.4959
G01 X28.3283 Y67.4506
G01 X28.3183 Y67.4172
G01 X28.3073 Y67.3895
G01 X28.3015 Y67.3752
G01 X28.2856 Y67.3437
G01 X28.2612 Y67.3044
G01 X28.2412 Y67.2779
G01 X28.2112 Y67.2446
G01 X27.6519 Y66.6853
G01 X27.6519 Y65.3946
G01 X28.3030 Y64.7435
G01 X28.3334 Y64.7096
G01 X28.3465 Y64.6930
G01 X28.3759 Y64.6469
G01 X28.3887 Y64.6235
G01 X28.4085 Y64.5753
G01 X28.4169 Y64.5506
G01 X28.4209 Y64.5340
G01 X28.4289 Y64.4956
G01 X28.4321 Y64.4719
G01 X28.4334 Y64.4567
G01 X28.4345 Y64.4176
G01 X28.4338 Y64.3907
G01 X28.4260 Y64.3357
G01 X28.4209 Y64.3127
G01 X28.4166 Y64.2971
G01 X28.4034 Y64.2583
G01 X28.3933 Y64.2337
G01 X28.3865 Y64.2205
G01 X28.3686 Y64.1880
G01 X28.3537 Y64.1643
G01 X28.3106 Y64.1115
G01 X28.0251 Y63.8259
G01 X27.8351 Y63.3672
G01 X27.8351 Y62.8708
G01 X28.0251 Y62.4121
G01 X28.3891 Y62.0482
G01 X28.4119 Y62.0236
G01 X28.4198 Y62.0138
G01 X28.4328 Y61.9967
G01 X28.4511 Y61.9697
G01 X28.4693 Y61.9389
G01 X28.4927 Y61.8864
G01 X28.4999 Y61.8652
G01 X28.5110 Y61.8213
G01 X28.5173 Y61.7866
G01 X28.5185 Y61.7718
G01 X28.5209 Y61.7304
G01 X28.5209 Y56.0222
G01 X28.6140 Y55.7974
G01 X28.6196 Y55.7834
G01 X28.6289 Y55.7552
G01 X28.6383 Y55.7174
G01 X28.6427 Y55.6927
G01 X28.6462 Y55.6671
G01 X28.6479 Y55.6274
G01 X28.6479 Y52.2743
G01 X28.6468 Y52.2430
G01 X28.6422 Y52.2058
G01 X28.6335 Y52.1617
G01 X28.6276 Y52.1414
G01 X28.6068 Y52.0868
G01 X28.6004 Y52.0741
G01 X28.5905 Y52.0554
G01 X28.5748 Y52.0294
G01 X28.5668 Y52.0167
G01 X28.5542 Y51.9993
G01 X28.5166 Y51.9565
G01 X27.9019 Y51.3418
G01 X27.9019 Y50.2582
G01 X28.5642 Y49.5959
G01 X28.5951 Y49.5613
G01 X28.6080 Y49.5443
G01 X28.6268 Y49.5173
G01 X28.6442 Y49.4869
G01 X28.6634 Y49.4455
G01 X28.6749 Y49.4134
G01 X28.6867 Y49.3684
G01 X28.6924 Y49.3348
G01 X28.6938 Y49.3188
G01 X28.6960 Y49.2882
G01 X28.6957 Y49.2541
G01 X28.6911 Y49.2087
G01 X28.6846 Y49.1738
G01 X28.6721 Y49.1300
G01 X28.6598 Y49.0979
G01 X28.6394 Y49.0562
G01 X28.6217 Y49.0268
G01 X28.5939 Y48.9889
G01 X28.5721 Y48.9641
G01 X28.5477 Y48.9406
G01 X28.5287 Y48.9242
G01 X28.5114 Y48.9104
G01 X28.4723 Y48.8847
G01 X28.4430 Y48.8688
G01 X28.4000 Y48.8502
G01 X28.3675 Y48.8397
G01 X28.3226 Y48.8292
G01 X28.2885 Y48.8244
G01 X28.2443 Y48.8221
G01 X19.9877 Y48.8221
G01 X19.9874 Y48.8181
G01 X19.8823 Y48.8246
G01 X19.8597 Y48.8278
G01 X19.8143 Y48.8373
G01 X19.7981 Y48.8415
G01 X19.7826 Y48.8468
G01 X19.7386 Y48.8646
G01 X19.7239 Y48.8714
G01 X19.7077 Y48.8805
G01 X19.6786 Y48.8989
G01 X19.6720 Y48.8923
G01 X19.5980 Y48.9663
G01 X19.5841 Y48.9823
G01 X19.5482 Y49.0301
G01 X19.5374 Y49.0482
G01 X19.5171 Y49.0877
G01 X19.5112 Y49.1002
G01 X19.4085 Y49.3481
G01 X18.8681 Y49.8885
G01 X18.1621 Y50.1810
G01 X17.3979 Y50.1810
G01 X17.0425 Y50.0337
G01 X16.9992 Y50.0186
G01 X16.9704 Y50.0109
G01 X16.9550 Y50.0081
G01 X16.9118 Y50.0016
G01 X16.8910 Y50.0002
G01 X16.8304 Y50.0014
G01 X16.8110 Y50.0036
G01 X16.7807 Y50.0096
G01 X16.7634 Y49.9809
G01 X16.7697 Y49.9753
G01 X16.6955 Y49.8921
G01 X16.1515 Y49.3481
G01 X15.8590 Y48.6421
G01 X15.8590 Y47.8779
G01 X16.1515 Y47.1719
G01 X16.6919 Y46.6315
G01 X17.3979 Y46.3390
G01 X18.1621 Y46.3390
G01 X18.8681 Y46.6315
G01 X19.4085 Y47.1719
G01 X19.5149 Y47.4279
G01 X19.5329 Y47.4646
G01 X19.5425 Y47.4805
G01 X19.5639 Y47.5115
G01 X19.5571 Y47.5191
G01 X19.6346 Y47.5888
G01 X19.6489 Y47.6002
G01 X19.6882 Y47.6280
G01 X19.7019 Y47.6367
G01 X19.7457 Y47.6580
G01 X19.7438 Y47.6665
G01 X19.8462 Y47.6901
G01 X19.8696 Y47.6936
G01 X19.9275 Y47.6979
G01 X28.2435 Y47.6979
G01 X28.2894 Y47.6954
G01 X28.3114 Y47.6924
G01 X28.3443 Y47.6864
G01 X28.3763 Y47.6777
G01 X28.4201 Y47.6618
G01 X28.4518 Y47.6467
G01 X28.4773 Y47.6319
G01 X28.4912 Y47.6236
G01 X28.5189 Y47.6040
G01 X28.5544 Y47.5736
G01 X28.5862 Y47.5398
G01 X28.5997 Y47.5234
G01 X28.6271 Y47.4847
G01 X28.6497 Y47.4442
G01 X28.6634 Y47.4136
G01 X28.6785 Y47.3695
G01 X28.6867 Y47.3365
G01 X28.6939 Y47.2905
G01 X28.6960 Y47.2563
G01 X28.6949 Y47.2096
G01 X28.6910 Y47.1759
G01 X28.6850 Y47.1459
G01 X28.6818 Y47.1306
G01 X28.6722 Y47.0982
G01 X28.6547 Y47.0546
G01 X28.6394 Y47.0242
G01 X28.6147 Y46.9845
G01 X28.5945 Y46.9577
G01 X28.5646 Y46.9245
G01 X27.9019 Y46.2618
G01 X27.9019 Y45.1782
G01 X28.5161 Y44.5641
G01 X28.5468 Y44.5297
G01 X28.5598 Y44.5126
G01 X28.5782 Y44.4855
G01 X28.5959 Y44.4555
G01 X28.6196 Y44.4023
G01 X28.6302 Y44.3688
G01 X28.6380 Y44.3372
G01 X28.6442 Y44.3028
G01 X28.6479 Y44.2463
G01 X28.6476 Y44.1352
G01 X28.6451 Y44.0949
G01 X28.6422 Y44.0755
G01 X28.6363 Y44.0483
G01 X28.6430 Y44.0455
G01 X28.6050 Y43.9539
G01 X28.5968 Y43.9363
G01 X28.5893 Y43.9233
G01 X28.5651 Y43.8848
G01 X28.5539 Y43.8688
G01 X28.5133 Y43.8235
G01 X28.5022 Y43.8124
G01 X28.4878 Y43.8001
G01 X28.4398 Y43.7641
G01 X28.4218 Y43.7534
G01 X28.3768 Y43.7305
G01 X28.0251 Y43.3789
G01 X27.8351 Y42.9202
G01 X27.8351 Y42.4238
G01 X28.0251 Y41.9651
G01 X28.3891 Y41.6012
G01 X28.4119 Y41.5766
G01 X28.4198 Y41.5668
G01 X28.4328 Y41.5497
G01 X28.4511 Y41.5227
G01 X28.4693 Y41.4919
G01 X28.4927 Y41.4394
G01 X28.4999 Y41.4182
G01 X28.5110 Y41.3743
G01 X28.5173 Y41.3396
G01 X28.5185 Y41.3248
G01 X28.5209 Y41.2834
G01 X28.5209 Y34.3052
G01 X28.6065 Y34.0986
G01 X29.7806 Y32.9245
G01 X30.0201 Y32.8253
G01 X30.0658 Y32.8031
G01 X30.0823 Y32.7931
G01 X30.1197 Y32.7676
G01 X30.1375 Y32.7537
G01 X30.1781 Y32.7144
G01 X30.1885 Y32.7034
G01 X30.2016 Y32.6869
G01 X30.2288 Y32.6485
G01 X30.2378 Y32.6343
G01 X30.2575 Y32.5937
G01 X30.2649 Y32.5955
G01 X30.2887 Y32.5011
G01 X30.2929 Y32.4807
G01 X30.2976 Y32.4294
G01 X30.4619 Y32.0329
G01 X30.7629 Y31.7318
G01 X31.1562 Y31.5689
G01 X31.5818 Y31.5689
G01 X31.8745 Y31.6902
G01 X31.9179 Y31.7053
G01 X31.9593 Y31.7154
G01 X32.0048 Y31.7222
G01 X32.0522 Y31.7242
G01 X32.0851 Y31.7226
G01 X32.1318 Y31.7161
G01 X32.1645 Y31.7086
G01 X32.2094 Y31.6940
G01 X32.2511 Y31.6752
G01 X32.2820 Y31.6585
G01 X32.3097 Y31.6403
G01 X32.3458 Y31.6118
G01 X32.3795 Y31.5786
G01 X32.4019 Y31.5529
G01 X32.4220 Y31.5258
G01 X32.4467 Y31.4851
G01 X32.4611 Y31.4557
G01 X32.4782 Y31.4115
G01 X32.4874 Y31.3792
G01 X32.4963 Y31.3341
G01 X32.4998 Y31.2991
G01 X32.5005 Y31.2534
G01 X32.4977 Y31.2183
G01 X32.4930 Y31.1891
G01 X32.4903 Y31.1734
G01 X32.4818 Y31.1404
G01 X32.4669 Y31.0985
G01 X32.3690 Y30.8621
G01 X32.3690 Y30.0979
G01 X32.6615 Y29.3919
G01 X32.7773 Y29.2761
G01 X32.8083 Y29.2413
G01 X32.8212 Y29.2243
G01 X32.8400 Y29.1973
G01 X32.8571 Y29.1677
G01 X32.8765 Y29.1258
G01 X32.8884 Y29.0924
G01 X32.8922 Y29.0780
G01 X32.8999 Y29.0484
G01 X32.9056 Y29.0148
G01 X32.9092 Y28.9682
G01 X32.9089 Y28.9341
G01 X32.9043 Y28.8887
G01 X32.8980 Y28.8547
G01 X32.8850 Y28.8091
G01 X32.8732 Y28.7782
G01 X32.8527 Y28.7360
G01 X32.8349 Y28.7068
G01 X32.8076 Y28.6694
G01 X32.7850 Y28.6438
G01 X32.7609 Y28.6206
G01 X32.7246 Y28.5904
G01 X32.6855 Y28.5647
G01 X32.6562 Y28.5488
G01 X32.6134 Y28.5303
G01 X32.5682 Y28.5166
G01 X32.5358 Y28.5092
G01 X32.5017 Y28.5044
G01 X32.4575 Y28.5021
G01 X19.9877 Y28.5021
G01 X19.9874 Y28.4981
G01 X19.8922 Y28.5039
G01 X19.8589 Y28.5079
G01 X19.8150 Y28.5171
G01 X19.7984 Y28.5213
G01 X19.7826 Y28.5268
G01 X19.7386 Y28.5446
G01 X19.7239 Y28.5514
G01 X19.7073 Y28.5607
G01 X19.6688 Y28.5849
G01 X19.6528 Y28.5961
G01 X19.6075 Y28.6367
G01 X19.5965 Y28.6478
G01 X19.5838 Y28.6627
G01 X19.5482 Y28.7100
G01 X19.5376 Y28.7279
G01 X19.5169 Y28.7680
G01 X19.5112 Y28.7802
G01 X19.4085 Y29.0281
G01 X18.8681 Y29.5685
G01 X18.1621 Y29.8610
G01 X17.3979 Y29.8610
G01 X17.0425 Y29.7137
G01 X16.9992 Y29.6986
G01 X16.9704 Y29.6909
G01 X16.9550 Y29.6881
G01 X16.9118 Y29.6816
G01 X16.8913 Y29.6802
G01 X16.8304 Y29.6814
G01 X16.8110 Y29.6836
G01 X16.7807 Y29.6897
G01 X16.7634 Y29.6609
G01 X16.7697 Y29.6553
G01 X16.6955 Y29.5721
G01 X16.1515 Y29.0281
G01 X15.8590 Y28.3221
G01 X15.8590 Y27.5579
G01 X16.1515 Y26.8519
G01 X16.6919 Y26.3115
G01 X17.3979 Y26.0190
G01 X18.1621 Y26.0190
G01 X18.8681 Y26.3115
G01 X19.4085 Y26.8519
G01 X19.5109 Y27.0992
G01 X19.5260 Y27.1308
G01 X19.5326 Y27.1442
G01 X19.5430 Y27.1612
G01 X19.5685 Y27.1983
G01 X19.5795 Y27.2129
G01 X19.5906 Y27.2253
G01 X19.6243 Y27.2595
G01 X19.6373 Y27.2713
G01 X19.6492 Y27.2804
G01 X19.6881 Y27.3079
G01 X19.7017 Y27.3166
G01 X19.7168 Y27.3245
G01 X19.7457 Y27.3381
G01 X19.7438 Y27.3465
G01 X19.8517 Y27.3711
G01 X19.8696 Y27.3736
G01 X19.9140 Y27.3773
G01 X19.9275 Y27.3779
G01 X38.4323 Y27.3779
G01 X38.4326 Y27.3819
G01 X38.5278 Y27.3761
G01 X38.5508 Y27.3738
G01 X38.6050 Y27.3629
G01 X38.6216 Y27.3587
G01 X38.6374 Y27.3532
G01 X38.6814 Y27.3354
G01 X38.6961 Y27.3286
G01 X38.7127 Y27.3193
G01 X38.7512 Y27.2951
G01 X38.7672 Y27.2839
G01 X38.8125 Y27.2433
G01 X38.8235 Y27.2322
G01 X38.8362 Y27.2173
G01 X38.8718 Y27.1700
G01 X38.8824 Y27.1521
G01 X38.9031 Y27.1120
G01 X38.9088 Y27.0998
G01 X39.0115 Y26.8519
G01 X39.5519 Y26.3115
G01 X40.2579 Y26.0190
G01 X41.0221 Y26.0190
G01 X41.7281 Y26.3115
G01 X42.2685 Y26.8519
G01 X42.3709 Y27.0992
G01 X42.3926 Y27.1442
G01 X42.4030 Y27.1612
G01 X42.4285 Y27.1983
G01 X42.4395 Y27.2129
G01 X42.4506 Y27.2253
G01 X42.4843 Y27.2595
G01 X42.4973 Y27.2713
G01 X42.5092 Y27.2804
G01 X42.5481 Y27.3079
G01 X42.5617 Y27.3166
G01 X42.5768 Y27.3245
G01 X42.6057 Y27.3381
G01 X42.6038 Y27.3465
G01 X42.7117 Y27.3711
G01 X42.7296 Y27.3736
G01 X42.7875 Y27.3779
G01 X89.2323 Y27.3779
G01 X89.2326 Y27.3819
G01 X89.3278 Y27.3761
G01 X89.3508 Y27.3738
G01 X89.4050 Y27.3629
G01 X89.4216 Y27.3587
G01 X89.4374 Y27.3532
G01 X89.4814 Y27.3354
G01 X89.4961 Y27.3286
G01 X89.5127 Y27.3193
G01 X89.5512 Y27.2951
G01 X89.5672 Y27.2839
G01 X89.6125 Y27.2433
G01 X89.6235 Y27.2322
G01 X89.6362 Y27.2173
G01 X89.6718 Y27.1700
G01 X89.6824 Y27.1521
G01 X89.7031 Y27.1120
G01 X89.7088 Y27.0998
G01 X89.8115 Y26.8519
G01 X90.3519 Y26.3115
G01 X91.0579 Y26.0190
G01 X91.8221 Y26.0190
G01 X92.5281 Y26.3115
G01 X93.0685 Y26.8519
G01 X93.1709 Y27.0992
G01 X93.1896 Y27.1381
G01 X93.2028 Y27.1609
G01 X93.2285 Y27.1983
G01 X93.2395 Y27.2129
G01 X93.2506 Y27.2253
G01 X93.2843 Y27.2595
G01 X93.2973 Y27.2713
G01 X93.3092 Y27.2804
G01 X93.3481 Y27.3079
G01 X93.3617 Y27.3166
G01 X93.3768 Y27.3245
G01 X93.4057 Y27.3381
G01 X93.4038 Y27.3465
G01 X93.5117 Y27.3711
G01 X93.5296 Y27.3736
G01 X93.5875 Y27.3779
G01 X99.9985 Y27.3779
G01 X100.0444 Y27.3754
G01 X100.0664 Y27.3724
G01 X100.0993 Y27.3664
G01 X100.1313 Y27.3577
G01 X100.1751 Y27.3418
G01 X100.2168 Y27.3210
G01 X100.2468 Y27.3033
G01 X100.2739 Y27.2840
G01 X100.3094 Y27.2536
G01 X100.3412 Y27.2198
G01 X100.3547 Y27.2034
G01 X100.3821 Y27.1647
G01 X100.4045 Y27.1245
G01 X100.4185 Y27.0932
G01 X100.4335 Y27.0495
G01 X100.4417 Y27.0165
G01 X100.4489 Y26.9705
G01 X100.4510 Y26.9363
G01 X100.4504 Y26.9057
G01 X100.4499 Y26.8896
G01 X100.4460 Y26.8559
G01 X100.4368 Y26.8106
G01 X100.4272 Y26.7782
G01 X100.4212 Y26.7630
G01 X100.4097 Y26.7346
G01 X100.3944 Y26.7042
G01 X100.3697 Y26.6645
G01 X100.3492 Y26.6372
G01 X100.3197 Y26.6045
G01 X100.2919 Y26.5768
G01 X100.2919 Y25.4932
G01 X100.9061 Y24.8791
G01 X100.9368 Y24.8447
G01 X100.9498 Y24.8276
G01 X100.9682 Y24.8005
G01 X100.9859 Y24.7705
G01 X101.0096 Y24.7173
G01 X101.0202 Y24.6838
G01 X101.0280 Y24.6522
G01 X101.0342 Y24.6178
G01 X101.0355 Y24.6027
G01 X101.0379 Y24.5613
G01 X101.0379 Y13.8582
G01 X101.1235 Y13.6516
G01 X102.1706 Y12.6045
G01 X102.3772 Y12.5189
G01 X104.7765 Y12.5189
G01 X104.8219 Y12.5164
G01 X104.8431 Y12.5139
G01 X104.8942 Y12.5026
G01 X104.9205 Y12.4951
G01 X104.9720 Y12.4737
G01 X104.9949 Y12.4623
G01 X105.0517 Y12.4250
G01 X105.0734 Y12.4067
G01 X105.1119 Y12.3694
G01 X105.1288 Y12.3489
G01 X105.1507 Y12.3192
G01 X105.1661 Y12.2956
G01 X105.1962 Y12.2344
G01 X105.2055 Y12.2080
G01 X105.2195 Y12.1572
G01 X105.2219 Y12.1452
G01 X105.2252 Y12.1151
G01 X105.3918 Y11.7129
G01 X105.6929 Y11.4118
G01 X106.0862 Y11.2489
G01 X106.5118 Y11.2489
G01 X106.8139 Y11.3737
G01 X106.8479 Y11.3853
G01 X106.8687 Y11.3908
G01 X106.8893 Y11.3954
G01 X106.9348 Y11.4022
G01 X106.9822 Y11.4042
G01 X107.0151 Y11.4026
G01 X107.0618 Y11.3961
G01 X107.0945 Y11.3886
G01 X107.1394 Y11.3740
G01 X107.1811 Y11.3552
G01 X107.2120 Y11.3385
G01 X107.2397 Y11.3203
G01 X107.2758 Y11.2918
G01 X107.3095 Y11.2586
G01 X107.3319 Y11.2329
G01 X107.3520 Y11.2058
G01 X107.3767 Y11.1651
G01 X107.3911 Y11.1357
G01 X107.4082 Y11.0915
G01 X107.4174 Y11.0592
G01 X107.4233 Y11.0297
G01 X107.4263 Y11.0141
G01 X107.4298 Y10.9791
G01 X107.4305 Y10.9334
G01 X107.4277 Y10.8983
G01 X107.4203 Y10.8534
G01 X107.4118 Y10.8204
G01 X107.3969 Y10.7785
G01 X107.2990 Y10.5421
G01 X107.2990 Y9.7779
G01 X107.5915 Y9.0719
G01 X107.8410 Y8.8219
G01 X107.8653 Y8.7943
G01 X107.8782 Y8.7773
G01 X107.8970 Y8.7503
G01 X107.9141 Y8.7207
G01 X107.9335 Y8.6788
G01 X107.9454 Y8.6454
G01 X107.9569 Y8.6014
G01 X107.9626 Y8.5678
G01 X107.9662 Y8.5212
G01 X107.9659 Y8.4871
G01 X107.9613 Y8.4417
G01 X107.9549 Y8.4075
G01 X107.9421 Y8.3623
G01 X107.9302 Y8.3312
G01 X107.9097 Y8.2890
G01 X107.8919 Y8.2598
G01 X107.8646 Y8.2224
G01 X107.8420 Y8.1968
G01 X107.8179 Y8.1736
G01 X107.7816 Y8.1434
G01 X107.7425 Y8.1177
G01 X107.7132 Y8.1018
G01 X107.6704 Y8.0833
G01 X107.6252 Y8.0696
G01 X107.5928 Y8.0622
G01 X107.5587 Y8.0574
G01 X107.5145 Y8.0551
G01 X20.0403 Y8.0551
G01 X20.0400 Y8.0511
G01 X19.9448 Y8.0569
G01 X19.9218 Y8.0592
G01 X19.8676 Y8.0701
G01 X19.8510 Y8.0743
G01 X19.8352 Y8.0798
G01 X19.7912 Y8.0976
G01 X19.7765 Y8.1044
G01 X19.7599 Y8.1137
G01 X19.7214 Y8.1379
G01 X19.7054 Y8.1491
G01 X19.6935 Y8.1592
G01 X19.6601 Y8.1897
G01 X19.6491 Y8.2008
G01 X19.6364 Y8.2157
G01 X19.6008 Y8.2630
G01 X19.5902 Y8.2809
G01 X19.5695 Y8.3210
G01 X19.5638 Y8.3332
G01 X19.4085 Y8.7081
G01 X18.8681 Y9.2485
G01 X18.1621 Y9.5410
G01 X17.3979 Y9.5410
G01 X17.0425 Y9.3937
G01 X16.9992 Y9.3786
G01 X16.9704 Y9.3709
G01 X16.9550 Y9.3681
G01 X16.9118 Y9.3616
G01 X16.8913 Y9.3602
G01 X16.8304 Y9.3614
G01 X16.8110 Y9.3636
G01 X16.7807 Y9.3696
G01 X16.7634 Y9.3409
G01 X16.7697 Y9.3353
G01 X16.6955 Y9.2521
G01 X16.1515 Y8.7081
G01 X15.8590 Y8.0021
G01 X15.8590 Y7.2379
G01 X16.1515 Y6.5319
G01 X16.6919 Y5.9915
G01 X17.3979 Y5.6990
G01 X18.1621 Y5.6990
