(G-CODE GENERATED BY FLATCAM v8.909 - www.flatcam.org - Version Date: 2019/02/16)

(Name: drills.xln_cnc)
(Type: G-code from Excellon)
(Units: MM)

(Created on Friday, 08 March 2019 at 22:50)

(Feedrate: 30.0 mm/min)
(Feedrate rapids 3.0 mm/min)

(Z_Cut: -1.8 mm)
(Z_Move: 1.0 mm)
(Z Toolchange: 15.0 mm)
(X,Y Toolchange: 0.0000, 0.0000 mm)
(Z Start: None mm)
(Z End: 15.0 mm)
(Steps per circle: 64)
(Postprocessor Excellon: default)

(X range:    5.6460 ...  116.4465  mm)
(Y range:    4.6800 ...  113.5380  mm)

(Spindle Speed: 1000.0 RPM)

G21
G90
G94

G01 F30.00
M03 S1000.0
G00 X66.0400 Y30.4800
G01 Z-1.8000
G01 Z0
G00 Z1.0000
G00 X62.2300 Y30.4800
G01 Z-1.8000
G01 Z0
G00 Z1.0000
G00 X29.2100 Y45.7200
G01 Z-1.8000
G01 Z0
G00 Z1.0000
G00 X29.2100 Y50.8000
G01 Z-1.8000
G01 Z0
G00 Z1.0000
G00 X29.2100 Y66.0400
G01 Z-1.8000
G01 Z0
G00 Z1.0000
G00 X29.2100 Y71.1200
G01 Z-1.8000
G01 Z0
G00 Z1.0000
G00 X29.2100 Y86.3600
G01 Z-1.8000
G01 Z0
G00 Z1.0000
G00 X29.2100 Y91.4400
G01 Z-1.8000
G01 Z0
G00 Z1.0000
G00 X20.3200 Y107.9500
G01 Z-1.8000
G01 Z0
G00 Z1.0000
G00 X20.3200 Y113.0300
G01 Z-1.8000
G01 Z0
G00 Z1.0000
G00 X38.1000 Y113.0300
G01 Z-1.8000
G01 Z0
G00 Z1.0000
G00 X38.1000 Y106.6800
G01 Z-1.8000
G01 Z0
G00 Z1.0000
G00 X66.0400 Y110.4900
G01 Z-1.8000
G01 Z0
G00 Z1.0000
G00 X66.0400 Y104.1400
G01 Z-1.8000
G01 Z0
G00 Z1.0000
G00 X78.7400 Y45.7200
G01 Z-1.8000
G01 Z0
G00 Z1.0000
G00 X97.7900 Y30.4800
G01 Z-1.8000
G01 Z0
G00 Z1.0000
G00 X97.7900 Y25.4000
G01 Z-1.8000
G01 Z0
G00 Z1.0000
G00 X67.3100 Y5.0800
G01 Z-1.8000
G01 Z0
G00 Z1.0000
G00 X63.5000 Y5.0800
G01 Z-1.8000
G01 Z0
G00 Z1.0000
G00 X63.5000 Y10.1600
G01 Z-1.8000
G01 Z0
G00 Z1.0000
G00 X67.3100 Y10.1600
G01 Z-1.8000
G01 Z0
G00 Z1.0000
G00 X66.0400 Y25.4000
G01 Z-1.8000
G01 Z0
G00 Z1.0000
G00 X62.2300 Y25.4000
G01 Z-1.8000
G01 Z0
G00 Z1.0000
M03 S1000.0
G00 X102.8700 Y22.2250
G01 Z-1.8000
G01 Z0
G00 Z1.0000
G00 X110.4900 Y22.2250
G01 Z-1.8000
G01 Z0
G00 Z1.0000
G00 X102.9970 Y42.5450
G01 Z-1.8000
G01 Z0
G00 Z1.0000
G00 X110.6170 Y42.5450
G01 Z-1.8000
G01 Z0
G00 Z1.0000
G00 X110.4900 Y62.8650
G01 Z-1.8000
G01 Z0
G00 Z1.0000
G00 X102.8700 Y62.8650
G01 Z-1.8000
G01 Z0
G00 Z1.0000
G00 X102.8700 Y83.0580
G01 Z-1.8000
G01 Z0
G00 Z1.0000
G00 X110.4900 Y83.0580
G01 Z-1.8000
G01 Z0
G00 Z1.0000
G00 X110.3630 Y102.9970
G01 Z-1.8000
G01 Z0
G00 Z1.0000
G00 X102.7430 Y102.9970
G01 Z-1.8000
G01 Z0
G00 Z1.0000
G00 X87.7570 Y102.9970
G01 Z-1.8000
G01 Z0
G00 Z1.0000
G00 X80.1370 Y102.9970
G01 Z-1.8000
G01 Z0
G00 Z1.0000
G00 X62.2300 Y102.8700
G01 Z-1.8000
G01 Z0
G00 Z1.0000
G00 X54.6100 Y102.8700
G01 Z-1.8000
G01 Z0
G00 Z1.0000
G00 X36.8300 Y102.8700
G01 Z-1.8000
G01 Z0
G00 Z1.0000
G00 X29.2100 Y102.8700
G01 Z-1.8000
G01 Z0
G00 Z1.0000
G00 X13.9700 Y102.8700
G01 Z-1.8000
G01 Z0
G00 Z1.0000
G00 X6.3500 Y102.8700
G01 Z-1.8000
G01 Z0
G00 Z1.0000
G00 X13.8430 Y82.9310
G01 Z-1.8000
G01 Z0
G00 Z1.0000
G00 X6.2230 Y82.9310
G01 Z-1.8000
G01 Z0
G00 Z1.0000
G00 X6.2230 Y63.1190
G01 Z-1.8000
G01 Z0
G00 Z1.0000
G00 X13.8430 Y63.1190
G01 Z-1.8000
G01 Z0
G00 Z1.0000
G00 X13.8430 Y42.5450
G01 Z-1.8000
G01 Z0
G00 Z1.0000
G00 X6.2230 Y42.5450
G01 Z-1.8000
G01 Z0
G00 Z1.0000
G00 X6.0960 Y22.2250
G01 Z-1.8000
G01 Z0
G00 Z1.0000
G00 X13.7160 Y22.2250
G01 Z-1.8000
G01 Z0
G00 Z1.0000
G00 X29.0830 Y42.6720
G01 Z-1.8000
G01 Z0
G00 Z1.0000
G00 X36.7030 Y42.6720
G01 Z-1.8000
G01 Z0
G00 Z1.0000
G00 X62.9920 Y62.7380
G01 Z-1.8000
G01 Z0
G00 Z1.0000
G00 X55.3720 Y62.7380
G01 Z-1.8000
G01 Z0
G00 Z1.0000
G00 X36.7030 Y63.1190
G01 Z-1.8000
G01 Z0
G00 Z1.0000
G00 X29.0830 Y63.1190
G01 Z-1.8000
G01 Z0
G00 Z1.0000
G00 X29.2100 Y83.0580
G01 Z-1.8000
G01 Z0
G00 Z1.0000
G00 X36.8300 Y83.0580
G01 Z-1.8000
G01 Z0
G00 Z1.0000
G00 X55.8800 Y83.4390
G01 Z-1.8000
G01 Z0
G00 Z1.0000
G00 X63.5000 Y83.4390
G01 Z-1.8000
G01 Z0
G00 Z1.0000
G00 X80.1370 Y83.3120
G01 Z-1.8000
G01 Z0
G00 Z1.0000
G00 X87.7570 Y83.3120
G01 Z-1.8000
G01 Z0
G00 Z1.0000
G00 X89.0270 Y62.9920
G01 Z-1.8000
G01 Z0
G00 Z1.0000
G00 X81.4070 Y62.9920
G01 Z-1.8000
G01 Z0
G00 Z1.0000
G00 X83.0580 Y42.0370
G01 Z-1.8000
G01 Z0
G00 Z1.0000
G00 X90.6780 Y42.0370
G01 Z-1.8000
G01 Z0
G00 Z1.0000
M03 S1000.0
G00 X54.4830 Y64.7700
G01 Z-1.8000
G01 Z0
G00 Z1.0000
G00 X48.1330 Y65.4050
G01 Z-1.8000
G01 Z0
G00 Z1.0000
G00 X48.2600 Y71.1200
G01 Z-1.8000
G01 Z0
G00 Z1.0000
G00 X48.7680 Y85.7250
G01 Z-1.8000
G01 Z0
G00 Z1.0000
G00 X53.3400 Y86.3600
G01 Z-1.8000
G01 Z0
G00 Z1.0000
G00 X53.3400 Y92.7100
G01 Z-1.8000
G01 Z0
G00 Z1.0000
G00 X48.6410 Y91.6940
G01 Z-1.8000
G01 Z0
G00 Z1.0000
G00 X24.8920 Y91.9480
G01 Z-1.8000
G01 Z0
G00 Z1.0000
G00 X25.0190 Y86.2330
G01 Z-1.8000
G01 Z0
G00 Z1.0000
G00 X25.1460 Y71.3740
G01 Z-1.8000
G01 Z0
G00 Z1.0000
G00 X25.2730 Y65.6590
G01 Z-1.8000
G01 Z0
G00 Z1.0000
G00 X25.0190 Y51.1810
G01 Z-1.8000
G01 Z0
G00 Z1.0000
G00 X25.1460 Y45.4660
G01 Z-1.8000
G01 Z0
G00 Z1.0000
G00 X25.0190 Y30.3530
G01 Z-1.8000
G01 Z0
G00 Z1.0000
G00 X25.1460 Y24.6380
G01 Z-1.8000
G01 Z0
G00 Z1.0000
G00 X47.1170 Y45.0850
G01 Z-1.8000
G01 Z0
G00 Z1.0000
G00 X46.9900 Y50.8000
G01 Z-1.8000
G01 Z0
G00 Z1.0000
G00 X73.6600 Y50.8000
G01 Z-1.8000
G01 Z0
G00 Z1.0000
G00 X78.7400 Y50.8000
G01 Z-1.8000
G01 Z0
G00 Z1.0000
G00 X73.7870 Y45.0850
G01 Z-1.8000
G01 Z0
G00 Z1.0000
G00 X99.0600 Y17.7800
G01 Z-1.8000
G01 Z0
G00 Z1.0000
G00 X104.2670 Y17.6530
G01 Z-1.8000
G01 Z0
G00 Z1.0000
G00 X101.6000 Y26.0350
G01 Z-1.8000
G01 Z0
G00 Z1.0000
G00 X101.6000 Y30.2260
G01 Z-1.8000
G01 Z0
G00 Z1.0000
G00 X99.0600 Y38.1000
G01 Z-1.8000
G01 Z0
G00 Z1.0000
G00 X104.2670 Y37.9730
G01 Z-1.8000
G01 Z0
G00 Z1.0000
G00 X101.6000 Y45.9740
G01 Z-1.8000
G01 Z0
G00 Z1.0000
G00 X101.6000 Y50.9270
G01 Z-1.8000
G01 Z0
G00 Z1.0000
G00 X104.2670 Y58.2930
G01 Z-1.8000
G01 Z0
G00 Z1.0000
G00 X99.0600 Y58.4200
G01 Z-1.8000
G01 Z0
G00 Z1.0000
G00 X97.7900 Y64.3890
G01 Z-1.8000
G01 Z0
G00 Z1.0000
G00 X101.4730 Y66.4210
G01 Z-1.8000
G01 Z0
G00 Z1.0000
G00 X97.7900 Y70.9930
G01 Z-1.8000
G01 Z0
G00 Z1.0000
G00 X101.6000 Y70.8660
G01 Z-1.8000
G01 Z0
G00 Z1.0000
G00 X104.2670 Y78.6130
G01 Z-1.8000
G01 Z0
G00 Z1.0000
G00 X99.0600 Y78.7400
G01 Z-1.8000
G01 Z0
G00 Z1.0000
G00 X98.0440 Y85.7250
G01 Z-1.8000
G01 Z0
G00 Z1.0000
G00 X101.6000 Y86.8680
G01 Z-1.8000
G01 Z0
G00 Z1.0000
G00 X98.0440 Y91.6940
G01 Z-1.8000
G01 Z0
G00 Z1.0000
G00 X101.4730 Y91.0590
G01 Z-1.8000
G01 Z0
G00 Z1.0000
G00 X104.2670 Y98.9330
G01 Z-1.8000
G01 Z0
G00 Z1.0000
G00 X99.0600 Y99.0600
G01 Z-1.8000
G01 Z0
G00 Z1.0000
G00 X80.6450 Y98.6790
G01 Z-1.8000
G01 Z0
G00 Z1.0000
G00 X75.4380 Y98.8060
G01 Z-1.8000
G01 Z0
G00 Z1.0000
G00 X73.6600 Y91.9480
G01 Z-1.8000
G01 Z0
G00 Z1.0000
G00 X78.7400 Y91.4400
G01 Z-1.8000
G01 Z0
G00 Z1.0000
G00 X78.7400 Y86.3600
G01 Z-1.8000
G01 Z0
G00 Z1.0000
G00 X73.6600 Y85.5980
G01 Z-1.8000
G01 Z0
G00 Z1.0000
G00 X78.7400 Y71.1200
G01 Z-1.8000
G01 Z0
G00 Z1.0000
G00 X78.7400 Y64.7700
G01 Z-1.8000
G01 Z0
G00 Z1.0000
G00 X73.7870 Y65.4050
G01 Z-1.8000
G01 Z0
G00 Z1.0000
G00 X73.6600 Y71.1200
G01 Z-1.8000
G01 Z0
G00 Z1.0000
G00 X54.6100 Y71.1200
G01 Z-1.8000
G01 Z0
G00 Z1.0000
M03 S1000.0
G00 X10.4140 Y33.1470
G01 Z-1.8000
G01 Z0
G00 Z1.0000
G00 X7.8740 Y33.1470
G01 Z-1.8000
G01 Z0
G00 Z1.0000
G00 X7.8740 Y12.7000
G01 Z-1.8000
G01 Z0
G00 Z1.0000
G00 X10.4140 Y12.7000
G01 Z-1.8000
G01 Z0
G00 Z1.0000
G00 X31.3690 Y33.4010
G01 Z-1.8000
G01 Z0
G00 Z1.0000
G00 X33.9090 Y33.4010
G01 Z-1.8000
G01 Z0
G00 Z1.0000
G00 X82.0420 Y33.2740
G01 Z-1.8000
G01 Z0
G00 Z1.0000
G00 X84.5820 Y33.2740
G01 Z-1.8000
G01 Z0
G00 Z1.0000
G00 X106.2990 Y13.0810
G01 Z-1.8000
G01 Z0
G00 Z1.0000
G00 X108.8390 Y13.0810
G01 Z-1.8000
G01 Z0
G00 Z1.0000
G00 X108.7120 Y33.1470
G01 Z-1.8000
G01 Z0
G00 Z1.0000
G00 X106.1720 Y33.1470
G01 Z-1.8000
G01 Z0
G00 Z1.0000
G00 X108.9660 Y53.4670
G01 Z-1.8000
G01 Z0
G00 Z1.0000
G00 X106.4260 Y53.4670
G01 Z-1.8000
G01 Z0
G00 Z1.0000
G00 X84.9630 Y53.2130
G01 Z-1.8000
G01 Z0
G00 Z1.0000
G00 X82.4230 Y53.2130
G01 Z-1.8000
G01 Z0
G00 Z1.0000
G00 X82.1690 Y73.9140
G01 Z-1.8000
G01 Z0
G00 Z1.0000
G00 X84.7090 Y73.9140
G01 Z-1.8000
G01 Z0
G00 Z1.0000
G00 X106.1720 Y73.7870
G01 Z-1.8000
G01 Z0
G00 Z1.0000
G00 X108.7120 Y73.7870
G01 Z-1.8000
G01 Z0
G00 Z1.0000
G00 X108.8390 Y93.9800
G01 Z-1.8000
G01 Z0
G00 Z1.0000
G00 X106.2990 Y93.9800
G01 Z-1.8000
G01 Z0
G00 Z1.0000
G00 X84.4550 Y94.1070
G01 Z-1.8000
G01 Z0
G00 Z1.0000
G00 X81.9150 Y94.1070
G01 Z-1.8000
G01 Z0
G00 Z1.0000
G00 X88.9000 Y113.0300
G01 Z-1.8000
G01 Z0
G00 Z1.0000
G00 X86.3600 Y113.0300
G01 Z-1.8000
G01 Z0
G00 Z1.0000
G00 X83.8200 Y113.0300
G01 Z-1.8000
G01 Z0
G00 Z1.0000
G00 X81.2800 Y113.0300
G01 Z-1.8000
G01 Z0
G00 Z1.0000
G00 X78.7400 Y113.0300
G01 Z-1.8000
G01 Z0
G00 Z1.0000
G00 X76.2000 Y113.0300
G01 Z-1.8000
G01 Z0
G00 Z1.0000
G00 X73.6600 Y113.0300
G01 Z-1.8000
G01 Z0
G00 Z1.0000
G00 X59.6900 Y113.0300
G01 Z-1.8000
G01 Z0
G00 Z1.0000
G00 X57.1500 Y113.0300
G01 Z-1.8000
G01 Z0
G00 Z1.0000
G00 X54.6100 Y113.0300
G01 Z-1.8000
G01 Z0
G00 Z1.0000
G00 X52.0700 Y113.0300
G01 Z-1.8000
G01 Z0
G00 Z1.0000
G00 X49.5300 Y113.0300
G01 Z-1.8000
G01 Z0
G00 Z1.0000
G00 X46.9900 Y113.0300
G01 Z-1.8000
G01 Z0
G00 Z1.0000
G00 X56.7690 Y94.2340
G01 Z-1.8000
G01 Z0
G00 Z1.0000
G00 X59.3090 Y94.2340
G01 Z-1.8000
G01 Z0
G00 Z1.0000
G00 X56.7690 Y74.0410
G01 Z-1.8000
G01 Z0
G00 Z1.0000
G00 X59.3090 Y74.0410
G01 Z-1.8000
G01 Z0
G00 Z1.0000
G00 X59.5630 Y53.4670
G01 Z-1.8000
G01 Z0
G00 Z1.0000
G00 X57.0230 Y53.4670
G01 Z-1.8000
G01 Z0
G00 Z1.0000
G00 X34.0360 Y53.7210
G01 Z-1.8000
G01 Z0
G00 Z1.0000
G00 X31.4960 Y53.7210
G01 Z-1.8000
G01 Z0
G00 Z1.0000
G00 X33.7820 Y74.1680
G01 Z-1.8000
G01 Z0
G00 Z1.0000
G00 X31.2420 Y74.1680
G01 Z-1.8000
G01 Z0
G00 Z1.0000
G00 X33.7820 Y94.3610
G01 Z-1.8000
G01 Z0
G00 Z1.0000
G00 X31.2420 Y94.3610
G01 Z-1.8000
G01 Z0
G00 Z1.0000
G00 X10.6680 Y94.1070
G01 Z-1.8000
G01 Z0
G00 Z1.0000
G00 X8.1280 Y94.1070
G01 Z-1.8000
G01 Z0
G00 Z1.0000
G00 X7.7470 Y73.7870
G01 Z-1.8000
G01 Z0
G00 Z1.0000
G00 X10.2870 Y73.7870
G01 Z-1.8000
G01 Z0
G00 Z1.0000
G00 X8.0010 Y53.7210
G01 Z-1.8000
G01 Z0
G00 Z1.0000
G00 X10.5410 Y53.7210
G01 Z-1.8000
G01 Z0
G00 Z1.0000
M03 S1000.0
G00 X13.9700 Y58.4200
G01 Z-1.8000
G01 Z0
G00 Z1.0000
G00 X16.5100 Y58.4200
G01 Z-1.8000
G01 Z0
G00 Z1.0000
G00 X16.5100 Y78.7400
G01 Z-1.8000
G01 Z0
G00 Z1.0000
G00 X13.9700 Y78.7400
G01 Z-1.8000
G01 Z0
G00 Z1.0000
G00 X13.9700 Y99.0600
G01 Z-1.8000
G01 Z0
G00 Z1.0000
G00 X16.5100 Y99.0600
G01 Z-1.8000
G01 Z0
G00 Z1.0000
G00 X36.8300 Y99.0600
G01 Z-1.8000
G01 Z0
G00 Z1.0000
G00 X39.3700 Y99.0600
G01 Z-1.8000
G01 Z0
G00 Z1.0000
G00 X36.8300 Y78.7400
G01 Z-1.8000
G01 Z0
G00 Z1.0000
G00 X39.3700 Y78.7400
G01 Z-1.8000
G01 Z0
G00 Z1.0000
G00 X62.2300 Y78.7400
G01 Z-1.8000
G01 Z0
G00 Z1.0000
G00 X64.7700 Y78.7400
G01 Z-1.8000
G01 Z0
G00 Z1.0000
G00 X62.2300 Y99.0600
G01 Z-1.8000
G01 Z0
G00 Z1.0000
G00 X64.7700 Y99.0600
G01 Z-1.8000
G01 Z0
G00 Z1.0000
G00 X87.6300 Y99.0600
G01 Z-1.8000
G01 Z0
G00 Z1.0000
G00 X90.1700 Y99.0600
G01 Z-1.8000
G01 Z0
G00 Z1.0000
G00 X111.7600 Y99.0600
G01 Z-1.8000
G01 Z0
G00 Z1.0000
G00 X114.3000 Y99.0600
G01 Z-1.8000
G01 Z0
G00 Z1.0000
G00 X114.3000 Y78.7400
G01 Z-1.8000
G01 Z0
G00 Z1.0000
G00 X111.7600 Y78.7400
G01 Z-1.8000
G01 Z0
G00 Z1.0000
G00 X114.3000 Y58.4200
G01 Z-1.8000
G01 Z0
G00 Z1.0000
G00 X111.7600 Y58.4200
G01 Z-1.8000
G01 Z0
G00 Z1.0000
G00 X111.7600 Y38.1000
G01 Z-1.8000
G01 Z0
G00 Z1.0000
G00 X114.3000 Y38.1000
G01 Z-1.8000
G01 Z0
G00 Z1.0000
G00 X114.3000 Y17.7800
G01 Z-1.8000
G01 Z0
G00 Z1.0000
G00 X111.7600 Y17.7800
G01 Z-1.8000
G01 Z0
G00 Z1.0000
G00 X90.1700 Y38.1000
G01 Z-1.8000
G01 Z0
G00 Z1.0000
G00 X87.6300 Y38.1000
G01 Z-1.8000
G01 Z0
G00 Z1.0000
G00 X87.6300 Y58.4200
G01 Z-1.8000
G01 Z0
G00 Z1.0000
G00 X90.1700 Y58.4200
G01 Z-1.8000
G01 Z0
G00 Z1.0000
G00 X90.1700 Y78.7400
G01 Z-1.8000
G01 Z0
G00 Z1.0000
G00 X87.6300 Y78.7400
G01 Z-1.8000
G01 Z0
G00 Z1.0000
G00 X64.7700 Y58.4200
G01 Z-1.8000
G01 Z0
G00 Z1.0000
G00 X62.2300 Y58.4200
G01 Z-1.8000
G01 Z0
G00 Z1.0000
G00 X39.3700 Y58.4200
G01 Z-1.8000
G01 Z0
G00 Z1.0000
G00 X36.8300 Y58.4200
G01 Z-1.8000
G01 Z0
G00 Z1.0000
G00 X39.3700 Y38.1000
G01 Z-1.8000
G01 Z0
G00 Z1.0000
G00 X36.8300 Y38.1000
G01 Z-1.8000
G01 Z0
G00 Z1.0000
G00 X16.5100 Y17.7800
G01 Z-1.8000
G01 Z0
G00 Z1.0000
G00 X13.9700 Y17.7800
G01 Z-1.8000
G01 Z0
G00 Z1.0000
G00 X16.5100 Y38.1000
G01 Z-1.8000
G01 Z0
G00 Z1.0000
G00 X13.9700 Y38.1000
G01 Z-1.8000
G01 Z0
G00 Z1.0000
M03 S1000.0
G00 X66.0400 Y88.9000
G01 Z-1.8000
G01 Z0
G00 Z1.0000
G00 X59.6900 Y91.4400
G01 Z-1.8000
G01 Z0
G00 Z1.0000
G00 X40.6400 Y88.9000
G01 Z-1.8000
G01 Z0
G00 Z1.0000
G00 X34.2900 Y91.4400
G01 Z-1.8000
G01 Z0
G00 Z1.0000
G00 X17.7800 Y88.9000
G01 Z-1.8000
G01 Z0
G00 Z1.0000
G00 X11.4300 Y91.4400
G01 Z-1.8000
G01 Z0
G00 Z1.0000
G00 X11.4300 Y71.1200
G01 Z-1.8000
G01 Z0
G00 Z1.0000
G00 X17.7800 Y68.5800
G01 Z-1.8000
G01 Z0
G00 Z1.0000
G00 X34.2900 Y71.1200
G01 Z-1.8000
G01 Z0
G00 Z1.0000
G00 X40.6400 Y68.5800
G01 Z-1.8000
G01 Z0
G00 Z1.0000
G00 X40.6400 Y48.2600
G01 Z-1.8000
G01 Z0
G00 Z1.0000
G00 X34.2900 Y50.8000
G01 Z-1.8000
G01 Z0
G00 Z1.0000
G00 X17.7800 Y48.2600
G01 Z-1.8000
G01 Z0
G00 Z1.0000
G00 X11.4300 Y50.8000
G01 Z-1.8000
G01 Z0
G00 Z1.0000
G00 X11.4300 Y30.4800
G01 Z-1.8000
G01 Z0
G00 Z1.0000
G00 X17.7800 Y27.9400
G01 Z-1.8000
G01 Z0
G00 Z1.0000
G00 X11.4300 Y10.1600
G01 Z-1.8000
G01 Z0
G00 Z1.0000
G00 X17.7800 Y7.6200
G01 Z-1.8000
G01 Z0
G00 Z1.0000
G00 X34.2900 Y30.4800
G01 Z-1.8000
G01 Z0
G00 Z1.0000
G00 X40.6400 Y27.9400
G01 Z-1.8000
G01 Z0
G00 Z1.0000
G00 X59.6900 Y50.8000
G01 Z-1.8000
G01 Z0
G00 Z1.0000
G00 X66.0400 Y48.2600
G01 Z-1.8000
G01 Z0
G00 Z1.0000
G00 X85.0900 Y50.8000
G01 Z-1.8000
G01 Z0
G00 Z1.0000
G00 X91.4400 Y48.2600
G01 Z-1.8000
G01 Z0
G00 Z1.0000
G00 X85.0900 Y30.4800
G01 Z-1.8000
G01 Z0
G00 Z1.0000
G00 X91.4400 Y27.9400
G01 Z-1.8000
G01 Z0
G00 Z1.0000
G00 X109.2200 Y10.1600
G01 Z-1.8000
G01 Z0
G00 Z1.0000
G00 X115.5700 Y7.6200
G01 Z-1.8000
G01 Z0
G00 Z1.0000
G00 X115.5700 Y27.9400
G01 Z-1.8000
G01 Z0
G00 Z1.0000
G00 X109.2200 Y30.4800
G01 Z-1.8000
G01 Z0
G00 Z1.0000
G00 X115.5700 Y48.2600
G01 Z-1.8000
G01 Z0
G00 Z1.0000
G00 X109.2200 Y50.8000
G01 Z-1.8000
G01 Z0
G00 Z1.0000
G00 X115.5700 Y68.5800
G01 Z-1.8000
G01 Z0
G00 Z1.0000
G00 X109.2200 Y71.1200
G01 Z-1.8000
G01 Z0
G00 Z1.0000
G00 X115.5700 Y88.9000
G01 Z-1.8000
G01 Z0
G00 Z1.0000
G00 X109.2200 Y91.4400
G01 Z-1.8000
G01 Z0
G00 Z1.0000
G00 X91.4400 Y88.9000
G01 Z-1.8000
G01 Z0
G00 Z1.0000
G00 X85.0900 Y91.4400
G01 Z-1.8000
G01 Z0
G00 Z1.0000
G00 X91.4400 Y68.5800
G01 Z-1.8000
G01 Z0
G00 Z1.0000
G00 X85.0900 Y71.1200
G01 Z-1.8000
G01 Z0
G00 Z1.0000
G00 X66.0400 Y68.5800
G01 Z-1.8000
G01 Z0
G00 Z1.0000
G00 X59.6900 Y71.1200
G01 Z-1.8000
G01 Z0
G00 Z1.0000
M03 S1000.0
G00 X38.1000 Y73.6600
G01 Z-1.8000
G01 Z0
G00 Z1.0000
G00 X38.1000 Y93.9800
G01 Z-1.8000
G01 Z0
G00 Z1.0000
G00 X15.2400 Y93.9800
G01 Z-1.8000
G01 Z0
G00 Z1.0000
G00 X15.2400 Y73.6600
G01 Z-1.8000
G01 Z0
G00 Z1.0000
G00 X15.2400 Y53.3400
G01 Z-1.8000
G01 Z0
G00 Z1.0000
G00 X15.2400 Y33.0200
G01 Z-1.8000
G01 Z0
G00 Z1.0000
G00 X15.2400 Y12.7000
G01 Z-1.8000
G01 Z0
G00 Z1.0000
G00 X38.1000 Y33.0200
G01 Z-1.8000
G01 Z0
G00 Z1.0000
G00 X38.1000 Y53.3400
G01 Z-1.8000
G01 Z0
G00 Z1.0000
G00 X63.5000 Y53.3400
G01 Z-1.8000
G01 Z0
G00 Z1.0000
G00 X88.9000 Y53.3400
G01 Z-1.8000
G01 Z0
G00 Z1.0000
G00 X88.9000 Y33.0200
G01 Z-1.8000
G01 Z0
G00 Z1.0000
G00 X113.0300 Y12.7000
G01 Z-1.8000
G01 Z0
G00 Z1.0000
G00 X113.0300 Y33.0200
G01 Z-1.8000
G01 Z0
G00 Z1.0000
G00 X113.0300 Y53.3400
G01 Z-1.8000
G01 Z0
G00 Z1.0000
G00 X113.0300 Y73.6600
G01 Z-1.8000
G01 Z0
G00 Z1.0000
G00 X113.0300 Y93.9800
G01 Z-1.8000
G01 Z0
G00 Z1.0000
G00 X88.9000 Y93.9800
G01 Z-1.8000
G01 Z0
G00 Z1.0000
G00 X88.9000 Y73.6600
G01 Z-1.8000
G01 Z0
G00 Z1.0000
G00 X63.5000 Y73.6600
G01 Z-1.8000
G01 Z0
G00 Z1.0000
G00 X63.5000 Y93.9800
G01 Z-1.8000
G01 Z0
G00 Z1.0000
M05
G00 Z15.00
G00 X0.0 Y0.0

