(G-CODE GENERATED BY FLATCAM v8.909 - www.flatcam.org - Version Date: 2019/02/16)

(Name: copper_bottom.gbr_iso_1_cnc)
(Type: G-code from Geometry)
(Units: MM)

(Created on Tuesday, 05 March 2019 at 19:05)

(TOOL DIAMETER: 0.2 mm)
(Feedrate: 90.0 mm/min)
(Feedrate_Z: 30.0 mm/min)
(Feedrate rapids 90.0 mm/min)

(Z_Cut: -0.08 mm)
(Z_Move: 2.0 mm)
(Z Toolchange: 2.0 mm)
(X,Y Toolchange: 0.0000, 0.0000 mm)
(Z Start: None mm)
(Z End: 2.0 mm)
(Steps per circle: 64)
(Postprocessor Geometry: default)

(X range:    0.1309 ...   65.9091  mm)
(Y range:    1.2227 ...   36.5721  mm)

(Spindle Speed: 800 RPM)

G21
G90
G94

G01 F90.00
G00 Z2.0000

M03 S800
G00 X6.0445 Y3.8127
G01 F30.00
G01 Z-0.0800
G01 F90.00
G01 X5.9175 Y3.8199
G01 X5.8011 Y3.8394
G01 X5.7820 Y3.8437
G01 X5.6779 Y3.8737
G01 X5.6594 Y3.8802
G01 X5.5504 Y3.9256
G01 X5.4385 Y3.9875
G01 X5.3342 Y4.0615
G01 X5.2460 Y4.1399
G01 X5.2321 Y4.1538
G01 X5.1600 Y4.2345
G01 X5.1478 Y4.2499
G01 X5.0797 Y4.3463
G01 X5.0178 Y4.4582
G01 X4.9724 Y4.5672
G01 X4.9659 Y4.5857
G01 X4.9335 Y4.6993
G01 X4.9121 Y4.8253
G01 X4.9052 Y4.9432
G01 X4.9052 Y4.9628
G01 X4.9121 Y5.0807
G01 X4.9335 Y5.2067
G01 X4.9689 Y5.3296
G01 X5.0138 Y5.4388
G01 X5.0223 Y5.4565
G01 X5.0747 Y5.5512
G01 X5.0851 Y5.5678
G01 X5.1537 Y5.6640
G01 X5.2389 Y5.7593
G01 X5.3342 Y5.8445
G01 X5.4304 Y5.9131
G01 X5.4470 Y5.9235
G01 X5.5417 Y5.9759
G01 X5.5594 Y5.9844
G01 X5.6686 Y6.0293
G01 X5.7915 Y6.0647
G01 X5.9175 Y6.0861
G01 X6.0445 Y6.0933
G01 X7.9255 Y6.0933
G01 X8.0427 Y6.0870
G01 X8.0622 Y6.0848
G01 X8.1785 Y6.0647
G01 X8.2921 Y6.0323
G01 X8.3106 Y6.0258
G01 X8.4106 Y5.9844
G01 X8.4283 Y5.9759
G01 X8.5315 Y5.9185
G01 X8.6279 Y5.8504
G01 X8.6433 Y5.8382
G01 X8.7311 Y5.7593
G01 X8.8163 Y5.6640
G01 X8.8903 Y5.5597
G01 X8.9477 Y5.4565
G01 X8.9562 Y5.4388
G01 X8.9693 Y5.4071
G01 X9.7510 Y5.4071
G01 X9.7640 Y5.4386
G01 X9.7725 Y5.4563
G01 X9.8299 Y5.5594
G01 X9.8979 Y5.6558
G01 X9.9102 Y5.6712
G01 X9.9890 Y5.7590
G01 X10.0768 Y5.8378
G01 X10.0922 Y5.8501
G01 X10.1804 Y5.9127
G01 X10.1970 Y5.9231
G01 X10.3004 Y5.9800
G01 X10.4094 Y6.0254
G01 X10.4279 Y6.0319
G01 X10.5414 Y6.0643
G01 X10.6674 Y6.0857
G01 X10.7852 Y6.0926
G01 X10.8048 Y6.0926
G01 X10.9226 Y6.0857
G01 X11.0486 Y6.0643
G01 X11.1621 Y6.0319
G01 X11.1806 Y6.0254
G01 X11.2896 Y5.9800
G01 X11.3930 Y5.9231
G01 X11.4096 Y5.9127
G01 X11.5057 Y5.8442
G01 X11.5939 Y5.7657
G01 X11.6077 Y5.7519
G01 X11.6862 Y5.6637
G01 X11.7547 Y5.5676
G01 X11.7651 Y5.5510
G01 X11.8220 Y5.4476
G01 X11.8674 Y5.3386
G01 X11.8739 Y5.3201
G01 X11.9063 Y5.2066
G01 X11.9277 Y5.0806
G01 X11.9348 Y4.9530
G01 X11.9277 Y4.8254
G01 X11.9082 Y4.7090
G01 X11.9038 Y4.6899
G01 X11.8739 Y4.5859
G01 X11.8674 Y4.5674
G01 X11.8220 Y4.4584
G01 X11.7601 Y4.3466
G01 X11.6862 Y4.2423
G01 X11.6077 Y4.1541
G01 X11.5939 Y4.1403
G01 X11.5132 Y4.0682
G01 X11.4978 Y4.0559
G01 X11.4014 Y3.9879
G01 X11.2896 Y3.9260
G01 X11.1715 Y3.8771
G01 X11.0486 Y3.8417
G01 X10.9226 Y3.8203
G01 X10.8048 Y3.8134
G01 X10.7852 Y3.8134
G01 X10.6674 Y3.8203
G01 X10.5414 Y3.8417
G01 X10.4279 Y3.8741
G01 X10.4094 Y3.8806
G01 X10.3004 Y3.9260
G01 X10.1886 Y3.9879
G01 X10.0922 Y4.0559
G01 X10.0768 Y4.0682
G01 X9.9890 Y4.1470
G01 X9.9038 Y4.2423
G01 X9.8353 Y4.3384
G01 X9.8249 Y4.3550
G01 X9.7725 Y4.4497
G01 X9.7640 Y4.4674
G01 X9.7510 Y4.4989
G01 X8.9693 Y4.4989
G01 X8.9562 Y4.4672
G01 X8.9477 Y4.4495
G01 X8.8903 Y4.3463
G01 X8.8163 Y4.2420
G01 X8.7311 Y4.1467
G01 X8.6358 Y4.0615
G01 X8.5315 Y3.9875
G01 X8.4196 Y3.9256
G01 X8.3014 Y3.8767
G01 X8.1785 Y3.8413
G01 X8.0525 Y3.8199
G01 X7.9255 Y3.8127
G01 X6.0445 Y3.8127
G00 Z2.0000
G00 X7.9255 Y3.5533
G01 F30.00
G01 Z-0.0800
G01 F90.00
G01 X8.0427 Y3.5470
G01 X8.0622 Y3.5448
G01 X8.1785 Y3.5247
G01 X8.2921 Y3.4923
G01 X8.3106 Y3.4858
G01 X8.4196 Y3.4404
G01 X8.5315 Y3.3785
G01 X8.6279 Y3.3104
G01 X8.6433 Y3.2982
G01 X8.7311 Y3.2193
G01 X8.8100 Y3.1315
G01 X8.8222 Y3.1161
G01 X8.8903 Y3.0197
G01 X8.9477 Y2.9165
G01 X8.9562 Y2.8988
G01 X8.9693 Y2.8671
G01 X9.7510 Y2.8671
G01 X9.7640 Y2.8986
G01 X9.7725 Y2.9163
G01 X9.8249 Y3.0110
G01 X9.8353 Y3.0276
G01 X9.9038 Y3.1237
G01 X9.9890 Y3.2190
G01 X10.0843 Y3.3042
G01 X10.1804 Y3.3727
G01 X10.1970 Y3.3831
G01 X10.2917 Y3.4355
G01 X10.3094 Y3.4440
G01 X10.4185 Y3.4889
G01 X10.5414 Y3.5243
G01 X10.6674 Y3.5457
G01 X10.7852 Y3.5526
G01 X10.8048 Y3.5526
G01 X10.9226 Y3.5457
G01 X11.0390 Y3.5262
G01 X11.0581 Y3.5218
G01 X11.1621 Y3.4919
G01 X11.1806 Y3.4854
G01 X11.2896 Y3.4400
G01 X11.4014 Y3.3781
G01 X11.5057 Y3.3042
G01 X11.5939 Y3.2257
G01 X11.6077 Y3.2119
G01 X11.6798 Y3.1312
G01 X11.6921 Y3.1158
G01 X11.7601 Y3.0194
G01 X11.8220 Y2.9076
G01 X11.8709 Y2.7895
G01 X11.9063 Y2.6666
G01 X11.9277 Y2.5406
G01 X11.9346 Y2.4228
G01 X11.9346 Y2.4032
G01 X11.9277 Y2.2854
G01 X11.9082 Y2.1690
G01 X11.9038 Y2.1499
G01 X11.8739 Y2.0459
G01 X11.8674 Y2.0274
G01 X11.8220 Y1.9184
G01 X11.7651 Y1.8150
G01 X11.7547 Y1.7984
G01 X11.6862 Y1.7023
G01 X11.6077 Y1.6141
G01 X11.5939 Y1.6003
G01 X11.5057 Y1.5218
G01 X11.4096 Y1.4533
G01 X11.3930 Y1.4429
G01 X11.2896 Y1.3860
G01 X11.1806 Y1.3406
G01 X11.1621 Y1.3341
G01 X11.0486 Y1.3017
G01 X10.9323 Y1.2817
G01 X10.9128 Y1.2795
G01 X10.8048 Y1.2734
G01 X10.7852 Y1.2734
G01 X10.6674 Y1.2803
G01 X10.5510 Y1.2998
G01 X10.5319 Y1.3042
G01 X10.4185 Y1.3371
G01 X10.3094 Y1.3820
G01 X10.2917 Y1.3905
G01 X10.1886 Y1.4479
G01 X10.0922 Y1.5159
G01 X10.0768 Y1.5282
G01 X9.9890 Y1.6070
G01 X9.9102 Y1.6948
G01 X9.8979 Y1.7102
G01 X9.8299 Y1.8066
G01 X9.7725 Y1.9097
G01 X9.7640 Y1.9274
G01 X9.7510 Y1.9589
G01 X8.9693 Y1.9589
G01 X8.9562 Y1.9272
G01 X8.9477 Y1.9095
G01 X8.8903 Y1.8063
G01 X8.8222 Y1.7099
G01 X8.8100 Y1.6945
G01 X8.7311 Y1.6067
G01 X8.6433 Y1.5278
G01 X8.6279 Y1.5156
G01 X8.5315 Y1.4475
G01 X8.4196 Y1.3856
G01 X8.3106 Y1.3402
G01 X8.2921 Y1.3337
G01 X8.1785 Y1.3013
G01 X8.0622 Y1.2812
G01 X8.0427 Y1.2790
G01 X7.9304 Y1.2728
G01 X6.0445 Y1.2727
G01 X5.9175 Y1.2799
G01 X5.8011 Y1.2994
G01 X5.7820 Y1.3037
G01 X5.6779 Y1.3337
G01 X5.6594 Y1.3402
G01 X5.5504 Y1.3856
G01 X5.4470 Y1.4425
G01 X5.4304 Y1.4529
G01 X5.3342 Y1.5215
G01 X5.2389 Y1.6067
G01 X5.1537 Y1.7020
G01 X5.0797 Y1.8063
G01 X5.0178 Y1.9182
G01 X4.9689 Y2.0364
G01 X4.9335 Y2.1593
G01 X4.9134 Y2.2756
G01 X4.9112 Y2.2951
G01 X4.9052 Y2.4032
G01 X4.9052 Y2.4228
G01 X4.9121 Y2.5407
G01 X4.9335 Y2.6667
G01 X4.9689 Y2.7896
G01 X5.0178 Y2.9078
G01 X5.0797 Y3.0197
G01 X5.1478 Y3.1161
G01 X5.1600 Y3.1315
G01 X5.2321 Y3.2122
G01 X5.2460 Y3.2261
G01 X5.3342 Y3.3045
G01 X5.4385 Y3.3785
G01 X5.5504 Y3.4404
G01 X5.6686 Y3.4893
G01 X5.7915 Y3.5247
G01 X5.9078 Y3.5448
G01 X5.9273 Y3.5470
G01 X6.0445 Y3.5533
G01 X7.9255 Y3.5533
G00 Z2.0000
G00 X8.1441 Y3.6830
G01 F30.00
G01 Z-0.0800
G01 F90.00
G01 X8.2119 Y3.6710
G01 X8.3336 Y3.6364
G01 X8.3510 Y3.6309
G01 X8.3680 Y3.6244
G01 X8.4680 Y3.5830
G01 X8.4846 Y3.5755
G01 X8.5008 Y3.5672
G01 X8.6113 Y3.5055
G01 X8.7147 Y3.4328
G01 X8.7293 Y3.4218
G01 X8.7432 Y3.4100
G01 X8.8372 Y3.3254
G01 X8.9218 Y3.2314
G01 X8.9336 Y3.2175
G01 X8.9446 Y3.2029
G01 X9.0173 Y3.0995
G01 X9.0634 Y3.0171
G01 X9.6569 Y3.0171
G01 X9.7029 Y3.0992
G01 X9.7756 Y3.2026
G01 X9.7866 Y3.2172
G01 X9.7983 Y3.2311
G01 X9.8829 Y3.3251
G01 X9.9769 Y3.4097
G01 X9.9908 Y3.4214
G01 X10.0054 Y3.4324
G01 X10.1088 Y3.5051
G01 X10.2192 Y3.5667
G01 X10.2354 Y3.5751
G01 X10.2520 Y3.5826
G01 X10.3520 Y3.6240
G01 X10.3690 Y3.6305
G01 X10.3864 Y3.6360
G01 X10.5080 Y3.6705
G01 X10.5785 Y3.6830
G01 X10.5080 Y3.6955
G01 X10.3864 Y3.7300
G01 X10.3690 Y3.7355
G01 X10.3520 Y3.7420
G01 X10.2520 Y3.7834
G01 X10.2354 Y3.7909
G01 X10.2192 Y3.7993
G01 X10.1088 Y3.8609
G01 X10.0054 Y3.9336
G01 X9.9908 Y3.9446
G01 X9.9769 Y3.9563
G01 X9.8829 Y4.0409
G01 X9.7983 Y4.1349
G01 X9.7866 Y4.1488
G01 X9.7130 Y4.2516
G01 X9.7029 Y4.2668
G01 X9.6569 Y4.3489
G01 X9.0634 Y4.3489
G01 X9.0173 Y4.2665
G01 X9.0072 Y4.2514
G01 X8.9336 Y4.1485
G01 X8.9218 Y4.1346
G01 X8.8372 Y4.0406
G01 X8.7432 Y3.9560
G01 X8.7293 Y3.9442
G01 X8.7147 Y3.9332
G01 X8.6113 Y3.8605
G01 X8.5008 Y3.7988
G01 X8.4846 Y3.7905
G01 X8.4680 Y3.7830
G01 X8.3680 Y3.7416
G01 X8.3510 Y3.7351
G01 X8.3336 Y3.7296
G01 X8.2119 Y3.6950
G01 X8.1441 Y3.6830
G00 Z2.0000
G00 X8.1441 Y6.2230
G01 F30.00
G01 Z-0.0800
G01 F90.00
G01 X8.2119 Y6.2110
G01 X8.3336 Y6.1764
G01 X8.3510 Y6.1709
G01 X8.3680 Y6.1644
G01 X8.4680 Y6.1230
G01 X8.4846 Y6.1155
G01 X8.5008 Y6.1072
G01 X8.6113 Y6.0455
G01 X8.7147 Y5.9728
G01 X8.7293 Y5.9618
G01 X8.7432 Y5.9500
G01 X8.8372 Y5.8654
G01 X8.9218 Y5.7714
G01 X8.9336 Y5.7575
G01 X9.0072 Y5.6546
G01 X9.0173 Y5.6395
G01 X9.0634 Y5.5571
G01 X9.6569 Y5.5571
G01 X9.7029 Y5.6392
G01 X9.7130 Y5.6544
G01 X9.7866 Y5.7572
G01 X9.7983 Y5.7711
G01 X9.8829 Y5.8651
G01 X9.9769 Y5.9497
G01 X9.9908 Y5.9614
G01 X10.0054 Y5.9724
G01 X10.1088 Y6.0451
G01 X10.2192 Y6.1067
G01 X10.2354 Y6.1151
G01 X10.2520 Y6.1226
G01 X10.3520 Y6.1640
G01 X10.3690 Y6.1705
G01 X10.3864 Y6.1760
G01 X10.5080 Y6.2105
G01 X10.5785 Y6.2230
G01 X10.5080 Y6.2355
G01 X10.3864 Y6.2700
G01 X10.3690 Y6.2755
G01 X10.3520 Y6.2820
G01 X10.2520 Y6.3234
G01 X10.2354 Y6.3309
G01 X10.2192 Y6.3393
G01 X10.1088 Y6.4009
G01 X10.0054 Y6.4736
G01 X9.9908 Y6.4846
G01 X9.9769 Y6.4963
G01 X9.8829 Y6.5809
G01 X9.7983 Y6.6749
G01 X9.7866 Y6.6888
G01 X9.7130 Y6.7916
G01 X9.7029 Y6.8068
G01 X9.6569 Y6.8889
G01 X9.0634 Y6.8889
G01 X9.0173 Y6.8065
G01 X9.0072 Y6.7914
G01 X8.9336 Y6.6885
G01 X8.9218 Y6.6746
G01 X8.8372 Y6.5806
G01 X8.7432 Y6.4960
G01 X8.7293 Y6.4842
G01 X8.7147 Y6.4732
G01 X8.6113 Y6.4005
G01 X8.5008 Y6.3388
G01 X8.4846 Y6.3305
G01 X8.4680 Y6.3230
G01 X8.3680 Y6.2816
G01 X8.3510 Y6.2751
G01 X8.3336 Y6.2696
G01 X8.2119 Y6.2350
G01 X8.1441 Y6.2230
G00 Z2.0000
G00 X8.1441 Y8.7630
G01 F30.00
G01 Z-0.0800
G01 F90.00
G01 X8.2119 Y8.7510
G01 X8.3336 Y8.7164
G01 X8.3510 Y8.7109
G01 X8.3680 Y8.7044
G01 X8.4680 Y8.6630
G01 X8.4846 Y8.6555
G01 X8.5008 Y8.6472
G01 X8.6113 Y8.5855
G01 X8.7147 Y8.5128
G01 X8.7293 Y8.5018
G01 X8.7432 Y8.4900
G01 X8.8372 Y8.4054
G01 X8.8497 Y8.3921
G01 X8.9336 Y8.2975
G01 X9.0072 Y8.1946
G01 X9.0173 Y8.1795
G01 X9.0634 Y8.0971
G01 X9.6569 Y8.0971
G01 X9.7029 Y8.1792
G01 X9.7130 Y8.1944
G01 X9.7866 Y8.2972
G01 X9.8704 Y8.3918
G01 X9.8829 Y8.4051
G01 X9.9769 Y8.4897
G01 X9.9908 Y8.5014
G01 X10.0054 Y8.5124
G01 X10.1088 Y8.5851
G01 X10.2192 Y8.6467
G01 X10.2354 Y8.6551
G01 X10.2520 Y8.6626
G01 X10.3520 Y8.7040
G01 X10.3690 Y8.7105
G01 X10.3864 Y8.7160
G01 X10.5080 Y8.7505
G01 X10.5785 Y8.7630
G01 X10.5080 Y8.7755
G01 X10.3864 Y8.8100
G01 X10.3690 Y8.8155
G01 X10.3520 Y8.8220
G01 X10.2520 Y8.8634
G01 X10.2354 Y8.8709
G01 X10.2192 Y8.8793
G01 X10.1088 Y8.9409
G01 X10.0054 Y9.0136
G01 X9.9908 Y9.0246
G01 X9.9769 Y9.0363
G01 X9.8829 Y9.1209
G01 X9.8704 Y9.1342
G01 X9.7866 Y9.2288
G01 X9.7756 Y9.2434
G01 X9.7029 Y9.3468
G01 X9.6569 Y9.4289
G01 X9.0634 Y9.4289
G01 X9.0173 Y9.3465
G01 X8.9446 Y9.2431
G01 X8.9336 Y9.2285
G01 X8.8497 Y9.1339
G01 X8.8372 Y9.1206
G01 X8.7432 Y9.0360
G01 X8.7293 Y9.0242
G01 X8.7147 Y9.0132
G01 X8.6113 Y8.9405
G01 X8.5008 Y8.8788
G01 X8.4846 Y8.8705
G01 X8.4680 Y8.8630
G01 X8.3680 Y8.8216
G01 X8.3510 Y8.8151
G01 X8.3336 Y8.8096
G01 X8.2119 Y8.7750
G01 X8.1441 Y8.7630
G00 Z2.0000
G00 X6.0445 Y8.8927
G01 F30.00
G01 Z-0.0800
G01 F90.00
G01 X5.9175 Y8.8999
G01 X5.8011 Y8.9194
G01 X5.7820 Y8.9237
G01 X5.6779 Y8.9537
G01 X5.6594 Y8.9602
G01 X5.5504 Y9.0056
G01 X5.4385 Y9.0675
G01 X5.3342 Y9.1415
G01 X5.2460 Y9.2199
G01 X5.2321 Y9.2338
G01 X5.1600 Y9.3145
G01 X5.1478 Y9.3299
G01 X5.0797 Y9.4263
G01 X5.0178 Y9.5382
G01 X4.9724 Y9.6472
G01 X4.9659 Y9.6657
G01 X4.9335 Y9.7793
G01 X4.9121 Y9.9053
G01 X4.9049 Y10.0330
G01 X4.9112 Y10.1509
G01 X4.9134 Y10.1704
G01 X4.9316 Y10.2771
G01 X4.9359 Y10.2962
G01 X4.9689 Y10.4096
G01 X5.0178 Y10.5278
G01 X5.0797 Y10.6397
G01 X5.1478 Y10.7361
G01 X5.1600 Y10.7515
G01 X5.2321 Y10.8322
G01 X5.2460 Y10.8461
G01 X5.3342 Y10.9245
G01 X5.4385 Y10.9985
G01 X5.5504 Y11.0604
G01 X5.6594 Y11.1058
G01 X5.6779 Y11.1123
G01 X5.7915 Y11.1447
G01 X5.9175 Y11.1661
G01 X6.0445 Y11.1733
G01 X7.9255 Y11.1733
G01 X8.0427 Y11.1670
G01 X8.0622 Y11.1648
G01 X8.1689 Y11.1466
G01 X8.1880 Y11.1423
G01 X8.3014 Y11.1093
G01 X8.4106 Y11.0644
G01 X8.4283 Y11.0559
G01 X8.5315 Y10.9985
G01 X8.6279 Y10.9304
G01 X8.6433 Y10.9182
G01 X8.7311 Y10.8393
G01 X8.8163 Y10.7440
G01 X8.8903 Y10.6397
G01 X8.9477 Y10.5365
G01 X8.9562 Y10.5188
G01 X8.9693 Y10.4871
G01 X9.7510 Y10.4871
G01 X9.7640 Y10.5186
G01 X9.7725 Y10.5363
G01 X9.8299 Y10.6394
G01 X9.8979 Y10.7358
G01 X9.9102 Y10.7512
G01 X9.9890 Y10.8390
G01 X10.0768 Y10.9178
G01 X10.0922 Y10.9301
G01 X10.1804 Y10.9927
G01 X10.1970 Y11.0031
G01 X10.3004 Y11.0600
G01 X10.4094 Y11.1054
G01 X10.4279 Y11.1119
G01 X10.5414 Y11.1443
G01 X10.6577 Y11.1643
G01 X10.6772 Y11.1665
G01 X10.7950 Y11.1728
G01 X10.9226 Y11.1657
G01 X11.0390 Y11.1462
G01 X11.0581 Y11.1418
G01 X11.1715 Y11.1089
G01 X11.2806 Y11.0640
G01 X11.2983 Y11.0555
G01 X11.4014 Y10.9981
G01 X11.4978 Y10.9301
G01 X11.5132 Y10.9178
G01 X11.6010 Y10.8390
G01 X11.6798 Y10.7512
G01 X11.6921 Y10.7358
G01 X11.7601 Y10.6394
G01 X11.8220 Y10.5276
G01 X11.8674 Y10.4186
G01 X11.8739 Y10.4001
G01 X11.9063 Y10.2866
G01 X11.9277 Y10.1606
G01 X11.9346 Y10.0428
G01 X11.9346 Y10.0232
G01 X11.9285 Y9.9152
G01 X11.9263 Y9.8957
G01 X11.9063 Y9.7794
G01 X11.8709 Y9.6565
G01 X11.8220 Y9.5384
G01 X11.7601 Y9.4266
G01 X11.6862 Y9.3223
G01 X11.6077 Y9.2341
G01 X11.5939 Y9.2203
G01 X11.5132 Y9.1482
G01 X11.4978 Y9.1359
G01 X11.4014 Y9.0679
G01 X11.2896 Y9.0060
G01 X11.1715 Y8.9571
G01 X11.0486 Y8.9217
G01 X10.9323 Y8.9017
G01 X10.9128 Y8.8995
G01 X10.7950 Y8.8932
G01 X10.6674 Y8.9003
G01 X10.5510 Y8.9198
G01 X10.5319 Y8.9242
G01 X10.4185 Y8.9571
G01 X10.3004 Y9.0060
G01 X10.1970 Y9.0629
G01 X10.1804 Y9.0733
G01 X10.0843 Y9.1418
G01 X9.9890 Y9.2270
G01 X9.9038 Y9.3223
G01 X9.8353 Y9.4184
G01 X9.8249 Y9.4350
G01 X9.7725 Y9.5297
G01 X9.7640 Y9.5474
G01 X9.7510 Y9.5789
G01 X8.9693 Y9.5789
G01 X8.9562 Y9.5472
G01 X8.9477 Y9.5295
G01 X8.8903 Y9.4263
G01 X8.8163 Y9.3220
G01 X8.7311 Y9.2267
G01 X8.6358 Y9.1415
G01 X8.5315 Y9.0675
G01 X8.4196 Y9.0056
G01 X8.3014 Y8.9567
G01 X8.1785 Y8.9213
G01 X8.0525 Y8.8999
G01 X7.9255 Y8.8927
G01 X6.0445 Y8.8927
G00 Z2.0000
G00 X8.1441 Y11.3030
G01 F30.00
G01 Z-0.0800
G01 F90.00
G01 X8.2119 Y11.2910
G01 X8.3336 Y11.2564
G01 X8.3510 Y11.2509
G01 X8.3680 Y11.2444
G01 X8.4680 Y11.2030
G01 X8.4846 Y11.1955
G01 X8.5008 Y11.1872
G01 X8.6113 Y11.1255
G01 X8.7147 Y11.0528
G01 X8.7293 Y11.0418
G01 X8.7432 Y11.0300
G01 X8.8372 Y10.9454
G01 X8.8497 Y10.9321
G01 X8.9336 Y10.8375
G01 X8.9446 Y10.8229
G01 X9.0173 Y10.7195
G01 X9.0634 Y10.6371
G01 X9.6569 Y10.6371
G01 X9.7029 Y10.7192
G01 X9.7756 Y10.8226
G01 X9.7866 Y10.8372
G01 X9.8704 Y10.9318
G01 X9.8829 Y10.9451
G01 X9.9769 Y11.0297
G01 X9.9908 Y11.0414
G01 X10.0054 Y11.0524
G01 X10.1088 Y11.1251
G01 X10.2192 Y11.1867
G01 X10.2354 Y11.1951
G01 X10.2520 Y11.2026
G01 X10.3520 Y11.2440
G01 X10.3690 Y11.2505
G01 X10.3864 Y11.2560
G01 X10.5080 Y11.2905
G01 X10.5785 Y11.3030
G01 X10.5080 Y11.3155
G01 X10.3864 Y11.3500
G01 X10.3690 Y11.3555
G01 X10.3520 Y11.3620
G01 X10.2520 Y11.4034
G01 X10.2354 Y11.4109
G01 X10.2192 Y11.4193
G01 X10.1088 Y11.4809
G01 X10.0054 Y11.5536
G01 X9.9908 Y11.5646
G01 X9.9769 Y11.5763
G01 X9.8829 Y11.6609
G01 X9.8704 Y11.6742
G01 X9.7866 Y11.7688
G01 X9.7756 Y11.7834
G01 X9.7029 Y11.8868
G01 X9.6569 Y11.9689
G01 X9.0634 Y11.9689
G01 X9.0173 Y11.8865
G01 X8.9446 Y11.7831
G01 X8.9336 Y11.7685
G01 X8.8497 Y11.6739
G01 X8.8372 Y11.6606
G01 X8.7432 Y11.5760
G01 X8.7293 Y11.5642
G01 X8.7147 Y11.5532
G01 X8.6113 Y11.4805
G01 X8.5008 Y11.4188
G01 X8.4846 Y11.4105
G01 X8.4680 Y11.4030
G01 X8.3680 Y11.3616
G01 X8.3510 Y11.3551
G01 X8.3336 Y11.3496
G01 X8.2119 Y11.3150
G01 X8.1441 Y11.3030
G00 Z2.0000
G00 X7.9255 Y13.7133
G01 F30.00
G01 Z-0.0800
G01 F90.00
G01 X8.0427 Y13.7070
G01 X8.0622 Y13.7048
G01 X8.1785 Y13.6847
G01 X8.2921 Y13.6523
G01 X8.3106 Y13.6458
G01 X8.4196 Y13.6004
G01 X8.5315 Y13.5385
G01 X8.6279 Y13.4704
G01 X8.6433 Y13.4582
G01 X8.7311 Y13.3793
G01 X8.8100 Y13.2915
G01 X8.8222 Y13.2761
G01 X8.8903 Y13.1797
G01 X8.9477 Y13.0765
G01 X8.9562 Y13.0588
G01 X8.9693 Y13.0271
G01 X9.7510 Y13.0271
G01 X9.7640 Y13.0586
G01 X9.7725 Y13.0763
G01 X9.8249 Y13.1710
G01 X9.8353 Y13.1876
G01 X9.9038 Y13.2837
G01 X9.9890 Y13.3790
G01 X10.0843 Y13.4642
G01 X10.1804 Y13.5327
G01 X10.1970 Y13.5431
G01 X10.2917 Y13.5955
G01 X10.3094 Y13.6040
G01 X10.4185 Y13.6489
G01 X10.5414 Y13.6843
G01 X10.6674 Y13.7057
G01 X10.7852 Y13.7126
G01 X10.8048 Y13.7126
G01 X10.9226 Y13.7057
G01 X11.0390 Y13.6862
G01 X11.0581 Y13.6818
G01 X11.1621 Y13.6519
G01 X11.1806 Y13.6454
G01 X11.2896 Y13.6000
G01 X11.4014 Y13.5381
G01 X11.5057 Y13.4642
G01 X11.5939 Y13.3857
G01 X11.6077 Y13.3719
G01 X11.6798 Y13.2912
G01 X11.6921 Y13.2758
G01 X11.7601 Y13.1794
G01 X11.8220 Y13.0676
G01 X11.8709 Y12.9495
G01 X11.9063 Y12.8266
G01 X11.9277 Y12.7006
G01 X11.9346 Y12.5828
G01 X11.9346 Y12.5632
G01 X11.9277 Y12.4454
G01 X11.9082 Y12.3290
G01 X11.9038 Y12.3099
G01 X11.8739 Y12.2059
G01 X11.8674 Y12.1874
G01 X11.8220 Y12.0784
G01 X11.7651 Y11.9750
G01 X11.7547 Y11.9584
G01 X11.6862 Y11.8623
G01 X11.6077 Y11.7741
G01 X11.5939 Y11.7603
G01 X11.5057 Y11.6818
G01 X11.4096 Y11.6133
G01 X11.3930 Y11.6029
G01 X11.2896 Y11.5460
G01 X11.1806 Y11.5006
G01 X11.1621 Y11.4941
G01 X11.0581 Y11.4642
G01 X11.0390 Y11.4598
G01 X10.9226 Y11.4403
G01 X10.8048 Y11.4334
G01 X10.7852 Y11.4334
G01 X10.6674 Y11.4403
G01 X10.5510 Y11.4598
G01 X10.5319 Y11.4642
G01 X10.4185 Y11.4971
G01 X10.3094 Y11.5420
G01 X10.2917 Y11.5505
G01 X10.1886 Y11.6079
G01 X10.0922 Y11.6759
G01 X10.0768 Y11.6882
G01 X9.9890 Y11.7670
G01 X9.9102 Y11.8548
G01 X9.8979 Y11.8702
G01 X9.8299 Y11.9666
G01 X9.7725 Y12.0697
G01 X9.7640 Y12.0874
G01 X9.7510 Y12.1189
G01 X8.9693 Y12.1189
G01 X8.9562 Y12.0872
G01 X8.9477 Y12.0695
G01 X8.8903 Y11.9663
G01 X8.8222 Y11.8699
G01 X8.8100 Y11.8545
G01 X8.7311 Y11.7667
G01 X8.6433 Y11.6878
G01 X8.6279 Y11.6756
G01 X8.5315 Y11.6075
G01 X8.4196 Y11.5456
G01 X8.3106 Y11.5002
G01 X8.2921 Y11.4937
G01 X8.1785 Y11.4613
G01 X8.0622 Y11.4412
G01 X8.0427 Y11.4390
G01 X7.9304 Y11.4328
G01 X6.0445 Y11.4327
G01 X5.9175 Y11.4399
G01 X5.8011 Y11.4594
G01 X5.7820 Y11.4637
G01 X5.6779 Y11.4937
G01 X5.6594 Y11.5002
G01 X5.5504 Y11.5456
G01 X5.4470 Y11.6025
G01 X5.4304 Y11.6129
G01 X5.3342 Y11.6815
G01 X5.2389 Y11.7667
G01 X5.1537 Y11.8620
G01 X5.0797 Y11.9663
G01 X5.0178 Y12.0782
G01 X4.9689 Y12.1964
G01 X4.9335 Y12.3193
G01 X4.9134 Y12.4356
G01 X4.9112 Y12.4551
G01 X4.9052 Y12.5632
G01 X4.9052 Y12.5828
G01 X4.9121 Y12.7007
G01 X4.9335 Y12.8267
G01 X4.9689 Y12.9496
G01 X5.0178 Y13.0678
G01 X5.0797 Y13.1797
G01 X5.1478 Y13.2761
G01 X5.1600 Y13.2915
G01 X5.2321 Y13.3722
G01 X5.2460 Y13.3861
G01 X5.3342 Y13.4645
G01 X5.4385 Y13.5385
G01 X5.5504 Y13.6004
G01 X5.6686 Y13.6493
G01 X5.7915 Y13.6847
G01 X5.9078 Y13.7048
G01 X5.9273 Y13.7070
G01 X6.0445 Y13.7133
G01 X7.9255 Y13.7133
G00 Z2.0000
G00 X8.1441 Y13.8430
G01 F30.00
G01 Z-0.0800
G01 F90.00
G01 X8.2119 Y13.8310
G01 X8.3336 Y13.7964
G01 X8.3510 Y13.7909
G01 X8.3680 Y13.7844
G01 X8.4680 Y13.7430
G01 X8.4846 Y13.7355
G01 X8.5008 Y13.7272
G01 X8.6113 Y13.6655
G01 X8.7147 Y13.5928
G01 X8.7293 Y13.5818
G01 X8.7432 Y13.5700
G01 X8.8372 Y13.4854
G01 X8.8497 Y13.4721
G01 X8.9336 Y13.3775
G01 X8.9446 Y13.3629
G01 X9.0173 Y13.2595
G01 X9.0634 Y13.1771
G01 X9.6569 Y13.1771
G01 X9.7029 Y13.2592
G01 X9.7756 Y13.3626
G01 X9.7866 Y13.3772
G01 X9.8704 Y13.4718
G01 X9.8829 Y13.4851
G01 X9.9769 Y13.5697
G01 X9.9908 Y13.5814
G01 X10.0054 Y13.5924
G01 X10.1088 Y13.6651
G01 X10.2192 Y13.7267
G01 X10.2354 Y13.7351
G01 X10.2520 Y13.7426
G01 X10.3520 Y13.7840
G01 X10.3690 Y13.7905
G01 X10.3864 Y13.7960
G01 X10.5080 Y13.8305
G01 X10.5785 Y13.8430
G01 X10.5080 Y13.8555
G01 X10.3864 Y13.8900
G01 X10.3690 Y13.8955
G01 X10.3520 Y13.9020
G01 X10.2520 Y13.9434
G01 X10.2354 Y13.9509
G01 X10.2192 Y13.9593
G01 X10.1088 Y14.0209
G01 X10.0054 Y14.0936
G01 X9.9908 Y14.1046
G01 X9.9769 Y14.1163
G01 X9.8829 Y14.2009
G01 X9.8704 Y14.2142
G01 X9.7866 Y14.3088
G01 X9.7756 Y14.3234
G01 X9.7029 Y14.4268
G01 X9.6569 Y14.5089
G01 X9.0634 Y14.5089
G01 X9.0173 Y14.4265
G01 X8.9446 Y14.3231
G01 X8.9336 Y14.3085
G01 X8.8497 Y14.2139
G01 X8.8372 Y14.2006
G01 X8.7432 Y14.1160
G01 X8.7293 Y14.1042
G01 X8.7147 Y14.0932
G01 X8.6113 Y14.0205
G01 X8.5008 Y13.9588
G01 X8.4846 Y13.9505
G01 X8.4680 Y13.9430
G01 X8.3680 Y13.9016
G01 X8.3510 Y13.8951
G01 X8.3336 Y13.8896
G01 X8.2119 Y13.8550
G01 X8.1441 Y13.8430
G00 Z2.0000
G00 X6.0445 Y13.9727
G01 F30.00
G01 Z-0.0800
G01 F90.00
G01 X5.9175 Y13.9799
G01 X5.8011 Y13.9994
G01 X5.7820 Y14.0037
G01 X5.6779 Y14.0337
G01 X5.6594 Y14.0402
G01 X5.5504 Y14.0856
G01 X5.4385 Y14.1475
G01 X5.3342 Y14.2215
G01 X5.2460 Y14.2999
G01 X5.2321 Y14.3138
G01 X5.1600 Y14.3945
G01 X5.1478 Y14.4099
G01 X5.0797 Y14.5063
G01 X5.0178 Y14.6182
G01 X4.9724 Y14.7272
G01 X4.9659 Y14.7457
G01 X4.9335 Y14.8593
G01 X4.9121 Y14.9853
G01 X4.9052 Y15.1032
G01 X4.9052 Y15.1228
G01 X4.9121 Y15.2407
G01 X4.9335 Y15.3667
G01 X4.9689 Y15.4896
G01 X5.0138 Y15.5988
G01 X5.0223 Y15.6165
G01 X5.0747 Y15.7112
G01 X5.0851 Y15.7278
G01 X5.1537 Y15.8240
G01 X5.2389 Y15.9193
G01 X5.3342 Y16.0045
G01 X5.4304 Y16.0731
G01 X5.4470 Y16.0835
G01 X5.5417 Y16.1359
G01 X5.5594 Y16.1444
G01 X5.6686 Y16.1893
G01 X5.7915 Y16.2247
G01 X5.9175 Y16.2461
G01 X6.0445 Y16.2533
G01 X7.9255 Y16.2533
G01 X8.0427 Y16.2470
G01 X8.0622 Y16.2448
G01 X8.1689 Y16.2266
G01 X8.1880 Y16.2223
G01 X8.3014 Y16.1893
G01 X8.4106 Y16.1444
G01 X8.4283 Y16.1359
G01 X8.5315 Y16.0785
G01 X8.6279 Y16.0104
G01 X8.6433 Y15.9982
G01 X8.7311 Y15.9193
G01 X8.8163 Y15.8240
G01 X8.8903 Y15.7197
G01 X8.9477 Y15.6165
G01 X8.9562 Y15.5988
G01 X8.9693 Y15.5671
G01 X9.7510 Y15.5671
G01 X9.7640 Y15.5986
G01 X9.7725 Y15.6163
G01 X9.8299 Y15.7194
G01 X9.8979 Y15.8158
G01 X9.9102 Y15.8312
G01 X9.9890 Y15.9190
G01 X10.0768 Y15.9978
G01 X10.0922 Y16.0101
G01 X10.1804 Y16.0727
G01 X10.1970 Y16.0831
G01 X10.3004 Y16.1400
G01 X10.4094 Y16.1854
G01 X10.4279 Y16.1919
G01 X10.5414 Y16.2243
G01 X10.6577 Y16.2443
G01 X10.6772 Y16.2465
G01 X10.7950 Y16.2528
G01 X10.9226 Y16.2457
G01 X11.0390 Y16.2262
G01 X11.0581 Y16.2218
G01 X11.1715 Y16.1889
G01 X11.2806 Y16.1440
G01 X11.2983 Y16.1355
G01 X11.4014 Y16.0781
G01 X11.4978 Y16.0101
G01 X11.5132 Y15.9978
G01 X11.6010 Y15.9190
G01 X11.6798 Y15.8312
G01 X11.6921 Y15.8158
G01 X11.7601 Y15.7194
G01 X11.8220 Y15.6076
G01 X11.8674 Y15.4986
G01 X11.8739 Y15.4801
G01 X11.9063 Y15.3666
G01 X11.9277 Y15.2406
G01 X11.9346 Y15.1228
G01 X11.9346 Y15.1032
G01 X11.9285 Y14.9952
G01 X11.9263 Y14.9757
G01 X11.9063 Y14.8594
G01 X11.8709 Y14.7365
G01 X11.8220 Y14.6184
G01 X11.7601 Y14.5066
G01 X11.6862 Y14.4023
G01 X11.6077 Y14.3141
G01 X11.5939 Y14.3003
G01 X11.5132 Y14.2282
G01 X11.4978 Y14.2159
G01 X11.4014 Y14.1479
G01 X11.2896 Y14.0860
G01 X11.1715 Y14.0371
G01 X11.0486 Y14.0017
G01 X10.9323 Y13.9817
G01 X10.9128 Y13.9795
G01 X10.7950 Y13.9732
G01 X10.6674 Y13.9803
G01 X10.5510 Y13.9998
G01 X10.5319 Y14.0042
G01 X10.4185 Y14.0371
G01 X10.3004 Y14.0860
G01 X10.1970 Y14.1429
G01 X10.1804 Y14.1533
G01 X10.0843 Y14.2218
G01 X9.9890 Y14.3070
G01 X9.9038 Y14.4023
G01 X9.8353 Y14.4984
G01 X9.8249 Y14.5150
G01 X9.7725 Y14.6097
G01 X9.7640 Y14.6274
G01 X9.7510 Y14.6589
G01 X8.9693 Y14.6589
G01 X8.9562 Y14.6272
G01 X8.9477 Y14.6095
G01 X8.8903 Y14.5063
G01 X8.8163 Y14.4020
G01 X8.7311 Y14.3067
G01 X8.6358 Y14.2215
G01 X8.5315 Y14.1475
G01 X8.4196 Y14.0856
G01 X8.3014 Y14.0367
G01 X8.1785 Y14.0013
G01 X8.0525 Y13.9799
G01 X7.9255 Y13.9727
G01 X6.0445 Y13.9727
G00 Z2.0000
G00 X8.1441 Y16.3830
G01 F30.00
G01 Z-0.0800
G01 F90.00
G01 X8.2119 Y16.3710
G01 X8.3336 Y16.3364
G01 X8.3510 Y16.3309
G01 X8.3680 Y16.3244
G01 X8.4680 Y16.2830
G01 X8.4846 Y16.2755
G01 X8.5008 Y16.2672
G01 X8.6113 Y16.2055
G01 X8.7147 Y16.1328
G01 X8.7293 Y16.1218
G01 X8.7432 Y16.1100
G01 X8.8372 Y16.0254
G01 X8.8497 Y16.0121
G01 X8.9336 Y15.9175
G01 X8.9446 Y15.9029
G01 X9.0173 Y15.7995
G01 X9.0634 Y15.7171
G01 X9.6569 Y15.7171
G01 X9.7029 Y15.7992
G01 X9.7756 Y15.9026
G01 X9.7866 Y15.9172
G01 X9.8704 Y16.0118
G01 X9.8829 Y16.0251
G01 X9.9769 Y16.1097
G01 X9.9908 Y16.1214
G01 X10.0054 Y16.1324
G01 X10.1088 Y16.2051
G01 X10.2192 Y16.2667
G01 X10.2354 Y16.2751
G01 X10.2520 Y16.2826
G01 X10.3520 Y16.3240
G01 X10.3690 Y16.3305
G01 X10.3864 Y16.3360
G01 X10.5080 Y16.3705
G01 X10.5785 Y16.3830
G01 X10.5080 Y16.3955
G01 X10.3864 Y16.4300
G01 X10.3690 Y16.4355
G01 X10.3520 Y16.4420
G01 X10.2520 Y16.4834
G01 X10.2354 Y16.4909
G01 X10.2192 Y16.4993
G01 X10.1088 Y16.5609
G01 X10.0054 Y16.6336
G01 X9.9908 Y16.6446
G01 X9.9769 Y16.6563
G01 X9.8829 Y16.7409
G01 X9.8704 Y16.7542
G01 X9.7866 Y16.8488
G01 X9.7756 Y16.8634
G01 X9.7029 Y16.9668
G01 X9.6569 Y17.0489
G01 X9.0634 Y17.0489
G01 X9.0173 Y16.9665
G01 X8.9446 Y16.8631
G01 X8.9336 Y16.8485
G01 X8.8497 Y16.7539
G01 X8.8372 Y16.7406
G01 X8.7432 Y16.6560
G01 X8.7293 Y16.6442
G01 X8.7147 Y16.6332
G01 X8.6113 Y16.5605
G01 X8.5008 Y16.4988
G01 X8.4846 Y16.4905
G01 X8.4680 Y16.4830
G01 X8.3680 Y16.4416
G01 X8.3510 Y16.4351
G01 X8.3336 Y16.4296
G01 X8.2119 Y16.3950
G01 X8.1441 Y16.3830
G00 Z2.0000
G00 X7.9255 Y18.7933
G01 F30.00
G01 Z-0.0800
G01 F90.00
G01 X8.0427 Y18.7870
G01 X8.0622 Y18.7848
G01 X8.1785 Y18.7647
G01 X8.2921 Y18.7323
G01 X8.3106 Y18.7258
G01 X8.4196 Y18.6804
G01 X8.5315 Y18.6185
G01 X8.6279 Y18.5504
G01 X8.6433 Y18.5382
G01 X8.7311 Y18.4593
G01 X8.8100 Y18.3715
G01 X8.8222 Y18.3561
G01 X8.8903 Y18.2597
G01 X8.9477 Y18.1565
G01 X8.9562 Y18.1388
G01 X8.9693 Y18.1071
G01 X9.7510 Y18.1071
G01 X9.7640 Y18.1386
G01 X9.7725 Y18.1563
G01 X9.8249 Y18.2510
G01 X9.8353 Y18.2676
G01 X9.9038 Y18.3637
G01 X9.9890 Y18.4590
G01 X10.0843 Y18.5442
G01 X10.1804 Y18.6127
G01 X10.1970 Y18.6231
G01 X10.2917 Y18.6755
G01 X10.3094 Y18.6840
G01 X10.4185 Y18.7289
G01 X10.5414 Y18.7643
G01 X10.6674 Y18.7857
G01 X10.7852 Y18.7926
G01 X10.8048 Y18.7926
G01 X10.9226 Y18.7857
G01 X11.0390 Y18.7662
G01 X11.0581 Y18.7618
G01 X11.1621 Y18.7319
G01 X11.1806 Y18.7254
G01 X11.2896 Y18.6800
G01 X11.4014 Y18.6181
G01 X11.5057 Y18.5442
G01 X11.5939 Y18.4657
G01 X11.6077 Y18.4519
G01 X11.6798 Y18.3712
G01 X11.6921 Y18.3558
G01 X11.7601 Y18.2594
G01 X11.8220 Y18.1476
G01 X11.8709 Y18.0295
G01 X11.9063 Y17.9066
G01 X11.9277 Y17.7806
G01 X11.9346 Y17.6628
G01 X11.9346 Y17.6432
G01 X11.9277 Y17.5254
G01 X11.9082 Y17.4090
G01 X11.9038 Y17.3899
G01 X11.8739 Y17.2859
G01 X11.8674 Y17.2674
G01 X11.8220 Y17.1584
G01 X11.7651 Y17.0550
G01 X11.7547 Y17.0384
G01 X11.6862 Y16.9423
G01 X11.6077 Y16.8541
G01 X11.5939 Y16.8403
G01 X11.5057 Y16.7618
G01 X11.4096 Y16.6933
G01 X11.3930 Y16.6829
G01 X11.2896 Y16.6260
G01 X11.1806 Y16.5806
G01 X11.1621 Y16.5741
G01 X11.0581 Y16.5442
G01 X11.0390 Y16.5398
G01 X10.9226 Y16.5203
G01 X10.8048 Y16.5134
G01 X10.7852 Y16.5134
G01 X10.6674 Y16.5203
G01 X10.5510 Y16.5398
G01 X10.5319 Y16.5442
G01 X10.4185 Y16.5771
G01 X10.3094 Y16.6220
G01 X10.2917 Y16.6305
G01 X10.1886 Y16.6879
G01 X10.0922 Y16.7559
G01 X10.0768 Y16.7682
G01 X9.9890 Y16.8470
G01 X9.9102 Y16.9348
G01 X9.8979 Y16.9502
G01 X9.8299 Y17.0466
G01 X9.7725 Y17.1497
G01 X9.7640 Y17.1674
G01 X9.7510 Y17.1989
G01 X8.9693 Y17.1989
G01 X8.9562 Y17.1672
G01 X8.9477 Y17.1495
G01 X8.8903 Y17.0463
G01 X8.8222 Y16.9499
G01 X8.8100 Y16.9345
G01 X8.7311 Y16.8467
G01 X8.6433 Y16.7678
G01 X8.6279 Y16.7556
G01 X8.5315 Y16.6875
G01 X8.4196 Y16.6256
G01 X8.3106 Y16.5802
G01 X8.2921 Y16.5737
G01 X8.1785 Y16.5413
G01 X8.0622 Y16.5212
G01 X8.0427 Y16.5190
G01 X7.9304 Y16.5128
G01 X6.0445 Y16.5127
G01 X5.9175 Y16.5199
G01 X5.8011 Y16.5394
G01 X5.7820 Y16.5437
G01 X5.6686 Y16.5767
G01 X5.5594 Y16.6216
G01 X5.5417 Y16.6301
G01 X5.4470 Y16.6825
G01 X5.4304 Y16.6929
G01 X5.3342 Y16.7615
G01 X5.2389 Y16.8467
G01 X5.1537 Y16.9420
G01 X5.0797 Y17.0463
G01 X5.0178 Y17.1582
G01 X4.9724 Y17.2672
G01 X4.9659 Y17.2857
G01 X4.9359 Y17.3898
G01 X4.9316 Y17.4089
G01 X4.9121 Y17.5253
G01 X4.9049 Y17.6530
G01 X4.9121 Y17.7807
G01 X4.9335 Y17.9067
G01 X4.9689 Y18.0296
G01 X5.0138 Y18.1388
G01 X5.0223 Y18.1565
G01 X5.0747 Y18.2512
G01 X5.0851 Y18.2678
G01 X5.1537 Y18.3640
G01 X5.2389 Y18.4593
G01 X5.3342 Y18.5445
G01 X5.4385 Y18.6185
G01 X5.5504 Y18.6804
G01 X5.6686 Y18.7293
G01 X5.7915 Y18.7647
G01 X5.9078 Y18.7848
G01 X5.9273 Y18.7870
G01 X6.0445 Y18.7933
G01 X7.9255 Y18.7933
G00 Z2.0000
G00 X8.1441 Y18.9230
G01 F30.00
G01 Z-0.0800
G01 F90.00
G01 X8.2119 Y18.9110
G01 X8.3336 Y18.8764
G01 X8.3510 Y18.8709
G01 X8.3680 Y18.8644
G01 X8.4680 Y18.8230
G01 X8.4846 Y18.8155
G01 X8.5008 Y18.8072
G01 X8.6113 Y18.7455
G01 X8.7147 Y18.6728
G01 X8.7293 Y18.6618
G01 X8.7432 Y18.6500
G01 X8.8372 Y18.5654
G01 X8.8497 Y18.5521
G01 X8.9336 Y18.4575
G01 X8.9446 Y18.4429
G01 X9.0173 Y18.3395
G01 X9.0634 Y18.2571
G01 X9.6569 Y18.2571
G01 X9.7029 Y18.3392
G01 X9.7756 Y18.4426
G01 X9.7866 Y18.4572
G01 X9.8704 Y18.5518
G01 X9.8829 Y18.5651
G01 X9.9769 Y18.6497
G01 X9.9908 Y18.6614
G01 X10.0054 Y18.6724
G01 X10.1088 Y18.7451
G01 X10.2192 Y18.8067
G01 X10.2354 Y18.8151
G01 X10.2520 Y18.8226
G01 X10.3520 Y18.8640
G01 X10.3690 Y18.8705
G01 X10.3864 Y18.8760
G01 X10.5080 Y18.9105
G01 X10.5785 Y18.9230
G01 X10.5080 Y18.9355
G01 X10.3864 Y18.9700
G01 X10.3690 Y18.9755
G01 X10.3520 Y18.9820
G01 X10.2520 Y19.0234
G01 X10.2354 Y19.0309
G01 X10.2192 Y19.0393
G01 X10.1088 Y19.1009
G01 X10.0054 Y19.1736
G01 X9.9908 Y19.1846
G01 X9.9769 Y19.1963
G01 X9.8829 Y19.2809
G01 X9.8704 Y19.2942
G01 X9.7866 Y19.3888
G01 X9.7756 Y19.4034
G01 X9.7029 Y19.5068
G01 X9.6569 Y19.5889
G01 X9.0634 Y19.5889
G01 X9.0173 Y19.5065
G01 X8.9446 Y19.4031
G01 X8.9336 Y19.3885
G01 X8.8497 Y19.2939
G01 X8.8372 Y19.2806
G01 X8.7432 Y19.1960
G01 X8.7293 Y19.1842
G01 X8.7147 Y19.1732
G01 X8.6113 Y19.1005
G01 X8.5008 Y19.0388
G01 X8.4846 Y19.0305
G01 X8.4680 Y19.0230
G01 X8.3680 Y18.9816
G01 X8.3510 Y18.9751
G01 X8.3336 Y18.9696
G01 X8.2119 Y18.9350
G01 X8.1441 Y18.9230
G00 Z2.0000
G00 X8.1441 Y21.4630
G01 F30.00
G01 Z-0.0800
G01 F90.00
G01 X8.2119 Y21.4510
G01 X8.3336 Y21.4164
G01 X8.3510 Y21.4109
G01 X8.3680 Y21.4044
G01 X8.4680 Y21.3630
G01 X8.4846 Y21.3555
G01 X8.5008 Y21.3472
G01 X8.6113 Y21.2855
G01 X8.7147 Y21.2128
G01 X8.7293 Y21.2018
G01 X8.7432 Y21.1900
G01 X8.8372 Y21.1054
G01 X8.8497 Y21.0921
G01 X8.9336 Y20.9975
G01 X8.9446 Y20.9829
G01 X9.0173 Y20.8795
G01 X9.0634 Y20.7971
G01 X9.6569 Y20.7971
G01 X9.7029 Y20.8792
G01 X9.7756 Y20.9826
G01 X9.7866 Y20.9972
G01 X9.8704 Y21.0918
G01 X9.8829 Y21.1051
G01 X9.9769 Y21.1897
G01 X9.9908 Y21.2014
G01 X10.0054 Y21.2124
G01 X10.1088 Y21.2851
G01 X10.2192 Y21.3467
G01 X10.2354 Y21.3551
G01 X10.2520 Y21.3626
G01 X10.3520 Y21.4040
G01 X10.3690 Y21.4105
G01 X10.3864 Y21.4160
G01 X10.5080 Y21.4505
G01 X10.5785 Y21.4630
G01 X10.5080 Y21.4755
G01 X10.3864 Y21.5100
G01 X10.3690 Y21.5155
G01 X10.3520 Y21.5220
G01 X10.2520 Y21.5634
G01 X10.2354 Y21.5709
G01 X10.2192 Y21.5793
G01 X10.1088 Y21.6409
G01 X10.0054 Y21.7136
G01 X9.9908 Y21.7246
G01 X9.9769 Y21.7363
G01 X9.8829 Y21.8209
G01 X9.8704 Y21.8342
G01 X9.7866 Y21.9288
G01 X9.7756 Y21.9434
G01 X9.7029 Y22.0468
G01 X9.6569 Y22.1289
G01 X9.0634 Y22.1289
G01 X9.0173 Y22.0465
G01 X8.9446 Y21.9431
G01 X8.9336 Y21.9285
G01 X8.8497 Y21.8339
G01 X8.8372 Y21.8206
G01 X8.7432 Y21.7360
G01 X8.7293 Y21.7242
G01 X8.7147 Y21.7132
G01 X8.6113 Y21.6405
G01 X8.5008 Y21.5788
G01 X8.4846 Y21.5705
G01 X8.4680 Y21.5630
G01 X8.3680 Y21.5216
G01 X8.3510 Y21.5151
G01 X8.3336 Y21.5096
G01 X8.2119 Y21.4750
G01 X8.1441 Y21.4630
G00 Z2.0000
G00 X11.0115 Y21.4630
G01 F30.00
G01 Z-0.0800
G01 F90.00
G01 X11.0820 Y21.4505
G01 X11.2036 Y21.4160
G01 X11.2210 Y21.4105
G01 X11.3380 Y21.3626
G01 X11.3546 Y21.3551
G01 X11.3708 Y21.3467
G01 X11.4812 Y21.2851
G01 X11.5846 Y21.2124
G01 X11.5992 Y21.2014
G01 X11.6131 Y21.1897
G01 X11.6938 Y21.1176
G01 X11.7071 Y21.1051
G01 X11.7196 Y21.0918
G01 X11.8034 Y20.9972
G01 X11.8770 Y20.8944
G01 X11.8871 Y20.8792
G01 X11.8964 Y20.8635
G01 X11.9571 Y20.7526
G01 X11.9646 Y20.7360
G01 X12.0125 Y20.6190
G01 X12.0479 Y20.4977
G01 X12.0525 Y20.4800
G01 X12.0561 Y20.4621
G01 X12.0742 Y20.3555
G01 X12.0767 Y20.3374
G01 X12.0783 Y20.3192
G01 X12.0848 Y20.1930
G01 X12.0843 Y20.1748
G01 X12.0767 Y20.0486
G01 X12.0742 Y20.0305
G01 X12.0525 Y19.9060
G01 X12.0180 Y19.7844
G01 X12.0125 Y19.7670
G01 X12.0060 Y19.7500
G01 X11.9646 Y19.6500
G01 X11.9571 Y19.6334
G01 X11.9487 Y19.6172
G01 X11.8871 Y19.5068
G01 X11.8144 Y19.4034
G01 X11.8034 Y19.3888
G01 X11.7196 Y19.2942
G01 X11.7071 Y19.2809
G01 X11.6131 Y19.1963
G01 X11.5992 Y19.1846
G01 X11.5846 Y19.1736
G01 X11.4964 Y19.1110
G01 X11.4812 Y19.1009
G01 X11.4655 Y19.0916
G01 X11.3546 Y19.0309
G01 X11.3380 Y19.0234
G01 X11.2210 Y18.9755
G01 X11.2036 Y18.9700
G01 X11.0820 Y18.9355
G01 X11.0115 Y18.9230
G01 X11.0820 Y18.9105
G01 X11.2036 Y18.8760
G01 X11.2210 Y18.8705
G01 X11.3380 Y18.8226
G01 X11.3546 Y18.8151
G01 X11.3708 Y18.8067
G01 X11.4812 Y18.7451
G01 X11.5846 Y18.6724
G01 X11.5992 Y18.6614
G01 X11.6131 Y18.6497
G01 X11.6938 Y18.5776
G01 X11.7071 Y18.5651
G01 X11.7196 Y18.5518
G01 X11.8034 Y18.4572
G01 X11.8770 Y18.3544
G01 X11.8871 Y18.3392
G01 X11.8964 Y18.3235
G01 X11.9571 Y18.2126
G01 X11.9646 Y18.1960
G01 X12.0125 Y18.0790
G01 X12.0479 Y17.9577
G01 X12.0525 Y17.9400
G01 X12.0561 Y17.9221
G01 X12.0742 Y17.8155
G01 X12.0767 Y17.7974
G01 X12.0783 Y17.7792
G01 X12.0848 Y17.6530
G01 X12.0843 Y17.6348
G01 X12.0767 Y17.5086
G01 X12.0742 Y17.4905
G01 X12.0525 Y17.3660
G01 X12.0180 Y17.2444
G01 X12.0125 Y17.2270
G01 X12.0060 Y17.2100
G01 X11.9646 Y17.1100
G01 X11.9571 Y17.0934
G01 X11.9487 Y17.0772
G01 X11.8871 Y16.9668
G01 X11.8144 Y16.8634
G01 X11.8034 Y16.8488
G01 X11.7196 Y16.7542
G01 X11.7071 Y16.7409
G01 X11.6131 Y16.6563
G01 X11.5992 Y16.6446
G01 X11.5846 Y16.6336
G01 X11.4964 Y16.5710
G01 X11.4812 Y16.5609
G01 X11.4655 Y16.5516
G01 X11.3546 Y16.4909
G01 X11.3380 Y16.4834
G01 X11.2210 Y16.4355
G01 X11.2036 Y16.4300
G01 X11.0820 Y16.3955
G01 X11.0115 Y16.3830
G01 X11.0820 Y16.3705
G01 X11.2036 Y16.3360
G01 X11.2210 Y16.3305
G01 X11.2380 Y16.3240
G01 X11.3546 Y16.2751
G01 X11.4655 Y16.2144
G01 X11.4812 Y16.2051
G01 X11.4964 Y16.1950
G01 X11.5992 Y16.1214
G01 X11.6938 Y16.0376
G01 X11.7071 Y16.0251
G01 X11.7196 Y16.0118
G01 X11.8034 Y15.9172
G01 X11.8770 Y15.8144
G01 X11.8871 Y15.7992
G01 X11.8964 Y15.7835
G01 X11.9571 Y15.6726
G01 X12.0060 Y15.5560
G01 X12.0125 Y15.5390
G01 X12.0479 Y15.4177
G01 X12.0525 Y15.4000
G01 X12.0561 Y15.3821
G01 X12.0767 Y15.2574
G01 X12.0843 Y15.1312
G01 X12.0848 Y15.1130
G01 X12.0843 Y15.0948
G01 X12.0767 Y14.9686
G01 X12.0742 Y14.9505
G01 X12.0525 Y14.8260
G01 X12.0180 Y14.7044
G01 X12.0125 Y14.6870
G01 X12.0060 Y14.6700
G01 X11.9646 Y14.5700
G01 X11.9571 Y14.5534
G01 X11.9487 Y14.5372
G01 X11.8871 Y14.4268
G01 X11.8144 Y14.3234
G01 X11.8034 Y14.3088
G01 X11.7196 Y14.2142
G01 X11.7071 Y14.2009
G01 X11.6131 Y14.1163
G01 X11.5992 Y14.1046
G01 X11.5846 Y14.0936
G01 X11.4964 Y14.0310
G01 X11.4812 Y14.0209
G01 X11.4655 Y14.0116
G01 X11.3546 Y13.9509
G01 X11.2380 Y13.9020
G01 X11.2210 Y13.8955
G01 X11.2036 Y13.8900
G01 X11.0820 Y13.8555
G01 X11.0115 Y13.8430
G01 X11.0820 Y13.8305
G01 X11.2036 Y13.7960
G01 X11.2210 Y13.7905
G01 X11.2380 Y13.7840
G01 X11.3546 Y13.7351
G01 X11.4655 Y13.6744
G01 X11.4812 Y13.6651
G01 X11.4964 Y13.6550
G01 X11.5992 Y13.5814
G01 X11.6938 Y13.4976
G01 X11.7071 Y13.4851
G01 X11.7196 Y13.4718
G01 X11.8034 Y13.3772
G01 X11.8770 Y13.2744
G01 X11.8871 Y13.2592
G01 X11.8964 Y13.2435
G01 X11.9571 Y13.1326
G01 X12.0060 Y13.0160
G01 X12.0125 Y12.9990
G01 X12.0180 Y12.9816
G01 X12.0525 Y12.8600
G01 X12.0742 Y12.7355
G01 X12.0767 Y12.7174
G01 X12.0783 Y12.6992
G01 X12.0848 Y12.5730
G01 X12.0783 Y12.4468
G01 X12.0767 Y12.4286
G01 X12.0742 Y12.4105
G01 X12.0561 Y12.3039
G01 X12.0525 Y12.2860
G01 X12.0479 Y12.2683
G01 X12.0125 Y12.1470
G01 X12.0060 Y12.1300
G01 X11.9571 Y12.0134
G01 X11.9487 Y11.9972
G01 X11.8871 Y11.8868
G01 X11.8144 Y11.7834
G01 X11.8034 Y11.7688
G01 X11.7917 Y11.7549
G01 X11.7196 Y11.6742
G01 X11.7071 Y11.6609
G01 X11.6938 Y11.6484
G01 X11.5992 Y11.5646
G01 X11.5846 Y11.5536
G01 X11.4812 Y11.4809
G01 X11.3708 Y11.4193
G01 X11.3546 Y11.4109
G01 X11.2380 Y11.3620
G01 X11.2210 Y11.3555
G01 X11.2036 Y11.3500
G01 X11.0820 Y11.3155
G01 X11.0115 Y11.3030
G01 X11.0820 Y11.2905
G01 X11.2036 Y11.2560
G01 X11.2210 Y11.2505
G01 X11.2380 Y11.2440
G01 X11.3546 Y11.1951
G01 X11.4655 Y11.1344
G01 X11.4812 Y11.1251
G01 X11.4964 Y11.1150
G01 X11.5992 Y11.0414
G01 X11.6938 Y10.9576
G01 X11.7071 Y10.9451
G01 X11.7196 Y10.9318
G01 X11.8034 Y10.8372
G01 X11.8770 Y10.7344
G01 X11.8871 Y10.7192
G01 X11.8964 Y10.7035
G01 X11.9571 Y10.5926
G01 X12.0060 Y10.4760
G01 X12.0125 Y10.4590
G01 X12.0180 Y10.4416
G01 X12.0479 Y10.3377
G01 X12.0525 Y10.3200
G01 X12.0561 Y10.3021
G01 X12.0742 Y10.1955
G01 X12.0767 Y10.1774
G01 X12.0783 Y10.1592
G01 X12.0848 Y10.0330
G01 X12.0783 Y9.9068
G01 X12.0767 Y9.8886
G01 X12.0742 Y9.8705
G01 X12.0525 Y9.7460
G01 X12.0180 Y9.6244
G01 X12.0125 Y9.6070
G01 X12.0060 Y9.5900
G01 X11.9571 Y9.4734
G01 X11.9487 Y9.4572
G01 X11.8871 Y9.3468
G01 X11.8144 Y9.2434
G01 X11.8034 Y9.2288
G01 X11.7196 Y9.1342
G01 X11.7071 Y9.1209
G01 X11.6938 Y9.1084
G01 X11.5992 Y9.0246
G01 X11.5846 Y9.0136
G01 X11.4812 Y8.9409
G01 X11.3708 Y8.8793
G01 X11.3546 Y8.8709
G01 X11.2380 Y8.8220
G01 X11.2210 Y8.8155
G01 X11.2036 Y8.8100
G01 X11.0820 Y8.7755
G01 X11.0115 Y8.7630
G01 X11.0641 Y8.7541
G01 X11.0820 Y8.7505
G01 X11.0997 Y8.7459
G01 X11.2036 Y8.7160
G01 X11.2210 Y8.7105
G01 X11.2380 Y8.7040
G01 X11.3546 Y8.6551
G01 X11.4655 Y8.5944
G01 X11.4812 Y8.5851
G01 X11.4964 Y8.5750
G01 X11.5992 Y8.5014
G01 X11.6938 Y8.4176
G01 X11.7071 Y8.4051
G01 X11.7196 Y8.3918
G01 X11.8034 Y8.2972
G01 X11.8770 Y8.1944
G01 X11.8907 Y8.1731
G01 X12.0959 Y8.3782
G01 X12.0959 Y30.7378
G01 X11.9836 Y30.8501
G01 X12.0060 Y30.7960
G01 X12.0125 Y30.7790
G01 X12.0180 Y30.7616
G01 X12.0479 Y30.6577
G01 X12.0525 Y30.6400
G01 X12.0561 Y30.6221
G01 X12.0767 Y30.4974
G01 X12.0843 Y30.3712
G01 X12.0848 Y30.3530
G01 X12.0843 Y30.3348
G01 X12.0767 Y30.2086
G01 X12.0742 Y30.1905
G01 X12.0525 Y30.0660
G01 X12.0180 Y29.9444
G01 X12.0125 Y29.9270
G01 X11.9646 Y29.8100
G01 X11.9571 Y29.7934
G01 X11.9487 Y29.7772
G01 X11.8871 Y29.6668
G01 X11.8144 Y29.5634
G01 X11.8034 Y29.5488
G01 X11.7196 Y29.4542
G01 X11.7071 Y29.4409
G01 X11.6131 Y29.3563
G01 X11.5992 Y29.3446
G01 X11.5846 Y29.3336
G01 X11.4812 Y29.2609
G01 X11.3708 Y29.1993
G01 X11.3546 Y29.1909
G01 X11.3380 Y29.1834
G01 X11.2380 Y29.1420
G01 X11.2210 Y29.1355
G01 X11.2036 Y29.1300
G01 X11.0820 Y29.0955
G01 X11.0115 Y29.0830
G01 X11.0820 Y29.0705
G01 X11.2036 Y29.0360
G01 X11.2210 Y29.0305
G01 X11.3380 Y28.9826
G01 X11.3546 Y28.9751
G01 X11.4655 Y28.9144
G01 X11.4812 Y28.9051
G01 X11.4964 Y28.8950
G01 X11.5992 Y28.8214
G01 X11.6131 Y28.8097
G01 X11.7071 Y28.7251
G01 X11.7196 Y28.7118
G01 X11.8034 Y28.6172
G01 X11.8770 Y28.5144
G01 X11.8871 Y28.4992
G01 X11.8964 Y28.4835
G01 X11.9487 Y28.3888
G01 X11.9571 Y28.3726
G01 X11.9646 Y28.3560
G01 X12.0125 Y28.2390
G01 X12.0479 Y28.1177
G01 X12.0525 Y28.1000
G01 X12.0561 Y28.0821
G01 X12.0767 Y27.9574
G01 X12.0843 Y27.8312
G01 X12.0848 Y27.8130
G01 X12.0843 Y27.7948
G01 X12.0767 Y27.6686
G01 X12.0742 Y27.6505
G01 X12.0525 Y27.5260
G01 X12.0180 Y27.4044
G01 X12.0125 Y27.3870
G01 X12.0060 Y27.3700
G01 X11.9571 Y27.2534
G01 X11.8964 Y27.1425
G01 X11.8871 Y27.1268
G01 X11.8770 Y27.1116
G01 X11.8034 Y27.0088
G01 X11.7196 Y26.9142
G01 X11.7071 Y26.9009
G01 X11.6938 Y26.8884
G01 X11.5992 Y26.8046
G01 X11.4964 Y26.7310
G01 X11.4812 Y26.7209
G01 X11.4655 Y26.7116
G01 X11.3546 Y26.6509
G01 X11.2380 Y26.6020
G01 X11.2210 Y26.5955
G01 X11.2036 Y26.5900
G01 X11.0820 Y26.5555
G01 X11.0115 Y26.5430
G01 X11.0820 Y26.5305
G01 X11.2036 Y26.4960
G01 X11.2210 Y26.4905
G01 X11.3380 Y26.4426
G01 X11.3546 Y26.4351
G01 X11.4655 Y26.3744
G01 X11.4812 Y26.3651
G01 X11.4964 Y26.3550
G01 X11.5992 Y26.2814
G01 X11.6938 Y26.1976
G01 X11.7071 Y26.1851
G01 X11.7196 Y26.1718
G01 X11.7917 Y26.0911
G01 X11.8034 Y26.0772
G01 X11.8144 Y26.0626
G01 X11.8871 Y25.9592
G01 X11.8964 Y25.9435
G01 X11.9571 Y25.8326
G01 X11.9646 Y25.8160
G01 X12.0125 Y25.6990
G01 X12.0479 Y25.5777
G01 X12.0525 Y25.5600
G01 X12.0561 Y25.5421
G01 X12.0742 Y25.4355
G01 X12.0767 Y25.4174
G01 X12.0783 Y25.3992
G01 X12.0848 Y25.2730
G01 X12.0783 Y25.1468
G01 X12.0767 Y25.1286
G01 X12.0742 Y25.1105
G01 X12.0525 Y24.9860
G01 X12.0180 Y24.8644
G01 X12.0125 Y24.8470
G01 X12.0060 Y24.8300
G01 X11.9571 Y24.7134
G01 X11.8964 Y24.6025
G01 X11.8871 Y24.5868
G01 X11.8144 Y24.4834
G01 X11.8034 Y24.4688
G01 X11.7917 Y24.4549
G01 X11.7071 Y24.3609
G01 X11.6131 Y24.2763
G01 X11.5992 Y24.2646
G01 X11.5846 Y24.2536
G01 X11.4812 Y24.1809
G01 X11.4655 Y24.1716
G01 X11.3546 Y24.1109
G01 X11.2380 Y24.0620
G01 X11.2210 Y24.0555
G01 X11.2036 Y24.0500
G01 X11.0820 Y24.0155
G01 X11.0115 Y24.0030
G01 X11.0820 Y23.9905
G01 X11.2036 Y23.9560
G01 X11.2210 Y23.9505
G01 X11.3380 Y23.9026
G01 X11.3546 Y23.8951
G01 X11.4655 Y23.8344
G01 X11.4812 Y23.8251
G01 X11.4964 Y23.8150
G01 X11.5846 Y23.7524
G01 X11.5992 Y23.7414
G01 X11.6131 Y23.7297
G01 X11.7071 Y23.6451
G01 X11.7196 Y23.6318
G01 X11.8034 Y23.5372
G01 X11.8144 Y23.5226
G01 X11.8871 Y23.4192
G01 X11.9487 Y23.3088
G01 X11.9571 Y23.2926
G01 X11.9646 Y23.2760
G01 X12.0060 Y23.1760
G01 X12.0125 Y23.1590
G01 X12.0180 Y23.1416
G01 X12.0525 Y23.0200
G01 X12.0742 Y22.8955
G01 X12.0767 Y22.8774
G01 X12.0843 Y22.7512
G01 X12.0848 Y22.7330
G01 X12.0843 Y22.7148
G01 X12.0767 Y22.5886
G01 X12.0561 Y22.4639
G01 X12.0525 Y22.4460
G01 X12.0479 Y22.4283
G01 X12.0125 Y22.3070
G01 X11.9646 Y22.1900
G01 X11.9571 Y22.1734
G01 X11.8964 Y22.0625
G01 X11.8871 Y22.0468
G01 X11.8144 Y21.9434
G01 X11.8034 Y21.9288
G01 X11.7917 Y21.9149
G01 X11.7071 Y21.8209
G01 X11.6131 Y21.7363
G01 X11.5992 Y21.7246
G01 X11.5846 Y21.7136
G01 X11.4812 Y21.6409
G01 X11.4655 Y21.6316
G01 X11.3546 Y21.5709
G01 X11.2380 Y21.5220
G01 X11.2210 Y21.5155
G01 X11.2036 Y21.5100
G01 X11.0820 Y21.4755
G01 X11.0115 Y21.4630
G00 Z2.0000
G00 X10.5785 Y24.0030
G01 F30.00
G01 Z-0.0800
G01 F90.00
G01 X10.5080 Y24.0155
G01 X10.3864 Y24.0500
G01 X10.3690 Y24.0555
G01 X10.3520 Y24.0620
G01 X10.2520 Y24.1034
G01 X10.2354 Y24.1109
G01 X10.2192 Y24.1193
G01 X10.1088 Y24.1809
G01 X10.0054 Y24.2536
G01 X9.9908 Y24.2646
G01 X9.9769 Y24.2763
G01 X9.8829 Y24.3609
G01 X9.8704 Y24.3742
G01 X9.7866 Y24.4688
G01 X9.7756 Y24.4834
G01 X9.7029 Y24.5868
G01 X9.6569 Y24.6689
G01 X9.0634 Y24.6689
G01 X9.0173 Y24.5865
G01 X8.9446 Y24.4831
G01 X8.9336 Y24.4685
G01 X8.8497 Y24.3739
G01 X8.8372 Y24.3606
G01 X8.7432 Y24.2760
G01 X8.7293 Y24.2642
G01 X8.7147 Y24.2532
G01 X8.6113 Y24.1805
G01 X8.5008 Y24.1188
G01 X8.4846 Y24.1105
G01 X8.4680 Y24.1030
G01 X8.3680 Y24.0616
G01 X8.3510 Y24.0551
G01 X8.3336 Y24.0496
G01 X8.2119 Y24.0150
G01 X8.1441 Y24.0030
G01 X8.2119 Y23.9910
G01 X8.3336 Y23.9564
G01 X8.3510 Y23.9509
G01 X8.3680 Y23.9444
G01 X8.4680 Y23.9030
G01 X8.4846 Y23.8955
G01 X8.5008 Y23.8872
G01 X8.6113 Y23.8255
G01 X8.7147 Y23.7528
G01 X8.7293 Y23.7418
G01 X8.7432 Y23.7300
G01 X8.8372 Y23.6454
G01 X8.8497 Y23.6321
G01 X8.9336 Y23.5375
G01 X8.9446 Y23.5229
G01 X9.0173 Y23.4195
G01 X9.0634 Y23.3371
G01 X9.6569 Y23.3371
G01 X9.7029 Y23.4192
G01 X9.7756 Y23.5226
G01 X9.7866 Y23.5372
G01 X9.8704 Y23.6318
G01 X9.8829 Y23.6451
G01 X9.9769 Y23.7297
G01 X9.9908 Y23.7414
G01 X10.0054 Y23.7524
G01 X10.1088 Y23.8251
G01 X10.2192 Y23.8867
G01 X10.2354 Y23.8951
G01 X10.2520 Y23.9026
G01 X10.3520 Y23.9440
G01 X10.3690 Y23.9505
G01 X10.3864 Y23.9560
G01 X10.5080 Y23.9905
G01 X10.5785 Y24.0030
G00 Z2.0000
G00 X8.1441 Y26.5430
G01 F30.00
G01 Z-0.0800
G01 F90.00
G01 X8.2119 Y26.5310
G01 X8.3336 Y26.4964
G01 X8.3510 Y26.4909
G01 X8.3680 Y26.4844
G01 X8.4680 Y26.4430
G01 X8.4846 Y26.4355
G01 X8.5008 Y26.4272
G01 X8.6113 Y26.3655
G01 X8.7147 Y26.2928
G01 X8.7293 Y26.2818
G01 X8.7432 Y26.2700
G01 X8.8372 Y26.1854
G01 X8.8497 Y26.1721
G01 X8.9336 Y26.0775
G01 X8.9446 Y26.0629
G01 X9.0173 Y25.9595
G01 X9.0634 Y25.8771
G01 X9.6569 Y25.8771
G01 X9.7029 Y25.9592
G01 X9.7756 Y26.0626
G01 X9.7866 Y26.0772
G01 X9.8704 Y26.1718
G01 X9.8829 Y26.1851
G01 X9.9769 Y26.2697
G01 X9.9908 Y26.2814
G01 X10.0054 Y26.2924
G01 X10.1088 Y26.3651
G01 X10.2192 Y26.4267
G01 X10.2354 Y26.4351
G01 X10.2520 Y26.4426
G01 X10.3520 Y26.4840
G01 X10.3690 Y26.4905
G01 X10.3864 Y26.4960
G01 X10.5080 Y26.5305
G01 X10.5785 Y26.5430
G01 X10.5080 Y26.5555
G01 X10.3864 Y26.5900
G01 X10.3690 Y26.5955
G01 X10.3520 Y26.6020
G01 X10.2520 Y26.6434
G01 X10.2354 Y26.6509
G01 X10.2192 Y26.6593
G01 X10.1088 Y26.7209
G01 X10.0054 Y26.7936
G01 X9.9908 Y26.8046
G01 X9.9769 Y26.8163
G01 X9.8829 Y26.9009
G01 X9.8704 Y26.9142
G01 X9.7866 Y27.0088
G01 X9.7756 Y27.0234
G01 X9.7029 Y27.1268
G01 X9.6569 Y27.2089
G01 X9.0634 Y27.2089
G01 X9.0173 Y27.1265
G01 X8.9446 Y27.0231
G01 X8.9336 Y27.0085
G01 X8.8497 Y26.9139
G01 X8.8372 Y26.9006
G01 X8.7432 Y26.8160
G01 X8.7293 Y26.8042
G01 X8.7147 Y26.7932
G01 X8.6113 Y26.7205
G01 X8.5008 Y26.6588
G01 X8.4846 Y26.6505
G01 X8.4680 Y26.6430
G01 X8.3680 Y26.6016
G01 X8.3510 Y26.5951
G01 X8.3336 Y26.5896
G01 X8.2119 Y26.5550
G01 X8.1441 Y26.5430
G00 Z2.0000
G00 X8.1441 Y29.0830
G01 F30.00
G01 Z-0.0800
G01 F90.00
G01 X8.2119 Y29.0710
G01 X8.3336 Y29.0364
G01 X8.3510 Y29.0309
G01 X8.3680 Y29.0244
G01 X8.4680 Y28.9830
G01 X8.4846 Y28.9755
G01 X8.5008 Y28.9672
G01 X8.6113 Y28.9055
G01 X8.7147 Y28.8328
G01 X8.7293 Y28.8218
G01 X8.7432 Y28.8100
G01 X8.8372 Y28.7254
G01 X8.8497 Y28.7121
G01 X8.9336 Y28.6175
G01 X8.9446 Y28.6029
G01 X9.0173 Y28.4995
G01 X9.0634 Y28.4171
G01 X9.6569 Y28.4171
G01 X9.7029 Y28.4992
G01 X9.7756 Y28.6026
G01 X9.7866 Y28.6172
G01 X9.8704 Y28.7118
G01 X9.8829 Y28.7251
G01 X9.9769 Y28.8097
G01 X9.9908 Y28.8214
G01 X10.0054 Y28.8324
G01 X10.1088 Y28.9051
G01 X10.2192 Y28.9667
G01 X10.2354 Y28.9751
G01 X10.2520 Y28.9826
G01 X10.3520 Y29.0240
G01 X10.3690 Y29.0305
G01 X10.3864 Y29.0360
G01 X10.5080 Y29.0705
G01 X10.5785 Y29.0830
G01 X10.5080 Y29.0955
G01 X10.3864 Y29.1300
G01 X10.3690 Y29.1355
G01 X10.3520 Y29.1420
G01 X10.2520 Y29.1834
G01 X10.2354 Y29.1909
G01 X10.2192 Y29.1993
G01 X10.1088 Y29.2609
G01 X10.0054 Y29.3336
G01 X9.9908 Y29.3446
G01 X9.9769 Y29.3563
G01 X9.8829 Y29.4409
G01 X9.8704 Y29.4542
G01 X9.7866 Y29.5488
G01 X9.7756 Y29.5634
G01 X9.7029 Y29.6668
G01 X9.6569 Y29.7489
G01 X9.0634 Y29.7489
G01 X9.0173 Y29.6665
G01 X8.9446 Y29.5631
G01 X8.9336 Y29.5485
G01 X8.8497 Y29.4539
G01 X8.8372 Y29.4406
G01 X8.7432 Y29.3560
G01 X8.7293 Y29.3442
G01 X8.7147 Y29.3332
G01 X8.6113 Y29.2605
G01 X8.5008 Y29.1988
G01 X8.4846 Y29.1905
G01 X8.4680 Y29.1830
G01 X8.3680 Y29.1416
G01 X8.3510 Y29.1351
G01 X8.3336 Y29.1296
G01 X8.2119 Y29.0950
G01 X8.1441 Y29.0830
G00 Z2.0000
G00 X4.7842 Y28.2671
G01 F30.00
G01 Z-0.0800
G01 F90.00
G01 X5.0007 Y28.2671
G01 X5.0138 Y28.2988
G01 X5.0223 Y28.3165
G01 X5.0797 Y28.4197
G01 X5.1537 Y28.5240
G01 X5.2389 Y28.6193
G01 X5.3267 Y28.6982
G01 X5.3421 Y28.7104
G01 X5.4304 Y28.7731
G01 X5.4470 Y28.7835
G01 X5.5504 Y28.8404
G01 X5.6594 Y28.8858
G01 X5.6779 Y28.8923
G01 X5.7915 Y28.9247
G01 X5.9175 Y28.9461
G01 X6.0445 Y28.9533
G01 X7.9255 Y28.9533
G01 X8.0525 Y28.9461
G01 X8.1689 Y28.9266
G01 X8.1880 Y28.9223
G01 X8.3014 Y28.8893
G01 X8.4196 Y28.8404
G01 X8.5315 Y28.7785
G01 X8.6358 Y28.7045
G01 X8.7311 Y28.6193
G01 X8.8163 Y28.5240
G01 X8.8903 Y28.4197
G01 X8.9477 Y28.3165
G01 X8.9562 Y28.2988
G01 X8.9693 Y28.2671
G01 X9.7510 Y28.2671
G01 X9.7640 Y28.2986
G01 X9.7725 Y28.3163
G01 X9.8299 Y28.4194
G01 X9.8979 Y28.5158
G01 X9.9102 Y28.5312
G01 X9.9890 Y28.6190
G01 X10.0768 Y28.6978
G01 X10.0922 Y28.7101
G01 X10.1804 Y28.7727
G01 X10.1970 Y28.7831
G01 X10.3004 Y28.8400
G01 X10.4094 Y28.8854
G01 X10.4279 Y28.8919
G01 X10.5414 Y28.9243
G01 X10.6577 Y28.9443
G01 X10.6772 Y28.9465
G01 X10.7950 Y28.9528
G01 X10.9128 Y28.9465
G01 X10.9323 Y28.9443
G01 X11.0486 Y28.9243
G01 X11.1621 Y28.8919
G01 X11.1806 Y28.8854
G01 X11.2806 Y28.8440
G01 X11.2983 Y28.8355
G01 X11.4014 Y28.7781
G01 X11.5057 Y28.7042
G01 X11.6010 Y28.6190
G01 X11.6862 Y28.5237
G01 X11.7601 Y28.4194
G01 X11.8175 Y28.3163
G01 X11.8260 Y28.2986
G01 X11.8674 Y28.1986
G01 X11.8739 Y28.1801
G01 X11.9063 Y28.0666
G01 X11.9277 Y27.9406
G01 X11.9348 Y27.8130
G01 X11.9285 Y27.6952
G01 X11.9263 Y27.6757
G01 X11.9082 Y27.5690
G01 X11.9038 Y27.5499
G01 X11.8709 Y27.4365
G01 X11.8220 Y27.3184
G01 X11.7601 Y27.2066
G01 X11.6921 Y27.1102
G01 X11.6798 Y27.0948
G01 X11.6077 Y27.0141
G01 X11.5939 Y27.0003
G01 X11.5057 Y26.9218
G01 X11.4014 Y26.8479
G01 X11.2896 Y26.7860
G01 X11.1806 Y26.7406
G01 X11.1621 Y26.7341
G01 X11.0581 Y26.7042
G01 X11.0390 Y26.6998
G01 X10.9226 Y26.6803
G01 X10.7950 Y26.6732
G01 X10.6674 Y26.6803
G01 X10.5510 Y26.6998
G01 X10.5319 Y26.7042
G01 X10.4185 Y26.7371
G01 X10.3094 Y26.7820
G01 X10.2917 Y26.7905
G01 X10.1886 Y26.8479
G01 X10.0922 Y26.9159
G01 X10.0768 Y26.9282
G01 X9.9890 Y27.0070
G01 X9.9102 Y27.0948
G01 X9.8979 Y27.1102
G01 X9.8299 Y27.2066
G01 X9.7725 Y27.3097
G01 X9.7640 Y27.3274
G01 X9.7510 Y27.3589
G01 X8.9693 Y27.3589
G01 X8.9562 Y27.3272
G01 X8.9477 Y27.3095
G01 X8.8903 Y27.2063
G01 X8.8163 Y27.1020
G01 X8.7311 Y27.0067
G01 X8.6433 Y26.9278
G01 X8.6279 Y26.9156
G01 X8.5396 Y26.8529
G01 X8.5230 Y26.8425
G01 X8.4196 Y26.7856
G01 X8.3106 Y26.7402
G01 X8.2921 Y26.7337
G01 X8.1785 Y26.7013
G01 X8.0622 Y26.6812
G01 X8.0427 Y26.6790
G01 X7.9255 Y26.6727
G01 X6.0445 Y26.6727
G01 X5.9175 Y26.6799
G01 X5.7915 Y26.7013
G01 X5.6686 Y26.7367
G01 X5.5504 Y26.7856
G01 X5.4385 Y26.8475
G01 X5.3342 Y26.9215
G01 X5.2389 Y27.0067
G01 X5.1537 Y27.1020
G01 X5.0797 Y27.2063
G01 X5.0223 Y27.3095
G01 X5.0138 Y27.3272
G01 X5.0007 Y27.3589
G01 X4.7842 Y27.3589
G01 X4.7519 Y27.3010
G01 X4.6895 Y27.2129
G01 X4.6175 Y27.1325
G01 X4.5371 Y27.0605
G01 X4.4490 Y26.9981
G01 X4.3546 Y26.9459
G01 X4.2549 Y26.9046
G01 X4.1607 Y26.8772
G01 X4.1415 Y26.8728
G01 X4.0448 Y26.8566
G01 X3.9377 Y26.8506
G01 X2.4123 Y26.8506
G01 X2.3052 Y26.8566
G01 X2.2085 Y26.8728
G01 X2.1893 Y26.8772
G01 X2.0951 Y26.9046
G01 X2.0044 Y26.9419
G01 X1.9867 Y26.9504
G01 X1.9010 Y26.9981
G01 X1.8208 Y27.0546
G01 X1.8054 Y27.0669
G01 X1.7325 Y27.1325
G01 X1.6669 Y27.2054
G01 X1.6546 Y27.2208
G01 X1.5981 Y27.3010
G01 X1.5459 Y27.3954
G01 X1.5081 Y27.4860
G01 X1.5016 Y27.5045
G01 X1.4747 Y27.5988
G01 X1.4566 Y27.7052
G01 X1.4509 Y27.8032
G01 X1.4509 Y27.8228
G01 X1.4558 Y27.9110
G01 X1.4580 Y27.9305
G01 X1.4747 Y28.0272
G01 X1.5046 Y28.1309
G01 X1.5459 Y28.2306
G01 X1.5981 Y28.3250
G01 X1.6605 Y28.4131
G01 X1.7257 Y28.4864
G01 X1.7396 Y28.5003
G01 X1.8054 Y28.5591
G01 X1.8208 Y28.5714
G01 X1.9010 Y28.6279
G01 X1.9954 Y28.6801
G01 X2.0951 Y28.7214
G01 X2.1988 Y28.7513
G01 X2.3052 Y28.7694
G01 X2.4123 Y28.7754
G01 X3.9377 Y28.7754
G01 X4.0448 Y28.7694
G01 X4.1415 Y28.7532
G01 X4.1607 Y28.7488
G01 X4.2549 Y28.7214
G01 X4.3546 Y28.6801
G01 X4.4490 Y28.6279
G01 X4.5371 Y28.5655
G01 X4.6175 Y28.4935
G01 X4.6895 Y28.4131
G01 X4.7519 Y28.3250
G01 X4.7842 Y28.2671
G00 Z2.0000
G00 X2.4123 Y29.3906
G01 F30.00
G01 Z-0.0800
G01 F90.00
G01 X2.3052 Y29.3966
G01 X2.1988 Y29.4147
G01 X2.0951 Y29.4446
G01 X2.0044 Y29.4819
G01 X1.9867 Y29.4904
G01 X1.9094 Y29.5331
G01 X1.8928 Y29.5435
G01 X1.8129 Y29.6005
G01 X1.7325 Y29.6725
G01 X1.6605 Y29.7529
G01 X1.6035 Y29.8328
G01 X1.5931 Y29.8494
G01 X1.5504 Y29.9267
G01 X1.5419 Y29.9444
G01 X1.5046 Y30.0351
G01 X1.4747 Y30.1388
G01 X1.4566 Y30.2452
G01 X1.4509 Y30.3432
G01 X1.4509 Y30.3628
G01 X1.4558 Y30.4510
G01 X1.4580 Y30.4705
G01 X1.4747 Y30.5672
G01 X1.5046 Y30.6709
G01 X1.5459 Y30.7706
G01 X1.5931 Y30.8566
G01 X1.6035 Y30.8732
G01 X1.6546 Y30.9452
G01 X1.6669 Y30.9606
G01 X1.7325 Y31.0335
G01 X1.8129 Y31.1055
G01 X1.9010 Y31.1679
G01 X1.9867 Y31.2156
G01 X2.0044 Y31.2241
G01 X2.0860 Y31.2579
G01 X2.1045 Y31.2644
G01 X2.1988 Y31.2913
G01 X2.3052 Y31.3094
G01 X2.4123 Y31.3154
G01 X3.9377 Y31.3154
G01 X4.0448 Y31.3094
G01 X4.1415 Y31.2932
G01 X4.1607 Y31.2888
G01 X4.2549 Y31.2614
G01 X4.3546 Y31.2201
G01 X4.4490 Y31.1679
G01 X4.5371 Y31.1055
G01 X4.6175 Y31.0335
G01 X4.6895 Y30.9531
G01 X4.7519 Y30.8650
G01 X4.7842 Y30.8071
G01 X5.0007 Y30.8071
G01 X5.0138 Y30.8388
G01 X5.0223 Y30.8565
G01 X5.0797 Y30.9597
G01 X5.1537 Y31.0640
G01 X5.2389 Y31.1593
G01 X5.3342 Y31.2445
G01 X5.4385 Y31.3185
G01 X5.5504 Y31.3804
G01 X5.6686 Y31.4293
G01 X5.7915 Y31.4647
G01 X5.9175 Y31.4861
G01 X6.0445 Y31.4933
G01 X7.9255 Y31.4933
G01 X8.0427 Y31.4870
G01 X8.0622 Y31.4848
G01 X8.1785 Y31.4647
G01 X8.2921 Y31.4323
G01 X8.3106 Y31.4258
G01 X8.4196 Y31.3804
G01 X8.5230 Y31.3235
G01 X8.5396 Y31.3131
G01 X8.6279 Y31.2504
G01 X8.6433 Y31.2382
G01 X8.7311 Y31.1593
G01 X8.8163 Y31.0640
G01 X8.8903 Y30.9597
G01 X8.9477 Y30.8565
G01 X8.9562 Y30.8388
G01 X8.9693 Y30.8071
G01 X9.7510 Y30.8071
G01 X9.7640 Y30.8386
G01 X9.7725 Y30.8563
G01 X9.8299 Y30.9594
G01 X9.8979 Y31.0558
G01 X9.9102 Y31.0712
G01 X9.9890 Y31.1590
G01 X10.0768 Y31.2378
G01 X10.0922 Y31.2501
G01 X10.1804 Y31.3127
G01 X10.1970 Y31.3231
G01 X10.3004 Y31.3800
G01 X10.4094 Y31.4254
G01 X10.4279 Y31.4319
G01 X10.5414 Y31.4643
G01 X10.6577 Y31.4843
G01 X10.6772 Y31.4865
G01 X10.7950 Y31.4928
G01 X10.9226 Y31.4857
G01 X11.0486 Y31.4643
G01 X11.1621 Y31.4319
G01 X11.1806 Y31.4254
G01 X11.2896 Y31.3800
G01 X11.4014 Y31.3181
G01 X11.4978 Y31.2501
G01 X11.5132 Y31.2378
G01 X11.6010 Y31.1590
G01 X11.6798 Y31.0712
G01 X11.6921 Y31.0558
G01 X11.7601 Y30.9594
G01 X11.8220 Y30.8476
G01 X11.8709 Y30.7295
G01 X11.9038 Y30.6161
G01 X11.9082 Y30.5970
G01 X11.9277 Y30.4806
G01 X11.9348 Y30.3530
G01 X11.9277 Y30.2254
G01 X11.9063 Y30.0994
G01 X11.8739 Y29.9859
G01 X11.8674 Y29.9674
G01 X11.8260 Y29.8674
G01 X11.8175 Y29.8497
G01 X11.7601 Y29.7466
G01 X11.6862 Y29.6423
G01 X11.6010 Y29.5470
G01 X11.5057 Y29.4618
G01 X11.4014 Y29.3879
G01 X11.2983 Y29.3305
G01 X11.2806 Y29.3220
G01 X11.1806 Y29.2806
G01 X11.1621 Y29.2741
G01 X11.0486 Y29.2417
G01 X10.9226 Y29.2203
G01 X10.7950 Y29.2132
G01 X10.6772 Y29.2195
G01 X10.6577 Y29.2217
G01 X10.5414 Y29.2417
G01 X10.4279 Y29.2741
G01 X10.4094 Y29.2806
G01 X10.3004 Y29.3260
G01 X10.1970 Y29.3829
G01 X10.1804 Y29.3933
G01 X10.0922 Y29.4559
G01 X10.0768 Y29.4682
G01 X9.9890 Y29.5470
G01 X9.9102 Y29.6348
G01 X9.8979 Y29.6502
G01 X9.8299 Y29.7466
G01 X9.7725 Y29.8497
G01 X9.7640 Y29.8674
G01 X9.7510 Y29.8989
G01 X8.9693 Y29.8989
G01 X8.9562 Y29.8672
G01 X8.9477 Y29.8495
G01 X8.8903 Y29.7463
G01 X8.8163 Y29.6420
G01 X8.7311 Y29.5467
G01 X8.6433 Y29.4678
G01 X8.6279 Y29.4556
G01 X8.5396 Y29.3929
G01 X8.5230 Y29.3825
G01 X8.4196 Y29.3256
G01 X8.3106 Y29.2802
G01 X8.2921 Y29.2737
G01 X8.1785 Y29.2413
G01 X8.0622 Y29.2212
G01 X8.0427 Y29.2190
G01 X7.9255 Y29.2127
G01 X6.0445 Y29.2127
G01 X5.9175 Y29.2199
G01 X5.7915 Y29.2413
G01 X5.6686 Y29.2767
G01 X5.5504 Y29.3256
G01 X5.4385 Y29.3875
G01 X5.3342 Y29.4615
G01 X5.2389 Y29.5467
G01 X5.1537 Y29.6420
G01 X5.0797 Y29.7463
G01 X5.0223 Y29.8495
G01 X5.0138 Y29.8672
G01 X5.0007 Y29.8989
G01 X4.7842 Y29.8989
G01 X4.7519 Y29.8410
G01 X4.6895 Y29.7529
G01 X4.6175 Y29.6725
G01 X4.5371 Y29.6005
G01 X4.4490 Y29.5381
G01 X4.3546 Y29.4859
G01 X4.2549 Y29.4446
G01 X4.1607 Y29.4172
G01 X4.1415 Y29.4128
G01 X4.0448 Y29.3966
G01 X3.9377 Y29.3906
G01 X2.4123 Y29.3906
G00 Z2.0000
G00 X4.7842 Y33.3471
G01 F30.00
G01 Z-0.0800
G01 F90.00
G01 X10.7957 Y33.3471
G01 X10.8459 Y33.3443
G01 X10.8961 Y33.3358
G01 X10.9450 Y33.3217
G01 X10.9831 Y33.3062
G01 X11.0008 Y33.2977
G01 X11.0366 Y33.2776
G01 X11.0703 Y33.2540
G01 X11.0857 Y33.2417
G01 X11.1121 Y33.2180
G01 X13.0216 Y31.3086
G01 X13.0551 Y31.2712
G01 X13.0791 Y31.2378
G01 X13.0895 Y31.2212
G01 X13.1092 Y31.1851
G01 X13.1287 Y31.1380
G01 X13.1403 Y31.0986
G01 X13.1447 Y31.0794
G01 X13.1513 Y31.0389
G01 X13.1541 Y30.9887
G01 X13.1541 Y18.4761
G01 X25.6179 Y6.0123
G01 X25.6494 Y6.0254
G01 X25.6679 Y6.0319
G01 X25.7814 Y6.0643
G01 X25.8977 Y6.0843
G01 X25.9172 Y6.0865
G01 X26.0350 Y6.0928
G01 X26.1528 Y6.0865
G01 X26.1723 Y6.0843
G01 X26.2790 Y6.0662
G01 X26.2981 Y6.0618
G01 X26.4115 Y6.0289
G01 X26.5296 Y5.9800
G01 X26.6414 Y5.9181
G01 X26.7457 Y5.8442
G01 X26.8410 Y5.7590
G01 X26.9262 Y5.6637
G01 X27.0001 Y5.5594
G01 X27.0575 Y5.4563
G01 X27.0660 Y5.4386
G01 X27.0790 Y5.4071
G01 X27.8607 Y5.4071
G01 X27.8738 Y5.4388
G01 X27.8823 Y5.4565
G01 X27.9397 Y5.5597
G01 X28.0137 Y5.6640
G01 X28.0989 Y5.7593
G01 X28.1942 Y5.8445
G01 X28.2985 Y5.9185
G01 X28.4104 Y5.9804
G01 X28.5286 Y6.0293
G01 X28.6515 Y6.0647
G01 X28.7775 Y6.0861
G01 X28.9045 Y6.0933
G01 X30.7855 Y6.0933
G01 X30.9027 Y6.0870
G01 X30.9222 Y6.0848
G01 X31.0385 Y6.0647
G01 X31.1521 Y6.0323
G01 X31.1706 Y6.0258
G01 X31.2796 Y5.9804
G01 X31.3830 Y5.9235
G01 X31.3996 Y5.9131
G01 X31.4879 Y5.8504
G01 X31.5033 Y5.8382
G01 X31.5911 Y5.7593
G01 X31.6763 Y5.6640
G01 X31.7503 Y5.5597
G01 X31.8077 Y5.4565
G01 X31.8162 Y5.4388
G01 X31.8293 Y5.4071
G01 X33.2009 Y5.4071
G01 X33.2009 Y7.7190
G01 X33.1694 Y7.7320
G01 X33.1517 Y7.7405
G01 X33.0486 Y7.7979
G01 X32.9522 Y7.8659
G01 X32.9368 Y7.8782
G01 X32.8490 Y7.9570
G01 X32.7702 Y8.0448
G01 X32.7579 Y8.0602
G01 X32.6899 Y8.1566
G01 X32.6280 Y8.2684
G01 X32.5826 Y8.3774
G01 X32.5761 Y8.3959
G01 X32.5437 Y8.5094
G01 X32.5237 Y8.6257
G01 X32.5215 Y8.6452
G01 X32.5152 Y8.7630
G01 X32.5215 Y8.8808
G01 X32.5237 Y8.9003
G01 X32.5437 Y9.0166
G01 X32.5761 Y9.1301
G01 X32.5826 Y9.1486
G01 X32.6280 Y9.2576
G01 X32.6899 Y9.3694
G01 X32.7579 Y9.4658
G01 X32.7702 Y9.4812
G01 X32.8490 Y9.5690
G01 X32.9368 Y9.6478
G01 X32.9522 Y9.6601
G01 X33.0486 Y9.7281
G01 X33.1517 Y9.7855
G01 X33.1694 Y9.7940
G01 X33.2009 Y9.8070
G01 X33.2009 Y10.2590
G01 X33.1694 Y10.2720
G01 X33.1517 Y10.2805
G01 X33.0486 Y10.3379
G01 X32.9522 Y10.4059
G01 X32.9368 Y10.4182
G01 X32.8490 Y10.4970
G01 X32.7702 Y10.5848
G01 X32.7579 Y10.6002
G01 X32.6899 Y10.6966
G01 X32.6280 Y10.8084
G01 X32.5826 Y10.9174
G01 X32.5761 Y10.9359
G01 X32.5437 Y11.0494
G01 X32.5237 Y11.1657
G01 X32.5215 Y11.1852
G01 X32.5152 Y11.3030
G01 X32.5215 Y11.4208
G01 X32.5237 Y11.4403
G01 X32.5437 Y11.5566
G01 X32.5761 Y11.6701
G01 X32.5826 Y11.6886
G01 X32.6280 Y11.7976
G01 X32.6899 Y11.9094
G01 X32.7579 Y12.0058
G01 X32.7702 Y12.0212
G01 X32.8490 Y12.1090
G01 X32.9368 Y12.1878
G01 X32.9522 Y12.2001
G01 X33.0486 Y12.2681
G01 X33.1517 Y12.3255
G01 X33.1694 Y12.3340
G01 X33.2009 Y12.3470
G01 X33.2009 Y12.7990
G01 X33.1694 Y12.8120
G01 X33.1517 Y12.8205
G01 X33.0486 Y12.8779
G01 X32.9522 Y12.9459
G01 X32.9368 Y12.9582
G01 X32.8490 Y13.0370
G01 X32.7702 Y13.1248
G01 X32.7579 Y13.1402
G01 X32.6899 Y13.2366
G01 X32.6280 Y13.3484
G01 X32.5826 Y13.4574
G01 X32.5761 Y13.4759
G01 X32.5437 Y13.5894
G01 X32.5237 Y13.7057
G01 X32.5215 Y13.7252
G01 X32.5152 Y13.8430
G01 X32.5215 Y13.9608
G01 X32.5237 Y13.9803
G01 X32.5437 Y14.0966
G01 X32.5761 Y14.2101
G01 X32.5826 Y14.2286
G01 X32.6280 Y14.3376
G01 X32.6899 Y14.4494
G01 X32.7579 Y14.5458
G01 X32.7702 Y14.5612
G01 X32.8490 Y14.6490
G01 X32.9368 Y14.7278
G01 X32.9522 Y14.7401
G01 X33.0486 Y14.8081
G01 X33.1517 Y14.8655
G01 X33.1694 Y14.8740
G01 X33.2009 Y14.8870
G01 X33.2009 Y15.3390
G01 X33.1694 Y15.3520
G01 X33.1517 Y15.3605
G01 X33.0486 Y15.4179
G01 X32.9522 Y15.4859
G01 X32.9368 Y15.4982
G01 X32.8490 Y15.5770
G01 X32.7702 Y15.6648
G01 X32.7579 Y15.6802
G01 X32.6899 Y15.7766
G01 X32.6280 Y15.8884
G01 X32.5826 Y15.9974
G01 X32.5761 Y16.0159
G01 X32.5437 Y16.1294
G01 X32.5237 Y16.2457
G01 X32.5215 Y16.2652
G01 X32.5152 Y16.3830
G01 X32.5223 Y16.5106
G01 X32.5418 Y16.6270
G01 X32.5462 Y16.6461
G01 X32.5791 Y16.7595
G01 X32.6240 Y16.8686
G01 X32.6325 Y16.8863
G01 X32.6899 Y16.9894
G01 X32.7579 Y17.0858
G01 X32.7702 Y17.1012
G01 X32.8490 Y17.1890
G01 X32.9368 Y17.2678
G01 X32.9522 Y17.2801
G01 X33.0486 Y17.3481
G01 X33.1517 Y17.4055
G01 X33.1694 Y17.4140
G01 X33.2009 Y17.4270
G01 X33.2009 Y17.8790
G01 X33.1694 Y17.8920
G01 X33.1517 Y17.9005
G01 X33.0486 Y17.9579
G01 X32.9522 Y18.0259
G01 X32.9368 Y18.0382
G01 X32.8490 Y18.1170
G01 X32.7702 Y18.2048
G01 X32.7579 Y18.2202
G01 X32.6899 Y18.3166
G01 X32.6325 Y18.4197
G01 X32.6240 Y18.4374
G01 X32.5791 Y18.5465
G01 X32.5462 Y18.6599
G01 X32.5418 Y18.6790
G01 X32.5223 Y18.7954
G01 X32.5152 Y18.9230
G01 X32.5223 Y19.0506
G01 X32.5418 Y19.1670
G01 X32.5462 Y19.1861
G01 X32.5791 Y19.2995
G01 X32.6240 Y19.4086
G01 X32.6325 Y19.4263
G01 X32.6899 Y19.5294
G01 X32.7579 Y19.6258
G01 X32.7702 Y19.6412
G01 X32.8490 Y19.7290
G01 X32.9368 Y19.8078
G01 X32.9522 Y19.8201
G01 X33.0486 Y19.8881
G01 X33.1517 Y19.9455
G01 X33.1694 Y19.9540
G01 X33.2009 Y19.9670
G01 X33.2009 Y20.4190
G01 X33.1694 Y20.4320
G01 X33.1517 Y20.4405
G01 X33.0486 Y20.4979
G01 X32.9522 Y20.5659
G01 X32.9368 Y20.5782
G01 X32.8490 Y20.6570
G01 X32.7702 Y20.7448
G01 X32.7579 Y20.7602
G01 X32.6953 Y20.8484
G01 X32.6849 Y20.8650
G01 X32.6280 Y20.9684
G01 X32.5826 Y21.0774
G01 X32.5761 Y21.0959
G01 X32.5437 Y21.2094
G01 X32.5223 Y21.3354
G01 X32.5154 Y21.4532
G01 X32.5154 Y21.4728
G01 X32.5215 Y21.5808
G01 X32.5237 Y21.6003
G01 X32.5437 Y21.7166
G01 X32.5791 Y21.8395
G01 X32.6280 Y21.9576
G01 X32.6849 Y22.0610
G01 X32.6953 Y22.0776
G01 X32.7579 Y22.1658
G01 X32.7702 Y22.1812
G01 X32.8490 Y22.2690
G01 X32.9443 Y22.3542
G01 X33.0486 Y22.4281
G01 X33.1517 Y22.4855
G01 X33.1694 Y22.4940
G01 X33.2694 Y22.5354
G01 X33.2879 Y22.5419
G01 X33.4014 Y22.5743
G01 X33.5177 Y22.5943
G01 X33.5372 Y22.5965
G01 X33.6550 Y22.6028
G01 X33.7826 Y22.5957
G01 X33.9086 Y22.5743
G01 X34.0221 Y22.5419
G01 X34.0406 Y22.5354
G01 X34.0721 Y22.5223
G01 X35.8779 Y24.3280
G01 X35.9118 Y24.3581
G01 X35.9452 Y24.3821
G01 X35.9618 Y24.3925
G01 X35.9979 Y24.4122
G01 X36.0358 Y24.4282
G01 X36.0544 Y24.4347
G01 X36.0939 Y24.4458
G01 X36.1441 Y24.4543
G01 X36.1943 Y24.4571
G01 X43.4758 Y24.4571
G01 X43.5081 Y24.5150
G01 X43.5705 Y24.6031
G01 X43.6425 Y24.6835
G01 X43.7229 Y24.7555
G01 X43.8110 Y24.8179
G01 X43.9054 Y24.8701
G01 X44.0051 Y24.9114
G01 X44.0993 Y24.9388
G01 X44.1185 Y24.9432
G01 X44.2152 Y24.9594
G01 X44.3174 Y24.9653
G01 X45.4055 Y24.9654
G01 X45.4368 Y24.9931
G01 X45.4702 Y25.0171
G01 X45.4868 Y25.0275
G01 X45.5229 Y25.0472
G01 X45.5700 Y25.0667
G01 X45.6094 Y25.0783
G01 X45.6286 Y25.0827
G01 X45.6594 Y25.0879
G01 X45.6789 Y25.0901
G01 X45.7193 Y25.0921
G01 X51.4455 Y25.0919
G01 X51.4859 Y25.0893
G01 X51.5264 Y25.0827
G01 X51.5456 Y25.0783
G01 X51.5756 Y25.0697
G01 X51.5942 Y25.0632
G01 X51.6321 Y25.0472
G01 X51.6766 Y25.0226
G01 X51.7182 Y24.9931
G01 X51.7485 Y24.9664
G01 X53.5281 Y23.1871
G01 X56.3935 Y23.1871
G01 X56.4012 Y23.1991
G01 X56.4516 Y23.2697
G01 X56.5159 Y23.3417
G01 X56.5879 Y23.4060
G01 X56.6585 Y23.4564
G01 X56.6751 Y23.4668
G01 X56.7511 Y23.5085
G01 X56.8311 Y23.5420
G01 X56.8497 Y23.5484
G01 X56.9236 Y23.5697
G01 X56.9427 Y23.5741
G01 X57.0282 Y23.5884
G01 X57.1141 Y23.5935
G01 X58.4461 Y23.5937
G01 X58.5320 Y23.5892
G01 X58.5515 Y23.5870
G01 X58.6369 Y23.5722
G01 X58.7297 Y23.5455
G01 X58.8189 Y23.5085
G01 X58.9034 Y23.4618
G01 X58.9742 Y23.4119
G01 X58.9896 Y23.3996
G01 X59.0541 Y23.3417
G01 X59.1120 Y23.2772
G01 X59.1243 Y23.2618
G01 X59.1742 Y23.1910
G01 X59.2209 Y23.1065
G01 X59.2544 Y23.0265
G01 X59.2608 Y23.0079
G01 X59.2846 Y22.9245
G01 X59.2994 Y22.8391
G01 X59.3016 Y22.8196
G01 X59.3062 Y22.7330
G01 X59.3008 Y22.6366
G01 X59.2865 Y22.5511
G01 X59.2821 Y22.5320
G01 X59.2579 Y22.4487
G01 X59.2249 Y22.3685
G01 X59.2164 Y22.3508
G01 X59.1742 Y22.2750
G01 X59.1184 Y22.1963
G01 X59.0608 Y22.1315
G01 X59.0469 Y22.1176
G01 X58.9821 Y22.0600
G01 X58.9115 Y22.0096
G01 X58.8949 Y21.9992
G01 X58.8189 Y21.9575
G01 X58.7297 Y21.9205
G01 X58.6464 Y21.8963
G01 X58.6273 Y21.8919
G01 X58.5418 Y21.8776
G01 X58.4510 Y21.8723
G01 X57.1239 Y21.8723
G01 X57.0282 Y21.8776
G01 X56.9331 Y21.8938
G01 X56.8403 Y21.9205
G01 X56.7511 Y21.9575
G01 X56.6666 Y22.0042
G01 X56.5879 Y22.0600
G01 X56.5159 Y22.1243
G01 X56.4516 Y22.1963
G01 X56.4012 Y22.2669
G01 X56.3935 Y22.2789
G01 X55.6991 Y22.2789
G01 X55.6991 Y12.1261
G01 X56.9499 Y10.8753
G01 X57.0282 Y10.8884
G01 X57.1239 Y10.8937
G01 X58.4461 Y10.8937
G01 X58.5320 Y10.8892
G01 X58.5515 Y10.8870
G01 X58.6369 Y10.8722
G01 X58.7297 Y10.8455
G01 X58.8189 Y10.8085
G01 X58.9034 Y10.7618
G01 X58.9821 Y10.7060
G01 X59.0541 Y10.6417
G01 X59.1184 Y10.5697
G01 X59.1688 Y10.4991
G01 X59.1765 Y10.4871
G01 X59.4058 Y10.4871
G01 X59.4567 Y10.5786
G01 X59.5232 Y10.6724
G01 X59.5998 Y10.7582
G01 X59.6781 Y10.8285
G01 X59.6934 Y10.8407
G01 X59.7712 Y10.8959
G01 X59.7878 Y10.9063
G01 X59.8800 Y10.9570
G01 X59.9863 Y11.0010
G01 X60.0968 Y11.0328
G01 X60.2102 Y11.0521
G01 X60.3250 Y11.0585
G01 X60.4300 Y11.0529
G01 X60.4495 Y11.0507
G01 X60.5436 Y11.0347
G01 X60.5627 Y11.0304
G01 X60.6637 Y11.0010
G01 X60.7700 Y10.9570
G01 X60.8706 Y10.9013
G01 X60.9644 Y10.8348
G01 X61.0502 Y10.7582
G01 X61.1205 Y10.6799
G01 X61.1327 Y10.6646
G01 X61.1879 Y10.5868
G01 X61.1983 Y10.5702
G01 X61.2490 Y10.4780
G01 X61.2930 Y10.3717
G01 X61.3248 Y10.2612
G01 X61.3427 Y10.1575
G01 X61.3449 Y10.1380
G01 X61.3503 Y10.0428
G01 X61.3503 Y10.0232
G01 X61.3441 Y9.9182
G01 X61.3248 Y9.8048
G01 X61.2930 Y9.6943
G01 X61.2530 Y9.5970
G01 X61.2445 Y9.5793
G01 X61.1933 Y9.4874
G01 X61.1268 Y9.3936
G01 X61.0502 Y9.3078
G01 X60.9719 Y9.2375
G01 X60.9566 Y9.2253
G01 X60.8706 Y9.1647
G01 X60.7787 Y9.1135
G01 X60.7610 Y9.1050
G01 X60.6729 Y9.0685
G01 X60.6544 Y9.0620
G01 X60.5532 Y9.0332
G01 X60.4398 Y9.0139
G01 X60.3348 Y9.0077
G01 X60.3152 Y9.0077
G01 X60.2102 Y9.0139
G01 X60.1064 Y9.0313
G01 X60.0873 Y9.0356
G01 X59.9863 Y9.0650
G01 X59.8890 Y9.1050
G01 X59.8713 Y9.1135
G01 X59.7794 Y9.1647
G01 X59.6934 Y9.2253
G01 X59.6781 Y9.2375
G01 X59.5998 Y9.3078
G01 X59.5295 Y9.3861
G01 X59.5173 Y9.4014
G01 X59.4567 Y9.4874
G01 X59.4058 Y9.5789
G01 X59.1765 Y9.5789
G01 X59.1688 Y9.5669
G01 X59.1184 Y9.4963
G01 X59.0541 Y9.4243
G01 X58.9821 Y9.3600
G01 X58.9034 Y9.3042
G01 X58.8189 Y9.2575
G01 X58.7297 Y9.2205
G01 X58.6369 Y9.1938
G01 X58.5418 Y9.1776
G01 X58.4461 Y9.1723
G01 X57.1190 Y9.1723
G01 X57.0282 Y9.1776
G01 X56.9427 Y9.1919
G01 X56.9236 Y9.1963
G01 X56.8403 Y9.2205
G01 X56.7511 Y9.2575
G01 X56.6751 Y9.2992
G01 X56.6585 Y9.3096
G01 X56.5958 Y9.3541
G01 X56.5804 Y9.3664
G01 X56.5159 Y9.4243
G01 X56.4516 Y9.4963
G01 X56.3958 Y9.5750
G01 X56.3536 Y9.6508
G01 X56.3451 Y9.6685
G01 X56.3156 Y9.7395
G01 X56.3092 Y9.7581
G01 X56.2854 Y9.8415
G01 X56.2692 Y9.9366
G01 X56.2638 Y10.0330
G01 X56.2684 Y10.1196
G01 X56.2706 Y10.1391
G01 X56.2835 Y10.2149
G01 X56.2854 Y10.2245
G01 X56.2921 Y10.2487
G01 X54.9234 Y11.6174
G01 X54.8899 Y11.6548
G01 X54.8659 Y11.6882
G01 X54.8555 Y11.7048
G01 X54.8358 Y11.7409
G01 X54.8163 Y11.7880
G01 X54.8022 Y11.8369
G01 X54.7937 Y11.8871
G01 X54.7909 Y11.9373
G01 X54.7909 Y22.2789
G01 X53.3344 Y22.2789
G01 X53.2891 Y22.2817
G01 X53.2389 Y22.2902
G01 X53.1900 Y22.3043
G01 X53.1519 Y22.3198
G01 X53.1342 Y22.3283
G01 X53.0984 Y22.3484
G01 X53.0647 Y22.3720
G01 X53.0493 Y22.3843
G01 X53.0194 Y22.4114
G01 X51.2469 Y24.1839
G01 X46.7912 Y24.1839
G01 X46.8034 Y24.1108
G01 X46.8094 Y24.0030
G01 X46.8034 Y23.8952
G01 X46.7853 Y23.7888
G01 X46.7554 Y23.6851
G01 X46.7141 Y23.5854
G01 X46.6619 Y23.4910
G01 X46.6054 Y23.4108
G01 X46.5931 Y23.3954
G01 X46.5275 Y23.3225
G01 X46.4546 Y23.2569
G01 X46.4392 Y23.2446
G01 X46.3672 Y23.1935
G01 X46.3506 Y23.1831
G01 X46.2646 Y23.1359
G01 X46.1649 Y23.0946
G01 X46.0612 Y23.0647
G01 X45.9645 Y23.0480
G01 X45.9450 Y23.0458
G01 X45.8477 Y23.0406
G01 X44.3223 Y23.0406
G01 X44.2152 Y23.0466
G01 X44.1088 Y23.0647
G01 X44.0051 Y23.0946
G01 X43.9054 Y23.1359
G01 X43.8110 Y23.1881
G01 X43.7229 Y23.2505
G01 X43.6425 Y23.3225
G01 X43.5705 Y23.4029
G01 X43.5081 Y23.4910
G01 X43.4758 Y23.5489
G01 X36.3831 Y23.5489
G01 X34.7143 Y21.8801
G01 X34.7274 Y21.8486
G01 X34.7339 Y21.8301
G01 X34.7638 Y21.7261
G01 X34.7682 Y21.7070
G01 X34.7877 Y21.5906
G01 X34.7948 Y21.4630
G01 X34.7885 Y21.3452
G01 X34.7863 Y21.3257
G01 X34.7663 Y21.2094
G01 X34.7339 Y21.0959
G01 X34.7274 Y21.0774
G01 X34.6820 Y20.9684
G01 X34.6201 Y20.8566
G01 X34.5462 Y20.7523
G01 X34.4677 Y20.6641
G01 X34.4539 Y20.6503
G01 X34.3657 Y20.5718
G01 X34.2696 Y20.5033
G01 X34.2530 Y20.4929
G01 X34.1583 Y20.4405
G01 X34.1406 Y20.4320
G01 X34.1091 Y20.4190
G01 X34.1091 Y19.9670
G01 X34.1406 Y19.9540
G01 X34.1583 Y19.9455
G01 X34.2614 Y19.8881
G01 X34.3578 Y19.8201
G01 X34.3732 Y19.8078
G01 X34.4610 Y19.7290
G01 X34.5398 Y19.6412
G01 X34.5521 Y19.6258
G01 X34.6147 Y19.5376
G01 X34.6251 Y19.5210
G01 X34.6820 Y19.4176
G01 X34.7274 Y19.3086
G01 X34.7339 Y19.2901
G01 X34.7663 Y19.1766
G01 X34.7877 Y19.0506
G01 X34.7946 Y18.9328
G01 X34.7946 Y18.9132
G01 X34.7877 Y18.7954
G01 X34.7663 Y18.6694
G01 X34.7339 Y18.5559
G01 X34.7274 Y18.5374
G01 X34.6860 Y18.4374
G01 X34.6775 Y18.4197
G01 X34.6201 Y18.3166
G01 X34.5521 Y18.2202
G01 X34.5398 Y18.2048
G01 X34.4610 Y18.1170
G01 X34.3657 Y18.0318
G01 X34.2614 Y17.9579
G01 X34.1583 Y17.9005
G01 X34.1406 Y17.8920
G01 X34.1091 Y17.8790
G01 X34.1091 Y17.4270
G01 X34.1406 Y17.4140
G01 X34.1583 Y17.4055
G01 X34.2614 Y17.3481
G01 X34.3578 Y17.2801
G01 X34.3732 Y17.2678
G01 X34.4610 Y17.1890
G01 X34.5398 Y17.1012
G01 X34.5521 Y17.0858
G01 X34.6147 Y16.9976
G01 X34.6251 Y16.9810
G01 X34.6820 Y16.8776
G01 X34.7274 Y16.7686
G01 X34.7339 Y16.7501
G01 X34.7663 Y16.6366
G01 X34.7877 Y16.5106
G01 X34.7946 Y16.3928
G01 X34.7946 Y16.3732
G01 X34.7877 Y16.2554
G01 X34.7663 Y16.1294
G01 X34.7339 Y16.0159
G01 X34.7274 Y15.9974
G01 X34.6820 Y15.8884
G01 X34.6251 Y15.7850
G01 X34.6147 Y15.7684
G01 X34.5521 Y15.6802
G01 X34.5398 Y15.6648
G01 X34.4610 Y15.5770
G01 X34.3657 Y15.4918
G01 X34.2614 Y15.4179
G01 X34.1583 Y15.3605
G01 X34.1406 Y15.3520
G01 X34.1091 Y15.3390
G01 X34.1091 Y14.8870
G01 X34.1406 Y14.8740
G01 X34.1583 Y14.8655
G01 X34.2614 Y14.8081
G01 X34.3578 Y14.7401
G01 X34.3732 Y14.7278
G01 X34.4610 Y14.6490
G01 X34.5398 Y14.5612
G01 X34.5521 Y14.5458
G01 X34.6147 Y14.4576
G01 X34.6251 Y14.4410
G01 X34.6820 Y14.3376
G01 X34.7274 Y14.2286
G01 X34.7339 Y14.2101
G01 X34.7663 Y14.0966
G01 X34.7863 Y13.9803
G01 X34.7885 Y13.9608
G01 X34.7948 Y13.8430
G01 X34.7885 Y13.7252
G01 X34.7863 Y13.7057
G01 X34.7663 Y13.5894
G01 X34.7339 Y13.4759
G01 X34.7274 Y13.4574
G01 X34.6820 Y13.3484
G01 X34.6251 Y13.2450
G01 X34.6147 Y13.2284
G01 X34.5521 Y13.1402
G01 X34.5398 Y13.1248
G01 X34.4610 Y13.0370
G01 X34.3657 Y12.9518
G01 X34.2614 Y12.8779
G01 X34.1583 Y12.8205
G01 X34.1406 Y12.8120
G01 X34.1091 Y12.7990
G01 X34.1091 Y12.3470
G01 X34.1406 Y12.3340
G01 X34.1583 Y12.3255
G01 X34.2614 Y12.2681
G01 X34.3578 Y12.2001
G01 X34.3732 Y12.1878
G01 X34.4610 Y12.1090
G01 X34.5398 Y12.0212
G01 X34.5521 Y12.0058
G01 X34.6201 Y11.9094
G01 X34.6775 Y11.8063
G01 X34.6860 Y11.7886
G01 X34.7309 Y11.6795
G01 X34.7638 Y11.5661
G01 X34.7682 Y11.5470
G01 X34.7877 Y11.4306
G01 X34.7946 Y11.3128
G01 X34.7946 Y11.2932
G01 X34.7885 Y11.1852
G01 X34.7863 Y11.1657
G01 X34.7663 Y11.0494
G01 X34.7339 Y10.9359
G01 X34.7274 Y10.9174
G01 X34.6820 Y10.8084
G01 X34.6201 Y10.6966
G01 X34.5521 Y10.6002
G01 X34.5398 Y10.5848
G01 X34.4610 Y10.4970
G01 X34.3732 Y10.4182
G01 X34.3578 Y10.4059
G01 X34.2614 Y10.3379
G01 X34.1583 Y10.2805
G01 X34.1406 Y10.2720
G01 X34.1091 Y10.2590
G01 X34.1091 Y9.8070
G01 X34.1406 Y9.7940
G01 X34.1583 Y9.7855
G01 X34.2614 Y9.7281
G01 X34.3578 Y9.6601
G01 X34.3732 Y9.6478
G01 X34.4610 Y9.5690
G01 X34.5398 Y9.4812
G01 X34.5521 Y9.4658
G01 X34.6201 Y9.3694
G01 X34.6775 Y9.2663
G01 X34.6860 Y9.2486
G01 X34.7309 Y9.1395
G01 X34.7638 Y9.0261
G01 X34.7682 Y9.0070
G01 X34.7877 Y8.8906
G01 X34.7946 Y8.7728
G01 X34.7946 Y8.7532
G01 X34.7885 Y8.6452
G01 X34.7863 Y8.6257
G01 X34.7663 Y8.5094
G01 X34.7339 Y8.3959
G01 X34.7274 Y8.3774
G01 X34.6820 Y8.2684
G01 X34.6201 Y8.1566
G01 X34.5521 Y8.0602
G01 X34.5398 Y8.0448
G01 X34.4610 Y7.9570
G01 X34.3732 Y7.8782
G01 X34.3578 Y7.8659
G01 X34.2614 Y7.7979
G01 X34.1583 Y7.7405
G01 X34.1406 Y7.7320
G01 X34.1091 Y7.7190
G01 X34.1091 Y4.9523
G01 X34.1071 Y4.9119
G01 X34.1049 Y4.8924
G01 X34.0978 Y4.8519
G01 X34.0867 Y4.8124
G01 X34.0802 Y4.7938
G01 X34.0642 Y4.7559
G01 X34.0445 Y4.7198
G01 X34.0341 Y4.7032
G01 X34.0160 Y4.6777
G01 X34.0037 Y4.6623
G01 X33.9761 Y4.6319
G01 X33.9382 Y4.5979
G01 X33.8966 Y4.5684
G01 X33.8608 Y4.5483
G01 X33.8431 Y4.5398
G01 X33.8050 Y4.5243
G01 X33.7561 Y4.5102
G01 X33.7059 Y4.5017
G01 X33.6606 Y4.4989
G01 X31.8293 Y4.4989
G01 X31.8162 Y4.4672
G01 X31.8077 Y4.4495
G01 X31.7503 Y4.3463
G01 X31.6763 Y4.2420
G01 X31.5911 Y4.1467
G01 X31.5033 Y4.0678
G01 X31.4879 Y4.0556
G01 X31.3996 Y3.9929
G01 X31.3830 Y3.9825
G01 X31.2796 Y3.9256
G01 X31.1706 Y3.8802
G01 X31.1521 Y3.8737
G01 X31.0385 Y3.8413
G01 X30.9222 Y3.8212
G01 X30.9027 Y3.8190
G01 X30.7855 Y3.8127
G01 X28.9045 Y3.8127
G01 X28.7775 Y3.8199
G01 X28.6515 Y3.8413
G01 X28.5286 Y3.8767
G01 X28.4104 Y3.9256
G01 X28.2985 Y3.9875
G01 X28.1942 Y4.0615
G01 X28.0989 Y4.1467
G01 X28.0137 Y4.2420
G01 X27.9397 Y4.3463
G01 X27.8823 Y4.4495
G01 X27.8738 Y4.4672
G01 X27.8607 Y4.4989
G01 X27.0790 Y4.4989
G01 X27.0660 Y4.4674
G01 X27.0575 Y4.4497
G01 X27.0001 Y4.3466
G01 X26.9262 Y4.2423
G01 X26.8410 Y4.1470
G01 X26.7457 Y4.0618
G01 X26.6414 Y3.9879
G01 X26.5296 Y3.9260
G01 X26.4115 Y3.8771
G01 X26.2886 Y3.8417
G01 X26.1626 Y3.8203
G01 X26.0350 Y3.8132
G01 X25.9074 Y3.8203
G01 X25.7910 Y3.8398
G01 X25.7719 Y3.8442
G01 X25.6679 Y3.8741
G01 X25.6494 Y3.8806
G01 X25.5404 Y3.9260
G01 X25.4286 Y3.9879
G01 X25.3243 Y4.0618
G01 X25.2361 Y4.1403
G01 X25.2223 Y4.1541
G01 X25.1438 Y4.2423
G01 X25.0753 Y4.3384
G01 X25.0649 Y4.3550
G01 X25.0080 Y4.4584
G01 X24.9591 Y4.5765
G01 X24.9262 Y4.6899
G01 X24.9218 Y4.7090
G01 X24.9023 Y4.8254
G01 X24.8952 Y4.9530
G01 X24.9023 Y5.0806
G01 X24.9218 Y5.1970
G01 X24.9262 Y5.2161
G01 X24.9561 Y5.3201
G01 X24.9626 Y5.3386
G01 X24.9757 Y5.3701
G01 X13.1541 Y17.1916
G01 X13.1541 Y8.1273
G01 X13.1521 Y8.0869
G01 X13.1499 Y8.0674
G01 X13.1428 Y8.0269
G01 X13.1317 Y7.9874
G01 X13.1252 Y7.9688
G01 X13.1092 Y7.9309
G01 X13.0895 Y7.8948
G01 X13.0791 Y7.8782
G01 X13.0551 Y7.8448
G01 X13.0216 Y7.8074
G01 X12.3856 Y7.1714
G01 X12.3557 Y7.1443
G01 X12.3403 Y7.1320
G01 X12.3066 Y7.1084
G01 X12.2621 Y7.0838
G01 X12.2150 Y7.0643
G01 X12.1756 Y7.0527
G01 X12.1564 Y7.0483
G01 X12.1159 Y7.0417
G01 X12.0706 Y7.0389
G01 X11.8390 Y7.0389
G01 X11.8260 Y7.0074
G01 X11.8175 Y6.9897
G01 X11.7601 Y6.8866
G01 X11.6862 Y6.7823
G01 X11.6010 Y6.6870
G01 X11.5057 Y6.6018
G01 X11.4014 Y6.5279
G01 X11.2896 Y6.4660
G01 X11.1715 Y6.4171
G01 X11.0581 Y6.3842
G01 X11.0390 Y6.3798
G01 X10.9226 Y6.3603
G01 X10.8048 Y6.3534
G01 X10.7852 Y6.3534
G01 X10.6674 Y6.3603
G01 X10.5414 Y6.3817
G01 X10.4279 Y6.4141
G01 X10.4094 Y6.4206
G01 X10.3004 Y6.4660
G01 X10.1886 Y6.5279
G01 X10.0922 Y6.5959
G01 X10.0768 Y6.6082
G01 X9.9890 Y6.6870
G01 X9.9038 Y6.7823
G01 X9.8353 Y6.8784
G01 X9.8249 Y6.8950
G01 X9.7725 Y6.9897
G01 X9.7640 Y7.0074
G01 X9.7510 Y7.0389
G01 X8.9693 Y7.0389
G01 X8.9562 Y7.0072
G01 X8.9477 Y6.9895
G01 X8.8903 Y6.8863
G01 X8.8163 Y6.7820
G01 X8.7311 Y6.6867
G01 X8.6433 Y6.6078
G01 X8.6279 Y6.5956
G01 X8.5396 Y6.5329
G01 X8.5230 Y6.5225
G01 X8.4196 Y6.4656
G01 X8.3106 Y6.4202
G01 X8.2921 Y6.4137
G01 X8.1785 Y6.3813
G01 X8.0525 Y6.3599
G01 X7.9255 Y6.3527
G01 X6.0396 Y6.3528
G01 X5.9175 Y6.3599
G01 X5.7915 Y6.3813
G01 X5.6686 Y6.4167
G01 X5.5594 Y6.4616
G01 X5.5417 Y6.4701
G01 X5.4385 Y6.5275
G01 X5.3421 Y6.5956
G01 X5.3267 Y6.6078
G01 X5.2389 Y6.6867
G01 X5.1600 Y6.7745
G01 X5.1478 Y6.7899
G01 X5.0851 Y6.8782
G01 X5.0747 Y6.8948
G01 X5.0178 Y6.9982
G01 X4.9724 Y7.1072
G01 X4.9659 Y7.1257
G01 X4.9335 Y7.2393
G01 X4.9121 Y7.3653
G01 X4.9052 Y7.4832
G01 X4.9052 Y7.5028
G01 X4.9121 Y7.6207
G01 X4.9316 Y7.7371
G01 X4.9359 Y7.7562
G01 X4.9689 Y7.8696
G01 X5.0138 Y7.9788
G01 X5.0223 Y7.9965
G01 X5.0797 Y8.0997
G01 X5.1478 Y8.1961
G01 X5.1600 Y8.2115
G01 X5.2389 Y8.2993
G01 X5.3267 Y8.3782
G01 X5.3421 Y8.3904
G01 X5.4385 Y8.4585
G01 X5.5417 Y8.5159
G01 X5.5594 Y8.5244
G01 X5.6686 Y8.5693
G01 X5.7820 Y8.6023
G01 X5.8011 Y8.6066
G01 X5.9175 Y8.6261
G01 X6.0445 Y8.6333
G01 X7.9255 Y8.6333
G01 X8.0525 Y8.6261
G01 X8.1785 Y8.6047
G01 X8.3014 Y8.5693
G01 X8.4196 Y8.5204
G01 X8.5315 Y8.4585
G01 X8.6358 Y8.3845
G01 X8.7311 Y8.2993
G01 X8.8163 Y8.2040
G01 X8.8903 Y8.0997
G01 X8.9477 Y7.9965
G01 X8.9562 Y7.9788
G01 X8.9693 Y7.9471
G01 X9.7510 Y7.9471
G01 X9.7640 Y7.9786
G01 X9.7725 Y7.9963
G01 X9.8299 Y8.0994
G01 X9.9038 Y8.2037
G01 X9.9890 Y8.2990
G01 X10.0768 Y8.3778
G01 X10.0922 Y8.3901
G01 X10.1804 Y8.4527
G01 X10.1970 Y8.4631
G01 X10.3004 Y8.5200
G01 X10.4094 Y8.5654
G01 X10.4279 Y8.5719
G01 X10.5414 Y8.6043
G01 X10.6674 Y8.6257
G01 X10.7950 Y8.6328
G01 X10.9128 Y8.6265
G01 X10.9323 Y8.6243
G01 X11.0486 Y8.6043
G01 X11.1621 Y8.5719
G01 X11.1806 Y8.5654
G01 X11.2896 Y8.5200
G01 X11.3930 Y8.4631
G01 X11.4096 Y8.4527
G01 X11.4978 Y8.3901
G01 X11.5132 Y8.3778
G01 X11.6010 Y8.2990
G01 X11.6798 Y8.2112
G01 X11.6921 Y8.1958
G01 X11.7601 Y8.0994
G01 X11.8175 Y7.9963
G01 X11.8260 Y7.9786
G01 X11.8390 Y7.9471
G01 X11.8769 Y7.9471
G01 X12.2459 Y8.3161
G01 X12.2459 Y30.7999
G01 X10.6069 Y32.4389
G01 X4.7842 Y32.4389
G01 X4.7519 Y32.3810
G01 X4.6895 Y32.2929
G01 X4.6175 Y32.2125
G01 X4.5371 Y32.1405
G01 X4.4490 Y32.0781
G01 X4.3546 Y32.0259
G01 X4.2549 Y31.9846
G01 X4.1512 Y31.9547
G01 X4.0448 Y31.9366
G01 X3.9377 Y31.9306
G01 X2.4074 Y31.9307
G01 X2.3052 Y31.9366
G01 X2.2085 Y31.9528
G01 X2.1893 Y31.9572
G01 X2.0951 Y31.9846
G01 X1.9954 Y32.0259
G01 X1.9094 Y32.0731
G01 X1.8928 Y32.0835
G01 X1.8129 Y32.1405
G01 X1.7325 Y32.2125
G01 X1.6669 Y32.2854
G01 X1.6546 Y32.3008
G01 X1.5981 Y32.3810
G01 X1.5504 Y32.4667
G01 X1.5419 Y32.4844
G01 X1.5046 Y32.5751
G01 X1.4747 Y32.6788
G01 X1.4566 Y32.7852
G01 X1.4506 Y32.8930
G01 X1.4566 Y33.0008
G01 X1.4728 Y33.0975
G01 X1.4772 Y33.1167
G01 X1.5016 Y33.2015
G01 X1.5081 Y33.2200
G01 X1.5459 Y33.3106
G01 X1.5981 Y33.4050
G01 X1.6605 Y33.4931
G01 X1.7325 Y33.5735
G01 X1.8129 Y33.6455
G01 X1.8928 Y33.7025
G01 X1.9094 Y33.7129
G01 X1.9867 Y33.7556
G01 X2.0044 Y33.7641
G01 X2.0951 Y33.8014
G01 X2.1988 Y33.8313
G01 X2.3052 Y33.8494
G01 X2.4123 Y33.8554
G01 X3.9377 Y33.8554
G01 X4.0448 Y33.8494
G01 X4.1415 Y33.8332
G01 X4.1607 Y33.8288
G01 X4.2549 Y33.8014
G01 X4.3546 Y33.7601
G01 X4.4490 Y33.7079
G01 X4.5371 Y33.6455
G01 X4.6175 Y33.5735
G01 X4.6895 Y33.4931
G01 X4.7519 Y33.4050
G01 X4.7842 Y33.3471
G00 Z2.0000
G00 X2.4123 Y24.3106
G01 F30.00
G01 Z-0.0800
G01 F90.00
G01 X2.3052 Y24.3166
G01 X2.1988 Y24.3347
G01 X2.0951 Y24.3646
G01 X2.0044 Y24.4019
G01 X1.9867 Y24.4104
G01 X1.9094 Y24.4531
G01 X1.8928 Y24.4635
G01 X1.8129 Y24.5205
G01 X1.7325 Y24.5925
G01 X1.6605 Y24.6729
G01 X1.6035 Y24.7528
G01 X1.5931 Y24.7694
G01 X1.5504 Y24.8467
G01 X1.5419 Y24.8644
G01 X1.5046 Y24.9551
G01 X1.4747 Y25.0588
G01 X1.4566 Y25.1652
G01 X1.4509 Y25.2632
G01 X1.4509 Y25.2828
G01 X1.4558 Y25.3710
G01 X1.4580 Y25.3905
G01 X1.4747 Y25.4872
G01 X1.5046 Y25.5909
G01 X1.5459 Y25.6906
G01 X1.5931 Y25.7766
G01 X1.6035 Y25.7932
G01 X1.6546 Y25.8652
G01 X1.6669 Y25.8806
G01 X1.7325 Y25.9535
G01 X1.8129 Y26.0255
G01 X1.9010 Y26.0879
G01 X1.9867 Y26.1356
G01 X2.0044 Y26.1441
G01 X2.0860 Y26.1779
G01 X2.1045 Y26.1844
G01 X2.1988 Y26.2113
G01 X2.3052 Y26.2294
G01 X2.4123 Y26.2354
G01 X3.9377 Y26.2354
G01 X4.0448 Y26.2294
G01 X4.1415 Y26.2132
G01 X4.1607 Y26.2088
G01 X4.2549 Y26.1814
G01 X4.3546 Y26.1401
G01 X4.4490 Y26.0879
G01 X4.5371 Y26.0255
G01 X4.6175 Y25.9535
G01 X4.6895 Y25.8731
G01 X4.7519 Y25.7850
G01 X4.7842 Y25.7271
G01 X5.0007 Y25.7271
G01 X5.0138 Y25.7588
G01 X5.0223 Y25.7765
G01 X5.0797 Y25.8797
G01 X5.1537 Y25.9840
G01 X5.2389 Y26.0793
G01 X5.3342 Y26.1645
G01 X5.4385 Y26.2385
G01 X5.5504 Y26.3004
G01 X5.6686 Y26.3493
G01 X5.7915 Y26.3847
G01 X5.9175 Y26.4061
G01 X6.0445 Y26.4133
G01 X7.9255 Y26.4133
G01 X8.0427 Y26.4070
G01 X8.0622 Y26.4048
G01 X8.1785 Y26.3847
G01 X8.2921 Y26.3523
G01 X8.3106 Y26.3458
G01 X8.4196 Y26.3004
G01 X8.5230 Y26.2435
G01 X8.5396 Y26.2331
G01 X8.6279 Y26.1704
G01 X8.6433 Y26.1582
G01 X8.7311 Y26.0793
G01 X8.8163 Y25.9840
G01 X8.8903 Y25.8797
G01 X8.9477 Y25.7765
G01 X8.9562 Y25.7588
G01 X8.9693 Y25.7271
G01 X9.7510 Y25.7271
G01 X9.7640 Y25.7586
G01 X9.7725 Y25.7763
G01 X9.8299 Y25.8794
G01 X9.8979 Y25.9758
G01 X9.9102 Y25.9912
G01 X9.9890 Y26.0790
G01 X10.0768 Y26.1578
G01 X10.0922 Y26.1701
G01 X10.1804 Y26.2327
G01 X10.1970 Y26.2431
G01 X10.3004 Y26.3000
G01 X10.4094 Y26.3454
G01 X10.4279 Y26.3519
G01 X10.5414 Y26.3843
G01 X10.6577 Y26.4043
G01 X10.6772 Y26.4065
G01 X10.7950 Y26.4128
G01 X10.9226 Y26.4057
G01 X11.0486 Y26.3843
G01 X11.1621 Y26.3519
G01 X11.1806 Y26.3454
G01 X11.2896 Y26.3000
G01 X11.4014 Y26.2381
G01 X11.4978 Y26.1701
G01 X11.5132 Y26.1578
G01 X11.6010 Y26.0790
G01 X11.6798 Y25.9912
G01 X11.6921 Y25.9758
G01 X11.7601 Y25.8794
G01 X11.8220 Y25.7676
G01 X11.8709 Y25.6495
G01 X11.9038 Y25.5361
G01 X11.9082 Y25.5170
G01 X11.9277 Y25.4006
G01 X11.9348 Y25.2730
G01 X11.9277 Y25.1454
G01 X11.9063 Y25.0194
G01 X11.8739 Y24.9059
G01 X11.8674 Y24.8874
G01 X11.8260 Y24.7874
G01 X11.8175 Y24.7697
G01 X11.7601 Y24.6666
G01 X11.6862 Y24.5623
G01 X11.6010 Y24.4670
G01 X11.5057 Y24.3818
G01 X11.4014 Y24.3079
G01 X11.2983 Y24.2505
G01 X11.2806 Y24.2420
G01 X11.1806 Y24.2006
G01 X11.1621 Y24.1941
G01 X11.0486 Y24.1617
G01 X10.9226 Y24.1403
G01 X10.7950 Y24.1332
G01 X10.6772 Y24.1395
G01 X10.6577 Y24.1417
G01 X10.5414 Y24.1617
G01 X10.4279 Y24.1941
G01 X10.4094 Y24.2006
G01 X10.3004 Y24.2460
G01 X10.1970 Y24.3029
G01 X10.1804 Y24.3133
G01 X10.0922 Y24.3759
G01 X10.0768 Y24.3882
G01 X9.9890 Y24.4670
G01 X9.9102 Y24.5548
G01 X9.8979 Y24.5702
G01 X9.8299 Y24.6666
G01 X9.7725 Y24.7697
G01 X9.7640 Y24.7874
G01 X9.7510 Y24.8189
G01 X8.9693 Y24.8189
G01 X8.9562 Y24.7872
G01 X8.9477 Y24.7695
G01 X8.8903 Y24.6663
G01 X8.8163 Y24.5620
G01 X8.7311 Y24.4667
G01 X8.6433 Y24.3878
G01 X8.6279 Y24.3756
G01 X8.5396 Y24.3129
G01 X8.5230 Y24.3025
G01 X8.4196 Y24.2456
G01 X8.3106 Y24.2002
G01 X8.2921 Y24.1937
G01 X8.1785 Y24.1613
G01 X8.0622 Y24.1412
G01 X8.0427 Y24.1390
G01 X7.9255 Y24.1327
G01 X6.0445 Y24.1327
G01 X5.9175 Y24.1399
G01 X5.7915 Y24.1613
G01 X5.6686 Y24.1967
G01 X5.5504 Y24.2456
G01 X5.4385 Y24.3075
G01 X5.3342 Y24.3815
G01 X5.2389 Y24.4667
G01 X5.1537 Y24.5620
G01 X5.0797 Y24.6663
G01 X5.0223 Y24.7695
G01 X5.0138 Y24.7872
G01 X5.0007 Y24.8189
G01 X4.7842 Y24.8189
G01 X4.7519 Y24.7610
G01 X4.6895 Y24.6729
G01 X4.6175 Y24.5925
G01 X4.5371 Y24.5205
G01 X4.4490 Y24.4581
G01 X4.3546 Y24.4059
G01 X4.2549 Y24.3646
G01 X4.1607 Y24.3372
G01 X4.1415 Y24.3328
G01 X4.0448 Y24.3166
G01 X3.9377 Y24.3106
G01 X2.4123 Y24.3106
G00 Z2.0000
G00 X4.7842 Y23.1871
G01 F30.00
G01 Z-0.0800
G01 F90.00
G01 X5.0007 Y23.1871
G01 X5.0138 Y23.2188
G01 X5.0223 Y23.2365
G01 X5.0797 Y23.3397
G01 X5.1537 Y23.4440
G01 X5.2389 Y23.5393
G01 X5.3267 Y23.6182
G01 X5.3421 Y23.6304
G01 X5.4304 Y23.6931
G01 X5.4470 Y23.7035
G01 X5.5504 Y23.7604
G01 X5.6594 Y23.8058
G01 X5.6779 Y23.8123
G01 X5.7915 Y23.8447
G01 X5.9175 Y23.8661
G01 X6.0445 Y23.8733
G01 X7.9255 Y23.8733
G01 X8.0525 Y23.8661
G01 X8.1689 Y23.8466
G01 X8.1880 Y23.8423
G01 X8.3014 Y23.8093
G01 X8.4196 Y23.7604
G01 X8.5315 Y23.6985
G01 X8.6358 Y23.6245
G01 X8.7311 Y23.5393
G01 X8.8163 Y23.4440
G01 X8.8903 Y23.3397
G01 X8.9477 Y23.2365
G01 X8.9562 Y23.2188
G01 X8.9693 Y23.1871
G01 X9.7510 Y23.1871
G01 X9.7640 Y23.2186
G01 X9.7725 Y23.2363
G01 X9.8299 Y23.3394
G01 X9.8979 Y23.4358
G01 X9.9102 Y23.4512
G01 X9.9890 Y23.5390
G01 X10.0768 Y23.6178
G01 X10.0922 Y23.6301
G01 X10.1804 Y23.6927
G01 X10.1970 Y23.7031
G01 X10.3004 Y23.7600
G01 X10.4094 Y23.8054
G01 X10.4279 Y23.8119
G01 X10.5414 Y23.8443
G01 X10.6577 Y23.8643
G01 X10.6772 Y23.8665
G01 X10.7950 Y23.8728
G01 X10.9128 Y23.8665
G01 X10.9323 Y23.8643
G01 X11.0486 Y23.8443
G01 X11.1621 Y23.8119
G01 X11.1806 Y23.8054
G01 X11.2806 Y23.7640
G01 X11.2983 Y23.7555
G01 X11.4014 Y23.6981
G01 X11.5057 Y23.6242
G01 X11.6010 Y23.5390
G01 X11.6862 Y23.4437
G01 X11.7601 Y23.3394
G01 X11.8175 Y23.2363
G01 X11.8260 Y23.2186
G01 X11.8674 Y23.1186
G01 X11.8739 Y23.1001
G01 X11.9063 Y22.9866
G01 X11.9277 Y22.8606
G01 X11.9348 Y22.7330
G01 X11.9285 Y22.6152
G01 X11.9263 Y22.5957
G01 X11.9082 Y22.4890
G01 X11.9038 Y22.4699
G01 X11.8709 Y22.3565
G01 X11.8220 Y22.2384
G01 X11.7601 Y22.1266
G01 X11.6921 Y22.0302
G01 X11.6798 Y22.0148
G01 X11.6077 Y21.9341
G01 X11.5939 Y21.9203
G01 X11.5057 Y21.8418
G01 X11.4014 Y21.7679
G01 X11.2896 Y21.7060
G01 X11.1806 Y21.6606
G01 X11.1621 Y21.6541
G01 X11.0581 Y21.6242
G01 X11.0390 Y21.6198
G01 X10.9226 Y21.6003
G01 X10.7950 Y21.5932
G01 X10.6674 Y21.6003
G01 X10.5510 Y21.6198
G01 X10.5319 Y21.6242
G01 X10.4185 Y21.6571
G01 X10.3094 Y21.7020
G01 X10.2917 Y21.7105
G01 X10.1886 Y21.7679
G01 X10.0922 Y21.8359
G01 X10.0768 Y21.8482
G01 X9.9890 Y21.9270
G01 X9.9102 Y22.0148
G01 X9.8979 Y22.0302
G01 X9.8299 Y22.1266
G01 X9.7725 Y22.2297
G01 X9.7640 Y22.2474
G01 X9.7510 Y22.2789
G01 X8.9693 Y22.2789
G01 X8.9562 Y22.2472
G01 X8.9477 Y22.2295
G01 X8.8903 Y22.1263
G01 X8.8163 Y22.0220
G01 X8.7311 Y21.9267
G01 X8.6433 Y21.8478
G01 X8.6279 Y21.8356
G01 X8.5396 Y21.7729
G01 X8.5230 Y21.7625
G01 X8.4196 Y21.7056
G01 X8.3106 Y21.6602
G01 X8.2921 Y21.6537
G01 X8.1785 Y21.6213
G01 X8.0622 Y21.6012
G01 X8.0427 Y21.5990
G01 X7.9255 Y21.5927
G01 X6.0445 Y21.5927
G01 X5.9175 Y21.5999
G01 X5.7915 Y21.6213
G01 X5.6686 Y21.6567
G01 X5.5504 Y21.7056
G01 X5.4385 Y21.7675
G01 X5.3342 Y21.8415
G01 X5.2389 Y21.9267
G01 X5.1537 Y22.0220
G01 X5.0797 Y22.1263
G01 X5.0223 Y22.2295
G01 X5.0138 Y22.2472
G01 X5.0007 Y22.2789
G01 X4.7842 Y22.2789
G01 X4.7519 Y22.2210
G01 X4.6895 Y22.1329
G01 X4.6175 Y22.0525
G01 X4.5371 Y21.9805
G01 X4.4490 Y21.9181
G01 X4.3546 Y21.8659
G01 X4.2549 Y21.8246
G01 X4.1607 Y21.7972
G01 X4.1415 Y21.7928
G01 X4.0448 Y21.7766
G01 X3.9377 Y21.7706
G01 X2.4123 Y21.7706
G01 X2.3052 Y21.7766
G01 X2.2085 Y21.7928
G01 X2.1893 Y21.7972
G01 X2.0951 Y21.8246
G01 X2.0044 Y21.8619
G01 X1.9867 Y21.8704
G01 X1.9010 Y21.9181
G01 X1.8208 Y21.9746
G01 X1.8054 Y21.9869
G01 X1.7325 Y22.0525
G01 X1.6669 Y22.1254
G01 X1.6546 Y22.1408
G01 X1.5981 Y22.2210
G01 X1.5459 Y22.3154
G01 X1.5081 Y22.4060
G01 X1.5016 Y22.4245
G01 X1.4747 Y22.5188
G01 X1.4566 Y22.6252
G01 X1.4509 Y22.7232
G01 X1.4509 Y22.7428
G01 X1.4558 Y22.8310
G01 X1.4580 Y22.8505
G01 X1.4747 Y22.9472
G01 X1.5046 Y23.0509
G01 X1.5459 Y23.1506
G01 X1.5981 Y23.2450
G01 X1.6605 Y23.3331
G01 X1.7257 Y23.4064
G01 X1.7396 Y23.4203
G01 X1.8054 Y23.4791
G01 X1.8208 Y23.4914
G01 X1.9010 Y23.5479
G01 X1.9954 Y23.6001
G01 X2.0951 Y23.6414
G01 X2.1988 Y23.6713
G01 X2.3052 Y23.6894
G01 X2.4123 Y23.6954
G01 X3.9377 Y23.6954
G01 X4.0448 Y23.6894
G01 X4.1415 Y23.6732
G01 X4.1607 Y23.6688
G01 X4.2549 Y23.6414
G01 X4.3546 Y23.6001
G01 X4.4490 Y23.5479
G01 X4.5371 Y23.4855
G01 X4.6175 Y23.4135
G01 X4.6895 Y23.3331
G01 X4.7519 Y23.2450
G01 X4.7842 Y23.1871
G00 Z2.0000
G00 X2.4123 Y19.2306
G01 F30.00
G01 Z-0.0800
G01 F90.00
G01 X2.3052 Y19.2366
G01 X2.1988 Y19.2547
G01 X2.0951 Y19.2846
G01 X2.0044 Y19.3219
G01 X1.9867 Y19.3304
G01 X1.9094 Y19.3731
G01 X1.8928 Y19.3835
G01 X1.8129 Y19.4405
G01 X1.7325 Y19.5125
G01 X1.6605 Y19.5929
G01 X1.6035 Y19.6728
G01 X1.5931 Y19.6894
G01 X1.5504 Y19.7667
G01 X1.5419 Y19.7844
G01 X1.5046 Y19.8751
G01 X1.4747 Y19.9788
G01 X1.4566 Y20.0852
G01 X1.4509 Y20.1832
G01 X1.4509 Y20.2028
G01 X1.4558 Y20.2910
G01 X1.4580 Y20.3105
G01 X1.4747 Y20.4072
G01 X1.5046 Y20.5109
G01 X1.5459 Y20.6106
G01 X1.5931 Y20.6966
G01 X1.6035 Y20.7132
G01 X1.6546 Y20.7852
G01 X1.6669 Y20.8006
G01 X1.7325 Y20.8735
G01 X1.8129 Y20.9455
G01 X1.9010 Y21.0079
G01 X1.9867 Y21.0556
G01 X2.0044 Y21.0641
G01 X2.0860 Y21.0979
G01 X2.1045 Y21.1044
G01 X2.1988 Y21.1313
G01 X2.3052 Y21.1494
G01 X2.4123 Y21.1554
G01 X3.9377 Y21.1554
G01 X4.0448 Y21.1494
G01 X4.1415 Y21.1332
G01 X4.1607 Y21.1288
G01 X4.2549 Y21.1014
G01 X4.3546 Y21.0601
G01 X4.4490 Y21.0079
G01 X4.5371 Y20.9455
G01 X4.6175 Y20.8735
G01 X4.6895 Y20.7931
G01 X4.7519 Y20.7050
G01 X4.7842 Y20.6471
G01 X5.0007 Y20.6471
G01 X5.0138 Y20.6788
G01 X5.0223 Y20.6965
G01 X5.0797 Y20.7997
G01 X5.1537 Y20.9040
G01 X5.2389 Y20.9993
G01 X5.3342 Y21.0845
G01 X5.4385 Y21.1585
G01 X5.5504 Y21.2204
G01 X5.6686 Y21.2693
G01 X5.7915 Y21.3047
G01 X5.9175 Y21.3261
G01 X6.0445 Y21.3333
G01 X7.9255 Y21.3333
G01 X8.0427 Y21.3270
G01 X8.0622 Y21.3248
G01 X8.1785 Y21.3047
G01 X8.2921 Y21.2723
G01 X8.3106 Y21.2658
G01 X8.4196 Y21.2204
G01 X8.5230 Y21.1635
G01 X8.5396 Y21.1531
G01 X8.6279 Y21.0904
G01 X8.6433 Y21.0782
G01 X8.7311 Y20.9993
G01 X8.8163 Y20.9040
G01 X8.8903 Y20.7997
G01 X8.9477 Y20.6965
G01 X8.9562 Y20.6788
G01 X8.9693 Y20.6471
G01 X9.7510 Y20.6471
G01 X9.7640 Y20.6786
G01 X9.7725 Y20.6963
G01 X9.8299 Y20.7994
G01 X9.8979 Y20.8958
G01 X9.9102 Y20.9112
G01 X9.9890 Y20.9990
G01 X10.0768 Y21.0778
G01 X10.0922 Y21.0901
G01 X10.1804 Y21.1527
G01 X10.1970 Y21.1631
G01 X10.3004 Y21.2200
G01 X10.4094 Y21.2654
G01 X10.4279 Y21.2719
G01 X10.5414 Y21.3043
G01 X10.6577 Y21.3243
G01 X10.6772 Y21.3265
G01 X10.7950 Y21.3328
G01 X10.9226 Y21.3257
G01 X11.0486 Y21.3043
G01 X11.1621 Y21.2719
G01 X11.1806 Y21.2654
G01 X11.2896 Y21.2200
G01 X11.4014 Y21.1581
G01 X11.4978 Y21.0901
G01 X11.5132 Y21.0778
G01 X11.6010 Y20.9990
G01 X11.6798 Y20.9112
G01 X11.6921 Y20.8958
G01 X11.7601 Y20.7994
G01 X11.8220 Y20.6876
G01 X11.8709 Y20.5695
G01 X11.9038 Y20.4561
G01 X11.9082 Y20.4370
G01 X11.9277 Y20.3206
G01 X11.9348 Y20.1930
G01 X11.9277 Y20.0654
G01 X11.9063 Y19.9394
G01 X11.8739 Y19.8259
G01 X11.8674 Y19.8074
G01 X11.8260 Y19.7074
G01 X11.8175 Y19.6897
G01 X11.7601 Y19.5866
G01 X11.6862 Y19.4823
G01 X11.6010 Y19.3870
G01 X11.5057 Y19.3018
G01 X11.4014 Y19.2279
G01 X11.2983 Y19.1705
G01 X11.2806 Y19.1620
G01 X11.1806 Y19.1206
G01 X11.1621 Y19.1141
G01 X11.0486 Y19.0817
G01 X10.9226 Y19.0603
G01 X10.7950 Y19.0532
G01 X10.6772 Y19.0595
G01 X10.6577 Y19.0617
G01 X10.5414 Y19.0817
G01 X10.4279 Y19.1141
G01 X10.4094 Y19.1206
G01 X10.3004 Y19.1660
G01 X10.1970 Y19.2229
G01 X10.1804 Y19.2333
G01 X10.0922 Y19.2959
G01 X10.0768 Y19.3082
G01 X9.9890 Y19.3870
G01 X9.9102 Y19.4748
G01 X9.8979 Y19.4902
G01 X9.8299 Y19.5866
G01 X9.7725 Y19.6897
G01 X9.7640 Y19.7074
G01 X9.7510 Y19.7389
G01 X8.9693 Y19.7389
G01 X8.9562 Y19.7072
G01 X8.9477 Y19.6895
G01 X8.8903 Y19.5863
G01 X8.8163 Y19.4820
G01 X8.7311 Y19.3867
G01 X8.6433 Y19.3078
G01 X8.6279 Y19.2956
G01 X8.5396 Y19.2329
G01 X8.5230 Y19.2225
G01 X8.4196 Y19.1656
G01 X8.3106 Y19.1202
G01 X8.2921 Y19.1137
G01 X8.1785 Y19.0813
G01 X8.0622 Y19.0612
G01 X8.0427 Y19.0590
G01 X7.9255 Y19.0527
G01 X6.0445 Y19.0527
G01 X5.9175 Y19.0599
G01 X5.7915 Y19.0813
G01 X5.6686 Y19.1167
G01 X5.5504 Y19.1656
G01 X5.4385 Y19.2275
G01 X5.3342 Y19.3015
G01 X5.2389 Y19.3867
G01 X5.1537 Y19.4820
G01 X5.0797 Y19.5863
G01 X5.0223 Y19.6895
G01 X5.0138 Y19.7072
G01 X5.0007 Y19.7389
G01 X4.7842 Y19.7389
G01 X4.7519 Y19.6810
G01 X4.6895 Y19.5929
G01 X4.6175 Y19.5125
G01 X4.5371 Y19.4405
G01 X4.4490 Y19.3781
G01 X4.3546 Y19.3259
G01 X4.2549 Y19.2846
G01 X4.1607 Y19.2572
G01 X4.1415 Y19.2528
G01 X4.0448 Y19.2366
G01 X3.9377 Y19.2306
G01 X2.4123 Y19.2306
G00 Z2.0000
G00 X2.4123 Y19.0806
G01 F30.00
G01 Z-0.0800
G01 F90.00
G01 X2.3066 Y19.0860
G01 X2.2884 Y19.0876
G01 X2.1833 Y19.1049
G01 X2.1655 Y19.1085
G01 X2.1478 Y19.1130
G01 X2.0456 Y19.1430
G01 X1.9470 Y19.1833
G01 X1.9303 Y19.1907
G01 X1.9141 Y19.1991
G01 X1.8212 Y19.2511
G01 X1.7340 Y19.3123
G01 X1.7194 Y19.3233
G01 X1.7055 Y19.3350
G01 X1.6396 Y19.3939
G01 X1.6264 Y19.4064
G01 X1.6139 Y19.4196
G01 X1.5433 Y19.4994
G01 X1.4812 Y19.5860
G01 X1.4711 Y19.6012
G01 X1.4618 Y19.6169
G01 X1.4107 Y19.7103
G01 X1.3695 Y19.8086
G01 X1.3630 Y19.8256
G01 X1.3575 Y19.8430
G01 X1.3285 Y19.9455
G01 X1.3101 Y20.0504
G01 X1.3076 Y20.0684
G01 X1.3060 Y20.0866
G01 X1.3006 Y20.1930
G01 X1.3011 Y20.2112
G01 X1.3076 Y20.3176
G01 X1.3249 Y20.4227
G01 X1.3285 Y20.4405
G01 X1.3330 Y20.4582
G01 X1.3630 Y20.5604
G01 X1.4033 Y20.6590
G01 X1.4107 Y20.6757
G01 X1.4618 Y20.7691
G01 X1.4711 Y20.7848
G01 X1.4812 Y20.8000
G01 X1.5433 Y20.8866
G01 X1.6139 Y20.9664
G01 X1.6264 Y20.9796
G01 X1.6396 Y20.9921
G01 X1.7194 Y21.0627
G01 X1.8060 Y21.1248
G01 X1.8212 Y21.1349
G01 X1.8369 Y21.1442
G01 X1.9303 Y21.1953
G01 X2.0286 Y21.2365
G01 X2.0456 Y21.2430
G01 X2.1478 Y21.2730
G01 X2.1655 Y21.2775
G01 X2.2704 Y21.2959
G01 X2.2884 Y21.2984
G01 X2.3066 Y21.3000
G01 X2.4123 Y21.3054
G01 X3.9377 Y21.3054
G01 X4.0434 Y21.3000
G01 X4.0616 Y21.2984
G01 X4.1667 Y21.2811
G01 X4.1845 Y21.2775
G01 X4.2870 Y21.2485
G01 X4.3044 Y21.2430
G01 X4.4030 Y21.2027
G01 X4.4197 Y21.1953
G01 X4.5131 Y21.1442
G01 X4.5288 Y21.1349
G01 X4.5440 Y21.1248
G01 X4.6306 Y21.0627
G01 X4.6445 Y21.0510
G01 X4.7236 Y20.9796
G01 X4.7950 Y20.9005
G01 X4.8067 Y20.8866
G01 X4.8707 Y20.7971
G01 X4.9066 Y20.7971
G01 X4.9527 Y20.8795
G01 X5.0254 Y20.9829
G01 X5.0364 Y20.9975
G01 X5.0482 Y21.0114
G01 X5.1328 Y21.1054
G01 X5.2268 Y21.1900
G01 X5.2407 Y21.2018
G01 X5.2553 Y21.2128
G01 X5.3587 Y21.2855
G01 X5.4692 Y21.3472
G01 X5.4854 Y21.3555
G01 X5.5020 Y21.3630
G01 X5.6020 Y21.4044
G01 X5.6190 Y21.4109
G01 X5.6364 Y21.4164
G01 X5.7581 Y21.4510
G01 X5.8259 Y21.4630
G01 X5.7581 Y21.4750
G01 X5.6364 Y21.5096
G01 X5.6190 Y21.5151
G01 X5.6020 Y21.5216
G01 X5.5020 Y21.5630
G01 X5.4854 Y21.5705
G01 X5.4692 Y21.5788
G01 X5.3587 Y21.6405
G01 X5.2553 Y21.7132
G01 X5.2407 Y21.7242
G01 X5.2268 Y21.7360
G01 X5.1328 Y21.8206
G01 X5.0482 Y21.9146
G01 X5.0364 Y21.9285
G01 X5.0254 Y21.9431
G01 X4.9527 Y22.0465
G01 X4.9066 Y22.1289
G01 X4.8707 Y22.1289
G01 X4.8067 Y22.0394
G01 X4.7950 Y22.0255
G01 X4.7236 Y21.9464
G01 X4.6445 Y21.8750
G01 X4.6306 Y21.8633
G01 X4.5440 Y21.8012
G01 X4.5288 Y21.7911
G01 X4.5131 Y21.7818
G01 X4.4197 Y21.7307
G01 X4.4030 Y21.7233
G01 X4.3044 Y21.6830
G01 X4.2870 Y21.6775
G01 X4.1845 Y21.6485
G01 X4.1667 Y21.6449
G01 X4.0616 Y21.6276
G01 X4.0434 Y21.6260
G01 X3.9377 Y21.6206
G01 X2.4123 Y21.6206
G01 X2.3941 Y21.6211
G01 X2.2884 Y21.6276
G01 X2.1833 Y21.6449
G01 X2.1655 Y21.6485
G01 X2.1478 Y21.6530
G01 X2.0456 Y21.6830
G01 X1.9470 Y21.7233
G01 X1.9303 Y21.7307
G01 X1.9141 Y21.7391
G01 X1.8212 Y21.7911
G01 X1.7340 Y21.8523
G01 X1.7194 Y21.8633
G01 X1.6396 Y21.9339
G01 X1.6264 Y21.9464
G01 X1.6139 Y21.9596
G01 X1.5433 Y22.0394
G01 X1.4812 Y22.1260
G01 X1.4711 Y22.1412
G01 X1.4191 Y22.2341
G01 X1.4107 Y22.2503
G01 X1.4033 Y22.2670
G01 X1.3630 Y22.3656
G01 X1.3330 Y22.4678
G01 X1.3285 Y22.4855
G01 X1.3249 Y22.5033
G01 X1.3101 Y22.5904
G01 X1.3076 Y22.6084
G01 X1.3060 Y22.6266
G01 X1.3006 Y22.7330
G01 X1.3060 Y22.8394
G01 X1.3076 Y22.8576
G01 X1.3101 Y22.8756
G01 X1.3285 Y22.9805
G01 X1.3575 Y23.0830
G01 X1.3630 Y23.1004
G01 X1.4033 Y23.1990
G01 X1.4107 Y23.2157
G01 X1.4618 Y23.3091
G01 X1.4711 Y23.3248
G01 X1.4812 Y23.3400
G01 X1.5433 Y23.4266
G01 X1.6139 Y23.5064
G01 X1.6264 Y23.5196
G01 X1.6396 Y23.5321
G01 X1.7194 Y23.6027
G01 X1.8060 Y23.6648
G01 X1.8212 Y23.6749
G01 X1.8369 Y23.6842
G01 X1.9141 Y23.7269
G01 X1.9303 Y23.7353
G01 X1.9470 Y23.7427
G01 X2.0456 Y23.7830
G01 X2.1478 Y23.8130
G01 X2.1655 Y23.8175
G01 X2.1833 Y23.8211
G01 X2.2884 Y23.8384
G01 X2.4032 Y23.8453
G01 X3.9377 Y23.8454
G01 X4.0434 Y23.8400
G01 X4.0616 Y23.8384
G01 X4.1667 Y23.8211
G01 X4.1845 Y23.8175
G01 X4.2870 Y23.7885
G01 X4.3044 Y23.7830
G01 X4.4030 Y23.7427
G01 X4.4197 Y23.7353
G01 X4.4359 Y23.7269
G01 X4.5288 Y23.6749
G01 X4.5440 Y23.6648
G01 X4.6306 Y23.6027
G01 X4.7104 Y23.5321
G01 X4.7236 Y23.5196
G01 X4.7361 Y23.5064
G01 X4.8067 Y23.4266
G01 X4.8707 Y23.3371
G01 X4.9066 Y23.3371
G01 X4.9527 Y23.4195
G01 X5.0254 Y23.5229
G01 X5.0364 Y23.5375
G01 X5.0482 Y23.5514
G01 X5.1328 Y23.6454
G01 X5.2268 Y23.7300
G01 X5.2407 Y23.7418
G01 X5.2553 Y23.7528
G01 X5.3587 Y23.8255
G01 X5.4692 Y23.8872
G01 X5.4854 Y23.8955
G01 X5.5020 Y23.9030
G01 X5.6020 Y23.9444
G01 X5.6190 Y23.9509
G01 X5.6364 Y23.9564
G01 X5.7581 Y23.9910
G01 X5.8259 Y24.0030
G01 X5.7581 Y24.0150
G01 X5.6364 Y24.0496
G01 X5.6190 Y24.0551
G01 X5.6020 Y24.0616
G01 X5.5020 Y24.1030
G01 X5.4854 Y24.1105
G01 X5.4692 Y24.1188
G01 X5.3587 Y24.1805
G01 X5.2553 Y24.2532
G01 X5.2407 Y24.2642
G01 X5.2268 Y24.2760
G01 X5.1328 Y24.3606
G01 X5.0482 Y24.4546
G01 X5.0364 Y24.4685
G01 X5.0254 Y24.4831
G01 X4.9527 Y24.5865
G01 X4.9066 Y24.6689
G01 X4.8707 Y24.6689
G01 X4.8067 Y24.5794
G01 X4.7950 Y24.5655
G01 X4.7236 Y24.4864
G01 X4.6445 Y24.4150
G01 X4.6306 Y24.4033
G01 X4.5440 Y24.3412
G01 X4.5288 Y24.3311
G01 X4.5131 Y24.3218
G01 X4.4197 Y24.2707
G01 X4.4030 Y24.2633
G01 X4.3044 Y24.2230
G01 X4.2870 Y24.2175
G01 X4.1845 Y24.1885
G01 X4.0796 Y24.1701
G01 X4.0616 Y24.1676
G01 X4.0434 Y24.1660
G01 X3.9377 Y24.1606
G01 X2.4032 Y24.1607
G01 X2.2884 Y24.1676
G01 X2.1833 Y24.1849
G01 X2.1655 Y24.1885
G01 X2.1478 Y24.1930
G01 X2.0630 Y24.2175
G01 X2.0456 Y24.2230
G01 X2.0286 Y24.2295
G01 X1.9303 Y24.2707
G01 X1.8369 Y24.3218
G01 X1.8212 Y24.3311
G01 X1.7340 Y24.3923
G01 X1.7194 Y24.4033
G01 X1.6396 Y24.4739
G01 X1.6264 Y24.4864
G01 X1.6139 Y24.4996
G01 X1.5433 Y24.5794
G01 X1.4812 Y24.6660
G01 X1.4711 Y24.6812
G01 X1.4191 Y24.7741
G01 X1.4107 Y24.7903
G01 X1.3695 Y24.8886
G01 X1.3630 Y24.9056
G01 X1.3575 Y24.9230
G01 X1.3330 Y25.0078
G01 X1.3285 Y25.0255
G01 X1.3249 Y25.0433
G01 X1.3076 Y25.1484
G01 X1.3011 Y25.2548
G01 X1.3006 Y25.2730
G01 X1.3011 Y25.2912
G01 X1.3076 Y25.3976
G01 X1.3249 Y25.5027
G01 X1.3285 Y25.5205
G01 X1.3575 Y25.6230
G01 X1.3630 Y25.6404
G01 X1.4033 Y25.7390
G01 X1.4107 Y25.7557
G01 X1.4191 Y25.7719
G01 X1.4711 Y25.8648
G01 X1.5323 Y25.9520
G01 X1.5433 Y25.9666
G01 X1.5550 Y25.9805
G01 X1.6264 Y26.0596
G01 X1.7055 Y26.1310
G01 X1.7194 Y26.1427
G01 X1.7340 Y26.1537
G01 X1.8212 Y26.2149
G01 X1.8369 Y26.2242
G01 X1.9303 Y26.2753
G01 X2.0286 Y26.3165
G01 X2.0456 Y26.3230
G01 X2.0630 Y26.3285
G01 X2.1655 Y26.3575
G01 X2.2704 Y26.3759
G01 X2.2884 Y26.3784
G01 X2.3066 Y26.3800
G01 X2.4032 Y26.3853
G01 X3.9468 Y26.3853
G01 X4.0616 Y26.3784
G01 X4.1667 Y26.3611
G01 X4.1845 Y26.3575
G01 X4.2870 Y26.3285
G01 X4.3044 Y26.3230
G01 X4.4030 Y26.2827
G01 X4.4197 Y26.2753
G01 X4.4359 Y26.2669
G01 X4.5288 Y26.2149
G01 X4.5440 Y26.2048
G01 X4.6306 Y26.1427
G01 X4.6445 Y26.1310
G01 X4.7236 Y26.0596
G01 X4.7950 Y25.9805
G01 X4.8067 Y25.9666
G01 X4.8707 Y25.8771
G01 X4.9066 Y25.8771
G01 X4.9527 Y25.9595
G01 X5.0254 Y26.0629
G01 X5.0364 Y26.0775
G01 X5.0482 Y26.0914
G01 X5.1328 Y26.1854
G01 X5.2268 Y26.2700
G01 X5.2407 Y26.2818
G01 X5.2553 Y26.2928
G01 X5.3587 Y26.3655
G01 X5.4692 Y26.4272
G01 X5.4854 Y26.4355
G01 X5.5020 Y26.4430
G01 X5.6020 Y26.4844
G01 X5.6190 Y26.4909
G01 X5.6364 Y26.4964
G01 X5.7581 Y26.5310
G01 X5.8259 Y26.5430
G01 X5.7581 Y26.5550
G01 X5.6364 Y26.5896
G01 X5.6190 Y26.5951
G01 X5.6020 Y26.6016
G01 X5.5020 Y26.6430
G01 X5.4854 Y26.6505
G01 X5.4692 Y26.6588
G01 X5.3587 Y26.7205
G01 X5.2553 Y26.7932
G01 X5.2407 Y26.8042
G01 X5.2268 Y26.8160
G01 X5.1328 Y26.9006
G01 X5.0482 Y26.9946
G01 X5.0364 Y27.0085
G01 X5.0254 Y27.0231
G01 X4.9527 Y27.1265
G01 X4.9066 Y27.2089
G01 X4.8707 Y27.2089
G01 X4.8067 Y27.1194
G01 X4.7950 Y27.1055
G01 X4.7236 Y27.0264
G01 X4.6445 Y26.9550
G01 X4.6306 Y26.9433
G01 X4.5440 Y26.8812
G01 X4.5288 Y26.8711
G01 X4.5131 Y26.8618
G01 X4.4197 Y26.8107
G01 X4.4030 Y26.8033
G01 X4.3044 Y26.7630
G01 X4.2870 Y26.7575
G01 X4.1845 Y26.7285
G01 X4.0796 Y26.7101
G01 X4.0616 Y26.7076
G01 X4.0434 Y26.7060
G01 X3.9377 Y26.7006
G01 X2.4032 Y26.7007
G01 X2.2884 Y26.7076
G01 X2.1833 Y26.7249
G01 X2.1655 Y26.7285
G01 X2.1478 Y26.7330
G01 X2.0456 Y26.7630
G01 X2.0286 Y26.7695
G01 X1.9303 Y26.8107
G01 X1.8369 Y26.8618
G01 X1.8212 Y26.8711
G01 X1.8060 Y26.8812
G01 X1.7340 Y26.9323
G01 X1.7194 Y26.9433
G01 X1.7055 Y26.9550
G01 X1.6264 Y27.0264
G01 X1.6139 Y27.0396
G01 X1.5433 Y27.1194
G01 X1.4812 Y27.2060
G01 X1.4711 Y27.2212
G01 X1.4191 Y27.3141
G01 X1.4107 Y27.3303
G01 X1.4033 Y27.3470
G01 X1.3630 Y27.4456
G01 X1.3575 Y27.4630
G01 X1.3285 Y27.5655
G01 X1.3249 Y27.5833
G01 X1.3076 Y27.6884
G01 X1.3011 Y27.7948
G01 X1.3006 Y27.8130
G01 X1.3011 Y27.8312
G01 X1.3060 Y27.9194
G01 X1.3076 Y27.9376
G01 X1.3101 Y27.9556
G01 X1.3285 Y28.0605
G01 X1.3575 Y28.1630
G01 X1.3630 Y28.1804
G01 X1.4033 Y28.2790
G01 X1.4107 Y28.2957
G01 X1.4618 Y28.3891
G01 X1.4711 Y28.4048
G01 X1.4812 Y28.4200
G01 X1.5323 Y28.4920
G01 X1.5433 Y28.5066
G01 X1.5550 Y28.5205
G01 X1.6264 Y28.5996
G01 X1.7055 Y28.6710
G01 X1.7194 Y28.6827
G01 X1.7340 Y28.6937
G01 X1.8212 Y28.7549
G01 X1.8369 Y28.7642
G01 X1.9303 Y28.8153
G01 X2.0286 Y28.8565
G01 X2.0456 Y28.8630
G01 X2.1478 Y28.8930
G01 X2.1655 Y28.8975
G01 X2.1833 Y28.9011
G01 X2.2884 Y28.9184
G01 X2.3066 Y28.9200
G01 X2.4123 Y28.9254
G01 X3.9377 Y28.9254
G01 X4.0434 Y28.9200
G01 X4.0616 Y28.9184
G01 X4.1667 Y28.9011
G01 X4.1845 Y28.8975
G01 X4.2022 Y28.8930
G01 X4.2870 Y28.8685
G01 X4.3044 Y28.8630
G01 X4.3214 Y28.8565
G01 X4.4197 Y28.8153
G01 X4.5131 Y28.7642
G01 X4.5288 Y28.7549
G01 X4.5440 Y28.7448
G01 X4.6306 Y28.6827
G01 X4.6445 Y28.6710
G01 X4.7236 Y28.5996
G01 X4.7950 Y28.5205
G01 X4.8067 Y28.5066
