(G-CODE GENERATED BY FLATCAM v8.909 - www.flatcam.org - Version Date: 2019/02/16)

(Name: copper_bottom.gbr_iso_cnc)
(Type: G-code from Geometry)
(Units: MM)

(Created on Tuesday, 05 March 2019 at 17:38)

(TOOL DIAMETER: 0.2 mm)
(Feedrate: 90.0 mm/min)
(Feedrate_Z: 30.0 mm/min)
(Feedrate rapids 90.0 mm/min)

(Z_Cut: -0.08 mm)
(Z_Move: 2.0 mm)
(Z Toolchange: 2.0 mm)
(X,Y Toolchange: 0.0000, 0.0000 mm)
(Z Start: None mm)
(Z End: 2.0 mm)
(Steps per circle: 64)
(Postprocessor Geometry: default)

(X range:   -0.2191 ...   66.2591  mm)
(Y range:    0.8727 ...   36.9221  mm)

(Spindle Speed: 800 RPM)

G21
G90
G94

G01 F90.00
G00 Z2.0000

M03 S800
G00 X6.0445 Y3.7127
G01 F30.00
G01 Z-0.0800
G01 F90.00
G01 X5.9063 Y3.7205
G01 X5.7843 Y3.7408
G01 X5.7543 Y3.7476
G01 X5.6503 Y3.7776
G01 X5.6211 Y3.7878
G01 X5.5070 Y3.8355
G01 X5.3853 Y3.9028
G01 X5.2719 Y3.9833
G01 X5.1794 Y4.0654
G01 X5.1576 Y4.0872
G01 X5.0854 Y4.1679
G01 X5.0662 Y4.1920
G01 X4.9950 Y4.2931
G01 X4.9277 Y4.4148
G01 X4.8800 Y4.5289
G01 X4.8698 Y4.5581
G01 X4.8360 Y4.6770
G01 X4.8127 Y4.8141
G01 X4.8053 Y4.9376
G01 X4.8053 Y4.9684
G01 X4.8127 Y5.0919
G01 X4.8360 Y5.2290
G01 X4.8745 Y5.3626
G01 X4.9214 Y5.4771
G01 X4.9348 Y5.5049
G01 X4.9872 Y5.5996
G01 X5.0036 Y5.6257
G01 X5.0755 Y5.7263
G01 X5.1682 Y5.8300
G01 X5.2719 Y5.9227
G01 X5.3725 Y5.9946
G01 X5.3986 Y6.0110
G01 X5.4933 Y6.0634
G01 X5.5211 Y6.0768
G01 X5.6356 Y6.1237
G01 X5.7692 Y6.1622
G01 X5.9063 Y6.1855
G01 X6.0445 Y6.1933
G01 X7.9255 Y6.1933
G01 X8.0483 Y6.1868
G01 X8.0789 Y6.1834
G01 X8.2008 Y6.1622
G01 X8.3344 Y6.1237
G01 X8.4630 Y6.0705
G01 X8.5714 Y6.0110
G01 X8.5975 Y5.9946
G01 X8.6981 Y5.9227
G01 X8.7906 Y5.8406
G01 X8.8124 Y5.8188
G01 X8.8846 Y5.7381
G01 X8.9038 Y5.7140
G01 X8.9750 Y5.6129
G01 X9.0339 Y5.5071
G01 X9.6864 Y5.5071
G01 X9.7452 Y5.6126
G01 X9.8164 Y5.7137
G01 X9.8356 Y5.7378
G01 X9.9183 Y5.8297
G01 X10.0102 Y5.9124
G01 X10.0343 Y5.9316
G01 X10.1354 Y6.0028
G01 X10.2433 Y6.0630
G01 X10.2711 Y6.0764
G01 X10.3711 Y6.1178
G01 X10.4002 Y6.1279
G01 X10.5191 Y6.1618
G01 X10.6409 Y6.1829
G01 X10.6716 Y6.1863
G01 X10.7950 Y6.1928
G01 X10.9184 Y6.1863
G01 X10.9491 Y6.1829
G01 X11.0709 Y6.1618
G01 X11.1898 Y6.1279
G01 X11.2189 Y6.1178
G01 X11.3329 Y6.0701
G01 X11.4413 Y6.0106
G01 X11.4675 Y5.9942
G01 X11.5680 Y5.9223
G01 X11.6605 Y5.8403
G01 X11.6823 Y5.8185
G01 X11.7643 Y5.7260
G01 X11.8362 Y5.6255
G01 X11.8526 Y5.5993
G01 X11.9121 Y5.4909
G01 X11.9598 Y5.3769
G01 X11.9699 Y5.3478
G01 X12.0038 Y5.2289
G01 X12.0270 Y5.0918
G01 X12.0348 Y4.9530
G01 X12.0270 Y4.8142
G01 X12.0068 Y4.6922
G01 X11.9999 Y4.6622
G01 X11.9699 Y4.5582
G01 X11.9598 Y4.5291
G01 X11.9121 Y4.4151
G01 X11.8448 Y4.2934
G01 X11.7643 Y4.1800
G01 X11.6823 Y4.0875
G01 X11.6605 Y4.0657
G01 X11.5798 Y3.9936
G01 X11.5557 Y3.9744
G01 X11.4546 Y3.9032
G01 X11.3329 Y3.8359
G01 X11.2045 Y3.7827
G01 X11.0709 Y3.7442
G01 X10.9338 Y3.7210
G01 X10.8104 Y3.7136
G01 X10.7796 Y3.7136
G01 X10.6562 Y3.7210
G01 X10.5191 Y3.7442
G01 X10.4002 Y3.7781
G01 X10.3711 Y3.7882
G01 X10.2571 Y3.8359
G01 X10.1354 Y3.9032
G01 X10.0343 Y3.9744
G01 X10.0102 Y3.9936
G01 X9.9183 Y4.0763
G01 X9.8356 Y4.1682
G01 X9.8164 Y4.1923
G01 X9.7452 Y4.2934
G01 X9.6864 Y4.3989
G01 X9.0339 Y4.3989
G01 X8.9750 Y4.2931
G01 X8.8945 Y4.1797
G01 X8.8018 Y4.0760
G01 X8.6981 Y3.9833
G01 X8.5847 Y3.9028
G01 X8.4630 Y3.8355
G01 X8.3344 Y3.7823
G01 X8.2008 Y3.7438
G01 X8.0637 Y3.7205
G01 X7.9332 Y3.7128
G01 X6.0445 Y3.7127
G00 Z2.0000
G00 X6.0445 Y3.8127
G01 F30.00
G01 Z-0.0800
G01 F90.00
G01 X5.9175 Y3.8199
G01 X5.8011 Y3.8394
G01 X5.7820 Y3.8437
G01 X5.6779 Y3.8737
G01 X5.6594 Y3.8802
G01 X5.5504 Y3.9256
G01 X5.4385 Y3.9875
G01 X5.3342 Y4.0615
G01 X5.2460 Y4.1399
G01 X5.2321 Y4.1538
G01 X5.1600 Y4.2345
G01 X5.1478 Y4.2499
G01 X5.0797 Y4.3463
G01 X5.0178 Y4.4582
G01 X4.9724 Y4.5672
G01 X4.9659 Y4.5857
G01 X4.9335 Y4.6993
G01 X4.9121 Y4.8253
G01 X4.9052 Y4.9432
G01 X4.9052 Y4.9628
G01 X4.9121 Y5.0807
G01 X4.9335 Y5.2067
G01 X4.9689 Y5.3296
G01 X5.0138 Y5.4388
G01 X5.0223 Y5.4565
G01 X5.0747 Y5.5512
G01 X5.0851 Y5.5678
G01 X5.1537 Y5.6640
G01 X5.2389 Y5.7593
G01 X5.3342 Y5.8445
G01 X5.4304 Y5.9131
G01 X5.4470 Y5.9235
G01 X5.5417 Y5.9759
G01 X5.5594 Y5.9844
G01 X5.6686 Y6.0293
G01 X5.7915 Y6.0647
G01 X5.9175 Y6.0861
G01 X6.0445 Y6.0933
G01 X7.9255 Y6.0933
G01 X8.0427 Y6.0870
G01 X8.0622 Y6.0848
G01 X8.1785 Y6.0647
G01 X8.2921 Y6.0323
G01 X8.3106 Y6.0258
G01 X8.4106 Y5.9844
G01 X8.4283 Y5.9759
G01 X8.5315 Y5.9185
G01 X8.6279 Y5.8504
G01 X8.6433 Y5.8382
G01 X8.7311 Y5.7593
G01 X8.8163 Y5.6640
G01 X8.8903 Y5.5597
G01 X8.9477 Y5.4565
G01 X8.9562 Y5.4388
G01 X8.9693 Y5.4071
G01 X9.7510 Y5.4071
G01 X9.7640 Y5.4386
G01 X9.7725 Y5.4563
G01 X9.8299 Y5.5594
G01 X9.8979 Y5.6558
G01 X9.9102 Y5.6712
G01 X9.9890 Y5.7590
G01 X10.0768 Y5.8378
G01 X10.0922 Y5.8501
G01 X10.1804 Y5.9127
G01 X10.1970 Y5.9231
G01 X10.3004 Y5.9800
G01 X10.4094 Y6.0254
G01 X10.4279 Y6.0319
G01 X10.5414 Y6.0643
G01 X10.6674 Y6.0857
G01 X10.7852 Y6.0926
G01 X10.8048 Y6.0926
G01 X10.9226 Y6.0857
G01 X11.0486 Y6.0643
G01 X11.1621 Y6.0319
G01 X11.1806 Y6.0254
G01 X11.2896 Y5.9800
G01 X11.3930 Y5.9231
G01 X11.4096 Y5.9127
G01 X11.5057 Y5.8442
G01 X11.5939 Y5.7657
G01 X11.6077 Y5.7519
G01 X11.6862 Y5.6637
G01 X11.7547 Y5.5676
G01 X11.7651 Y5.5510
G01 X11.8220 Y5.4476
G01 X11.8674 Y5.3386
G01 X11.8739 Y5.3201
G01 X11.9063 Y5.2066
G01 X11.9277 Y5.0806
G01 X11.9348 Y4.9530
G01 X11.9277 Y4.8254
G01 X11.9082 Y4.7090
G01 X11.9038 Y4.6899
G01 X11.8739 Y4.5859
G01 X11.8674 Y4.5674
G01 X11.8220 Y4.4584
G01 X11.7601 Y4.3466
G01 X11.6862 Y4.2423
G01 X11.6077 Y4.1541
G01 X11.5939 Y4.1403
G01 X11.5132 Y4.0682
G01 X11.4978 Y4.0559
G01 X11.4014 Y3.9879
G01 X11.2896 Y3.9260
G01 X11.1715 Y3.8771
G01 X11.0486 Y3.8417
G01 X10.9226 Y3.8203
G01 X10.8048 Y3.8134
G01 X10.7852 Y3.8134
G01 X10.6674 Y3.8203
G01 X10.5414 Y3.8417
G01 X10.4279 Y3.8741
G01 X10.4094 Y3.8806
G01 X10.3004 Y3.9260
G01 X10.1886 Y3.9879
G01 X10.0922 Y4.0559
G01 X10.0768 Y4.0682
G01 X9.9890 Y4.1470
G01 X9.9038 Y4.2423
G01 X9.8353 Y4.3384
G01 X9.8249 Y4.3550
G01 X9.7725 Y4.4497
G01 X9.7640 Y4.4674
G01 X9.7510 Y4.4989
G01 X8.9693 Y4.4989
G01 X8.9562 Y4.4672
G01 X8.9477 Y4.4495
G01 X8.8903 Y4.3463
G01 X8.8163 Y4.2420
G01 X8.7311 Y4.1467
G01 X8.6358 Y4.0615
G01 X8.5315 Y3.9875
G01 X8.4196 Y3.9256
G01 X8.3014 Y3.8767
G01 X8.1785 Y3.8413
G01 X8.0525 Y3.8199
G01 X7.9255 Y3.8127
G01 X6.0445 Y3.8127
G00 Z2.0000
G00 X7.9255 Y3.6533
G01 F30.00
G01 Z-0.0800
G01 F90.00
G01 X8.0483 Y3.6468
G01 X8.0789 Y3.6434
G01 X8.2008 Y3.6222
G01 X8.3197 Y3.5884
G01 X8.3489 Y3.5782
G01 X8.4630 Y3.5305
G01 X8.5847 Y3.4632
G01 X8.6981 Y3.3827
G01 X8.7906 Y3.3006
G01 X8.8124 Y3.2788
G01 X8.8846 Y3.1981
G01 X8.9038 Y3.1740
G01 X8.9750 Y3.0729
G01 X9.0339 Y2.9671
G01 X9.6864 Y2.9671
G01 X9.7452 Y3.0726
G01 X9.8257 Y3.1860
G01 X9.9183 Y3.2897
G01 X10.0220 Y3.3823
G01 X10.1354 Y3.4628
G01 X10.2571 Y3.5301
G01 X10.3855 Y3.5833
G01 X10.5191 Y3.6218
G01 X10.6409 Y3.6429
G01 X10.6716 Y3.6463
G01 X10.7950 Y3.6528
G01 X10.9338 Y3.6450
G01 X11.0558 Y3.6248
G01 X11.0858 Y3.6179
G01 X11.2045 Y3.5833
G01 X11.3189 Y3.5364
G01 X11.3467 Y3.5230
G01 X11.4546 Y3.4628
G01 X11.5557 Y3.3916
G01 X11.5798 Y3.3724
G01 X11.6605 Y3.3003
G01 X11.6823 Y3.2785
G01 X11.7643 Y3.1860
G01 X11.8448 Y3.0726
G01 X11.9121 Y2.9509
G01 X11.9653 Y2.8225
G01 X12.0038 Y2.6889
G01 X12.0249 Y2.5671
G01 X12.0283 Y2.5364
G01 X12.0344 Y2.4284
G01 X12.0344 Y2.3976
G01 X12.0270 Y2.2742
G01 X12.0038 Y2.1371
G01 X11.9653 Y2.0035
G01 X11.9184 Y1.8891
G01 X11.9050 Y1.8613
G01 X11.8448 Y1.7534
G01 X11.7736 Y1.6523
G01 X11.7544 Y1.6282
G01 X11.6717 Y1.5363
G01 X11.5798 Y1.4536
G01 X11.5557 Y1.4344
G01 X11.4546 Y1.3632
G01 X11.3467 Y1.3030
G01 X11.3189 Y1.2896
G01 X11.2045 Y1.2427
G01 X11.0858 Y1.2081
G01 X11.0558 Y1.2012
G01 X10.9338 Y1.1810
G01 X10.7950 Y1.1732
G01 X10.6562 Y1.1810
G01 X10.5342 Y1.2012
G01 X10.5042 Y1.2081
G01 X10.3855 Y1.2427
G01 X10.2711 Y1.2896
G01 X10.2433 Y1.3030
G01 X10.1354 Y1.3632
G01 X10.0220 Y1.4437
G01 X9.9295 Y1.5257
G01 X9.9077 Y1.5475
G01 X9.8356 Y1.6282
G01 X9.8164 Y1.6523
G01 X9.7452 Y1.7534
G01 X9.6864 Y1.8589
G01 X9.0339 Y1.8589
G01 X8.9750 Y1.7531
G01 X8.9038 Y1.6520
G01 X8.8846 Y1.6279
G01 X8.8124 Y1.5472
G01 X8.7906 Y1.5254
G01 X8.6981 Y1.4433
G01 X8.5847 Y1.3628
G01 X8.4630 Y1.2955
G01 X8.3489 Y1.2478
G01 X8.3197 Y1.2376
G01 X8.2008 Y1.2038
G01 X8.0789 Y1.1826
G01 X8.0483 Y1.1792
G01 X7.9332 Y1.1728
G01 X6.0445 Y1.1727
G01 X5.9063 Y1.1805
G01 X5.7843 Y1.2008
G01 X5.7543 Y1.2076
G01 X5.6503 Y1.2376
G01 X5.6211 Y1.2478
G01 X5.5070 Y1.2955
G01 X5.3986 Y1.3550
G01 X5.3725 Y1.3714
G01 X5.2719 Y1.4433
G01 X5.1682 Y1.5360
G01 X5.0755 Y1.6397
G01 X4.9950 Y1.7531
G01 X4.9277 Y1.8748
G01 X4.8745 Y2.0034
G01 X4.8360 Y2.1370
G01 X4.8148 Y2.2589
G01 X4.8114 Y2.2895
G01 X4.8053 Y2.3976
G01 X4.8053 Y2.4284
G01 X4.8127 Y2.5519
G01 X4.8360 Y2.6890
G01 X4.8745 Y2.8226
G01 X4.9277 Y2.9512
G01 X4.9950 Y3.0729
G01 X5.0662 Y3.1740
G01 X5.0854 Y3.1981
G01 X5.1576 Y3.2788
G01 X5.1794 Y3.3006
G01 X5.2719 Y3.3827
G01 X5.3853 Y3.4632
G01 X5.5070 Y3.5305
G01 X5.6356 Y3.5837
G01 X5.7692 Y3.6222
G01 X5.8911 Y3.6434
G01 X5.9217 Y3.6468
G01 X6.0445 Y3.6533
G01 X7.9255 Y3.6533
G00 Z2.0000
G00 X7.9255 Y3.5533
G01 F30.00
G01 Z-0.0800
G01 F90.00
G01 X8.0427 Y3.5470
G01 X8.0622 Y3.5448
G01 X8.1785 Y3.5247
G01 X8.2921 Y3.4923
G01 X8.3106 Y3.4858
G01 X8.4196 Y3.4404
G01 X8.5315 Y3.3785
G01 X8.6279 Y3.3104
G01 X8.6433 Y3.2982
G01 X8.7311 Y3.2193
G01 X8.8100 Y3.1315
G01 X8.8222 Y3.1161
G01 X8.8903 Y3.0197
G01 X8.9477 Y2.9165
G01 X8.9562 Y2.8988
G01 X8.9693 Y2.8671
G01 X9.7510 Y2.8671
G01 X9.7640 Y2.8986
G01 X9.7725 Y2.9163
G01 X9.8249 Y3.0110
G01 X9.8353 Y3.0276
G01 X9.9038 Y3.1237
G01 X9.9890 Y3.2190
G01 X10.0843 Y3.3042
G01 X10.1804 Y3.3727
G01 X10.1970 Y3.3831
G01 X10.2917 Y3.4355
G01 X10.3094 Y3.4440
G01 X10.4185 Y3.4889
G01 X10.5414 Y3.5243
G01 X10.6674 Y3.5457
G01 X10.7852 Y3.5526
G01 X10.8048 Y3.5526
G01 X10.9226 Y3.5457
G01 X11.0390 Y3.5262
G01 X11.0581 Y3.5218
G01 X11.1621 Y3.4919
G01 X11.1806 Y3.4854
G01 X11.2896 Y3.4400
G01 X11.4014 Y3.3781
G01 X11.5057 Y3.3042
G01 X11.5939 Y3.2257
G01 X11.6077 Y3.2119
G01 X11.6798 Y3.1312
G01 X11.6921 Y3.1158
G01 X11.7601 Y3.0194
G01 X11.8220 Y2.9076
G01 X11.8709 Y2.7895
G01 X11.9063 Y2.6666
G01 X11.9277 Y2.5406
G01 X11.9346 Y2.4228
G01 X11.9346 Y2.4032
G01 X11.9277 Y2.2854
G01 X11.9082 Y2.1690
G01 X11.9038 Y2.1499
G01 X11.8739 Y2.0459
G01 X11.8674 Y2.0274
G01 X11.8220 Y1.9184
G01 X11.7651 Y1.8150
G01 X11.7547 Y1.7984
G01 X11.6862 Y1.7023
G01 X11.6077 Y1.6141
G01 X11.5939 Y1.6003
G01 X11.5057 Y1.5218
G01 X11.4096 Y1.4533
G01 X11.3930 Y1.4429
G01 X11.2896 Y1.3860
G01 X11.1806 Y1.3406
G01 X11.1621 Y1.3341
G01 X11.0486 Y1.3017
G01 X10.9323 Y1.2817
G01 X10.9128 Y1.2795
G01 X10.8048 Y1.2734
G01 X10.7852 Y1.2734
G01 X10.6674 Y1.2803
G01 X10.5510 Y1.2998
G01 X10.5319 Y1.3042
G01 X10.4185 Y1.3371
G01 X10.3094 Y1.3820
G01 X10.2917 Y1.3905
G01 X10.1886 Y1.4479
G01 X10.0922 Y1.5159
G01 X10.0768 Y1.5282
G01 X9.9890 Y1.6070
G01 X9.9102 Y1.6948
G01 X9.8979 Y1.7102
G01 X9.8299 Y1.8066
G01 X9.7725 Y1.9097
G01 X9.7640 Y1.9274
G01 X9.7510 Y1.9589
G01 X8.9693 Y1.9589
G01 X8.9562 Y1.9272
G01 X8.9477 Y1.9095
G01 X8.8903 Y1.8063
G01 X8.8222 Y1.7099
G01 X8.8100 Y1.6945
G01 X8.7311 Y1.6067
G01 X8.6433 Y1.5278
G01 X8.6279 Y1.5156
G01 X8.5315 Y1.4475
G01 X8.4196 Y1.3856
G01 X8.3106 Y1.3402
G01 X8.2921 Y1.3337
G01 X8.1785 Y1.3013
G01 X8.0622 Y1.2812
G01 X8.0427 Y1.2790
G01 X7.9304 Y1.2728
G01 X6.0445 Y1.2727
G01 X5.9175 Y1.2799
G01 X5.8011 Y1.2994
G01 X5.7820 Y1.3037
G01 X5.6779 Y1.3337
G01 X5.6594 Y1.3402
G01 X5.5504 Y1.3856
G01 X5.4470 Y1.4425
G01 X5.4304 Y1.4529
G01 X5.3342 Y1.5215
G01 X5.2389 Y1.6067
G01 X5.1537 Y1.7020
G01 X5.0797 Y1.8063
G01 X5.0178 Y1.9182
G01 X4.9689 Y2.0364
G01 X4.9335 Y2.1593
G01 X4.9134 Y2.2756
G01 X4.9112 Y2.2951
G01 X4.9052 Y2.4032
G01 X4.9052 Y2.4228
G01 X4.9121 Y2.5407
G01 X4.9335 Y2.6667
G01 X4.9689 Y2.7896
G01 X5.0178 Y2.9078
G01 X5.0797 Y3.0197
G01 X5.1478 Y3.1161
G01 X5.1600 Y3.1315
G01 X5.2321 Y3.2122
G01 X5.2460 Y3.2261
G01 X5.3342 Y3.3045
G01 X5.4385 Y3.3785
G01 X5.5504 Y3.4404
G01 X5.6686 Y3.4893
G01 X5.7915 Y3.5247
G01 X5.9078 Y3.5448
G01 X5.9273 Y3.5470
G01 X6.0445 Y3.5533
G01 X7.9255 Y3.5533
G00 Z2.0000
G00 X8.3521 Y3.6830
G01 F30.00
G01 Z-0.0800
G01 F90.00
G01 X8.3675 Y3.6781
G01 X8.3871 Y3.6706
G01 X8.4871 Y3.6292
G01 X8.5063 Y3.6206
G01 X8.5250 Y3.6109
G01 X8.6379 Y3.5479
G01 X8.6554 Y3.5362
G01 X8.7605 Y3.4609
G01 X8.8573 Y3.3752
G01 X8.8725 Y3.3607
G01 X8.9591 Y3.2647
G01 X8.9727 Y3.2487
G01 X8.9853 Y3.2319
G01 X9.0597 Y3.1261
G01 X9.0929 Y3.0671
G01 X9.6274 Y3.0671
G01 X9.6498 Y3.1077
G01 X9.6605 Y3.1258
G01 X9.6722 Y3.1433
G01 X9.7348 Y3.2316
G01 X9.7475 Y3.2484
G01 X9.7610 Y3.2644
G01 X9.8476 Y3.3604
G01 X9.8629 Y3.3749
G01 X9.9596 Y3.4605
G01 X10.0647 Y3.5358
G01 X10.0822 Y3.5475
G01 X10.1950 Y3.6105
G01 X10.2137 Y3.6202
G01 X10.2329 Y3.6287
G01 X10.3328 Y3.6702
G01 X10.3525 Y3.6777
G01 X10.3693 Y3.6830
G01 X10.3525 Y3.6883
G01 X10.3328 Y3.6958
G01 X10.2329 Y3.7373
G01 X10.2137 Y3.7458
G01 X10.1950 Y3.7555
G01 X10.0822 Y3.8185
G01 X9.9764 Y3.8928
G01 X9.9596 Y3.9055
G01 X9.8629 Y3.9911
G01 X9.8476 Y4.0056
G01 X9.7610 Y4.1016
G01 X9.7475 Y4.1176
G01 X9.7348 Y4.1344
G01 X9.6722 Y4.2227
G01 X9.6605 Y4.2402
G01 X9.6498 Y4.2583
G01 X9.6274 Y4.2989
G01 X9.0929 Y4.2989
G01 X9.0597 Y4.2399
G01 X9.0480 Y4.2224
G01 X8.9727 Y4.1173
G01 X8.9591 Y4.1013
G01 X8.8725 Y4.0053
G01 X8.8573 Y3.9908
G01 X8.7605 Y3.9051
G01 X8.7437 Y3.8925
G01 X8.6379 Y3.8181
G01 X8.5250 Y3.7551
G01 X8.5063 Y3.7454
G01 X8.4871 Y3.7368
G01 X8.3871 Y3.6954
G01 X8.3675 Y3.6879
G01 X8.3521 Y3.6830
G00 Z2.0000
G00 X8.6013 Y3.6830
G01 F30.00
G01 Z-0.0800
G01 F90.00
G01 X8.6681 Y3.6461
G01 X8.6911 Y3.6325
G01 X8.7132 Y3.6177
G01 X8.8015 Y3.5551
G01 X8.8228 Y3.5391
G01 X8.8432 Y3.5219
G01 X8.9239 Y3.4498
G01 X8.9433 Y3.4315
G01 X8.9616 Y3.4121
G01 X9.0337 Y3.3314
G01 X9.0509 Y3.3110
G01 X9.0669 Y3.2897
G01 X9.1295 Y3.2014
G01 X9.1443 Y3.1793
G01 X9.1515 Y3.1671
G01 X9.5688 Y3.1671
G01 X9.5759 Y3.1790
G01 X9.5907 Y3.2012
G01 X9.6533 Y3.2894
G01 X9.6693 Y3.3107
G01 X9.6865 Y3.3311
G01 X9.7586 Y3.4118
G01 X9.7769 Y3.4311
G01 X9.7962 Y3.4494
G01 X9.8769 Y3.5215
G01 X9.8973 Y3.5387
G01 X9.9186 Y3.5547
G01 X10.0068 Y3.6173
G01 X10.0290 Y3.6321
G01 X10.0519 Y3.6457
G01 X10.1194 Y3.6830
G01 X10.0519 Y3.7203
G01 X10.0290 Y3.7339
G01 X10.0068 Y3.7487
G01 X9.9186 Y3.8113
G01 X9.8973 Y3.8273
G01 X9.8769 Y3.8445
G01 X9.7962 Y3.9166
G01 X9.7769 Y3.9349
G01 X9.7586 Y3.9542
G01 X9.6865 Y4.0349
G01 X9.6693 Y4.0553
G01 X9.6533 Y4.0766
G01 X9.5907 Y4.1648
G01 X9.5759 Y4.1870
G01 X9.5688 Y4.1989
G01 X9.1515 Y4.1989
G01 X9.1443 Y4.1867
G01 X9.1295 Y4.1646
G01 X9.0669 Y4.0763
G01 X9.0509 Y4.0550
G01 X9.0337 Y4.0346
G01 X8.9616 Y3.9539
G01 X8.9433 Y3.9345
G01 X8.9239 Y3.9162
G01 X8.8432 Y3.8441
G01 X8.8228 Y3.8269
G01 X8.8015 Y3.8109
G01 X8.7132 Y3.7483
G01 X8.6911 Y3.7335
G01 X8.6681 Y3.7199
G01 X8.6013 Y3.6830
G00 Z2.0000
G00 X8.7941 Y3.6830
G01 F30.00
G01 Z-0.0800
G01 F90.00
G01 X8.8594 Y3.6367
G01 X8.8852 Y3.6173
G01 X8.9098 Y3.5965
G01 X8.9905 Y3.5243
G01 X9.0140 Y3.5022
G01 X9.0361 Y3.4787
G01 X9.1083 Y3.3980
G01 X9.1291 Y3.3734
G01 X9.1485 Y3.3476
G01 X9.2056 Y3.2671
G01 X9.5148 Y3.2671
G01 X9.5717 Y3.3473
G01 X9.5911 Y3.3731
G01 X9.6119 Y3.3977
G01 X9.6840 Y3.4784
G01 X9.7062 Y3.5018
G01 X9.7296 Y3.5240
G01 X9.8103 Y3.5961
G01 X9.8349 Y3.6169
G01 X9.8607 Y3.6363
G01 X9.9265 Y3.6830
G01 X9.8607 Y3.7297
G01 X9.8349 Y3.7491
G01 X9.8103 Y3.7699
G01 X9.7296 Y3.8420
G01 X9.7062 Y3.8642
G01 X9.6840 Y3.8876
G01 X9.6119 Y3.9683
G01 X9.5911 Y3.9929
G01 X9.5717 Y4.0187
G01 X9.5148 Y4.0989
G01 X9.2056 Y4.0989
G01 X9.1485 Y4.0184
G01 X9.1291 Y3.9926
G01 X9.1083 Y3.9680
G01 X9.0361 Y3.8873
G01 X9.0140 Y3.8638
G01 X8.9905 Y3.8417
G01 X8.9098 Y3.7695
G01 X8.8852 Y3.7487
G01 X8.8594 Y3.7293
G01 X8.7941 Y3.6830
G00 Z2.0000
G00 X8.9623 Y3.6830
G01 F30.00
G01 Z-0.0800
G01 F90.00
G01 X9.0572 Y3.5989
G01 X9.0847 Y3.5729
G01 X9.1107 Y3.5454
G01 X9.1828 Y3.4646
G01 X9.2072 Y3.4357
G01 X9.2300 Y3.4055
G01 X9.2572 Y3.3671
G01 X9.4632 Y3.3671
G01 X9.4902 Y3.4052
G01 X9.5129 Y3.4354
G01 X9.5374 Y3.4644
G01 X9.6094 Y3.5450
G01 X9.6355 Y3.5725
G01 X9.6630 Y3.5986
G01 X9.7583 Y3.6830
G01 X9.6630 Y3.7674
G01 X9.6355 Y3.7935
G01 X9.6094 Y3.8210
G01 X9.5374 Y3.9016
G01 X9.5129 Y3.9306
G01 X9.4902 Y3.9608
G01 X9.4632 Y3.9989
G01 X9.2572 Y3.9989
G01 X9.2300 Y3.9605
G01 X9.2072 Y3.9303
G01 X9.1828 Y3.9014
G01 X9.1107 Y3.8206
G01 X9.0847 Y3.7931
G01 X9.0572 Y3.7671
G01 X8.9623 Y3.6830
G00 Z2.0000
G00 X8.9623 Y6.2230
G01 F30.00
G01 Z-0.0800
G01 F90.00
G01 X9.0572 Y6.1389
G01 X9.0847 Y6.1129
G01 X9.1107 Y6.0854
G01 X9.1828 Y6.0046
G01 X9.2072 Y5.9757
G01 X9.2300 Y5.9455
G01 X9.2572 Y5.9071
G01 X9.4632 Y5.9071
G01 X9.4902 Y5.9452
G01 X9.5129 Y5.9754
G01 X9.5374 Y6.0044
G01 X9.6094 Y6.0850
G01 X9.6355 Y6.1125
G01 X9.6630 Y6.1386
G01 X9.7583 Y6.2230
G01 X9.6630 Y6.3074
G01 X9.6355 Y6.3335
G01 X9.6094 Y6.3610
G01 X9.5374 Y6.4416
G01 X9.5129 Y6.4706
G01 X9.4902 Y6.5008
G01 X9.4632 Y6.5389
G01 X9.2572 Y6.5389
G01 X9.2300 Y6.5005
G01 X9.2072 Y6.4703
G01 X9.1828 Y6.4414
G01 X9.1107 Y6.3606
G01 X9.0847 Y6.3331
G01 X9.0572 Y6.3071
G01 X8.9623 Y6.2230
G00 Z2.0000
G00 X8.7941 Y6.2230
G01 F30.00
G01 Z-0.0800
G01 F90.00
G01 X8.8594 Y6.1767
G01 X8.8852 Y6.1573
G01 X8.9098 Y6.1365
G01 X8.9905 Y6.0643
G01 X9.0140 Y6.0422
G01 X9.0361 Y6.0187
G01 X9.1083 Y5.9380
G01 X9.1291 Y5.9134
G01 X9.1485 Y5.8876
G01 X9.2056 Y5.8071
G01 X9.5148 Y5.8071
G01 X9.5717 Y5.8873
G01 X9.5911 Y5.9131
G01 X9.6119 Y5.9377
G01 X9.6840 Y6.0184
G01 X9.7062 Y6.0418
G01 X9.7296 Y6.0640
G01 X9.8103 Y6.1361
G01 X9.8349 Y6.1569
G01 X9.8607 Y6.1763
G01 X9.9265 Y6.2230
G01 X9.8607 Y6.2697
G01 X9.8349 Y6.2891
G01 X9.8103 Y6.3099
G01 X9.7296 Y6.3820
G01 X9.7062 Y6.4042
G01 X9.6840 Y6.4276
G01 X9.6119 Y6.5083
G01 X9.5911 Y6.5329
G01 X9.5717 Y6.5587
G01 X9.5148 Y6.6389
G01 X9.2056 Y6.6389
G01 X9.1485 Y6.5584
G01 X9.1291 Y6.5326
G01 X9.1083 Y6.5080
G01 X9.0361 Y6.4273
G01 X9.0140 Y6.4038
G01 X8.9905 Y6.3817
G01 X8.9098 Y6.3095
G01 X8.8852 Y6.2887
G01 X8.8594 Y6.2693
G01 X8.7941 Y6.2230
G00 Z2.0000
G00 X8.6013 Y6.2230
G01 F30.00
G01 Z-0.0800
G01 F90.00
G01 X8.6681 Y6.1861
G01 X8.6911 Y6.1725
G01 X8.7132 Y6.1577
G01 X8.8015 Y6.0951
G01 X8.8228 Y6.0791
G01 X8.8432 Y6.0619
G01 X8.9239 Y5.9898
G01 X8.9433 Y5.9715
G01 X8.9616 Y5.9521
G01 X9.0337 Y5.8714
G01 X9.0509 Y5.8510
G01 X9.0669 Y5.8297
G01 X9.1295 Y5.7414
G01 X9.1443 Y5.7193
G01 X9.1515 Y5.7071
G01 X9.5688 Y5.7071
G01 X9.5759 Y5.7190
G01 X9.5907 Y5.7412
G01 X9.6533 Y5.8294
G01 X9.6693 Y5.8507
G01 X9.6865 Y5.8711
G01 X9.7586 Y5.9518
G01 X9.7769 Y5.9711
G01 X9.7962 Y5.9894
G01 X9.8769 Y6.0615
G01 X9.8973 Y6.0787
G01 X9.9186 Y6.0947
G01 X10.0068 Y6.1573
G01 X10.0290 Y6.1721
G01 X10.0519 Y6.1857
G01 X10.1194 Y6.2230
G01 X10.0519 Y6.2603
G01 X10.0290 Y6.2739
G01 X10.0068 Y6.2887
G01 X9.9186 Y6.3513
G01 X9.8973 Y6.3673
G01 X9.8769 Y6.3845
G01 X9.7962 Y6.4566
G01 X9.7769 Y6.4749
G01 X9.7586 Y6.4942
G01 X9.6865 Y6.5749
G01 X9.6693 Y6.5953
G01 X9.6533 Y6.6166
G01 X9.5907 Y6.7048
G01 X9.5759 Y6.7270
G01 X9.5688 Y6.7389
G01 X9.1515 Y6.7389
G01 X9.1443 Y6.7267
G01 X9.1295 Y6.7046
G01 X9.0669 Y6.6163
G01 X9.0509 Y6.5950
G01 X9.0337 Y6.5746
G01 X8.9616 Y6.4939
G01 X8.9433 Y6.4745
G01 X8.9239 Y6.4562
G01 X8.8432 Y6.3841
G01 X8.8228 Y6.3669
G01 X8.8015 Y6.3509
G01 X8.7132 Y6.2883
G01 X8.6911 Y6.2735
G01 X8.6681 Y6.2599
G01 X8.6013 Y6.2230
G00 Z2.0000
G00 X8.3521 Y6.2230
G01 F30.00
G01 Z-0.0800
G01 F90.00
G01 X8.3675 Y6.2181
G01 X8.3871 Y6.2106
G01 X8.4871 Y6.1692
G01 X8.5063 Y6.1606
G01 X8.5250 Y6.1509
G01 X8.6379 Y6.0879
G01 X8.7437 Y6.0135
G01 X8.7605 Y6.0009
G01 X8.8573 Y5.9152
G01 X8.8725 Y5.9007
G01 X8.9591 Y5.8047
G01 X8.9727 Y5.7887
G01 X9.0480 Y5.6836
G01 X9.0597 Y5.6661
G01 X9.0929 Y5.6071
G01 X9.6274 Y5.6071
G01 X9.6498 Y5.6477
G01 X9.6605 Y5.6658
G01 X9.6722 Y5.6833
G01 X9.7348 Y5.7716
G01 X9.7475 Y5.7884
G01 X9.7610 Y5.8044
G01 X9.8476 Y5.9004
G01 X9.8629 Y5.9149
G01 X9.9596 Y6.0005
G01 X9.9764 Y6.0132
G01 X10.0822 Y6.0875
G01 X10.1950 Y6.1505
G01 X10.2137 Y6.1602
G01 X10.2329 Y6.1687
G01 X10.3328 Y6.2102
G01 X10.3525 Y6.2177
G01 X10.3693 Y6.2230
G01 X10.3525 Y6.2283
G01 X10.3328 Y6.2358
G01 X10.2329 Y6.2773
G01 X10.2137 Y6.2858
G01 X10.1950 Y6.2955
G01 X10.0822 Y6.3585
G01 X9.9764 Y6.4328
G01 X9.9596 Y6.4455
G01 X9.8629 Y6.5311
G01 X9.8476 Y6.5456
G01 X9.7610 Y6.6416
G01 X9.7475 Y6.6576
G01 X9.7348 Y6.6744
G01 X9.6722 Y6.7627
G01 X9.6605 Y6.7802
G01 X9.6498 Y6.7983
G01 X9.6274 Y6.8389
G01 X9.0929 Y6.8389
G01 X9.0597 Y6.7799
G01 X9.0480 Y6.7624
G01 X8.9727 Y6.6573
G01 X8.9591 Y6.6413
G01 X8.8725 Y6.5453
G01 X8.8573 Y6.5308
G01 X8.7605 Y6.4451
G01 X8.7437 Y6.4325
G01 X8.6379 Y6.3581
G01 X8.5250 Y6.2951
G01 X8.5063 Y6.2854
G01 X8.4871 Y6.2768
G01 X8.3871 Y6.2354
G01 X8.3675 Y6.2279
G01 X8.3521 Y6.2230
G00 Z2.0000
G00 X8.6013 Y8.7630
G01 F30.00
G01 Z-0.0800
G01 F90.00
G01 X8.6681 Y8.7261
G01 X8.6911 Y8.7125
G01 X8.7132 Y8.6977
G01 X8.8015 Y8.6351
G01 X8.8228 Y8.6191
G01 X8.8432 Y8.6019
G01 X8.9239 Y8.5298
G01 X8.9433 Y8.5115
G01 X8.9616 Y8.4921
G01 X9.0337 Y8.4114
G01 X9.0509 Y8.3910
G01 X9.0669 Y8.3697
G01 X9.1295 Y8.2814
G01 X9.1443 Y8.2593
G01 X9.1515 Y8.2471
G01 X9.5688 Y8.2471
G01 X9.5759 Y8.2590
G01 X9.5907 Y8.2812
G01 X9.6533 Y8.3694
G01 X9.6693 Y8.3907
G01 X9.6865 Y8.4111
G01 X9.7586 Y8.4918
G01 X9.7769 Y8.5111
G01 X9.7962 Y8.5294
G01 X9.8769 Y8.6015
G01 X9.8973 Y8.6187
G01 X9.9186 Y8.6347
G01 X10.0068 Y8.6973
G01 X10.0290 Y8.7121
G01 X10.0519 Y8.7257
G01 X10.1194 Y8.7630
G01 X10.0519 Y8.8003
G01 X10.0290 Y8.8139
G01 X10.0068 Y8.8287
G01 X9.9186 Y8.8913
G01 X9.8973 Y8.9073
G01 X9.8769 Y8.9245
G01 X9.7962 Y8.9966
G01 X9.7769 Y9.0149
G01 X9.7586 Y9.0342
G01 X9.6865 Y9.1149
G01 X9.6693 Y9.1353
G01 X9.6533 Y9.1566
G01 X9.5907 Y9.2448
G01 X9.5759 Y9.2670
G01 X9.5688 Y9.2789
G01 X9.1515 Y9.2789
G01 X9.1443 Y9.2667
G01 X9.1295 Y9.2446
G01 X9.0669 Y9.1563
G01 X9.0509 Y9.1350
G01 X9.0337 Y9.1146
G01 X8.9616 Y9.0339
G01 X8.9433 Y9.0145
G01 X8.9239 Y8.9962
G01 X8.8432 Y8.9241
G01 X8.8228 Y8.9069
G01 X8.8015 Y8.8909
G01 X8.7132 Y8.8283
G01 X8.6911 Y8.8135
G01 X8.6681 Y8.7999
G01 X8.6013 Y8.7630
G00 Z2.0000
G00 X8.7941 Y8.7630
G01 F30.00
G01 Z-0.0800
G01 F90.00
G01 X8.8594 Y8.7167
G01 X8.8852 Y8.6973
G01 X8.9098 Y8.6765
G01 X8.9905 Y8.6043
G01 X9.0140 Y8.5822
G01 X9.0361 Y8.5587
G01 X9.1083 Y8.4780
G01 X9.1291 Y8.4534
G01 X9.1485 Y8.4276
G01 X9.2056 Y8.3471
G01 X9.5148 Y8.3471
G01 X9.5717 Y8.4273
G01 X9.5911 Y8.4531
G01 X9.6119 Y8.4777
G01 X9.6840 Y8.5584
G01 X9.7062 Y8.5818
G01 X9.7296 Y8.6040
G01 X9.8103 Y8.6761
G01 X9.8349 Y8.6969
G01 X9.8607 Y8.7163
G01 X9.9265 Y8.7630
G01 X9.8607 Y8.8097
G01 X9.8349 Y8.8291
G01 X9.8103 Y8.8499
G01 X9.7296 Y8.9220
G01 X9.7062 Y8.9442
G01 X9.6840 Y8.9676
G01 X9.6119 Y9.0483
G01 X9.5911 Y9.0729
G01 X9.5717 Y9.0987
G01 X9.5148 Y9.1789
G01 X9.2056 Y9.1789
G01 X9.1485 Y9.0984
G01 X9.1291 Y9.0726
G01 X9.1083 Y9.0480
G01 X9.0361 Y8.9673
G01 X9.0140 Y8.9438
G01 X8.9905 Y8.9217
G01 X8.9098 Y8.8495
G01 X8.8852 Y8.8287
G01 X8.8594 Y8.8093
G01 X8.7941 Y8.7630
G00 Z2.0000
G00 X8.9623 Y8.7630
G01 F30.00
G01 Z-0.0800
G01 F90.00
G01 X9.0572 Y8.6789
G01 X9.0847 Y8.6529
G01 X9.1107 Y8.6254
G01 X9.1828 Y8.5446
G01 X9.2072 Y8.5157
G01 X9.2300 Y8.4855
G01 X9.2572 Y8.4471
G01 X9.4632 Y8.4471
G01 X9.4902 Y8.4852
G01 X9.5129 Y8.5154
G01 X9.5374 Y8.5444
G01 X9.6094 Y8.6250
G01 X9.6355 Y8.6525
G01 X9.6630 Y8.6786
G01 X9.7583 Y8.7630
G01 X9.6630 Y8.8474
G01 X9.6355 Y8.8735
G01 X9.6094 Y8.9010
G01 X9.5374 Y8.9816
G01 X9.5129 Y9.0106
G01 X9.4902 Y9.0408
G01 X9.4632 Y9.0789
G01 X9.2572 Y9.0789
G01 X9.2300 Y9.0405
G01 X9.2072 Y9.0103
G01 X9.1828 Y8.9814
G01 X9.1107 Y8.9006
G01 X9.0847 Y8.8731
G01 X9.0572 Y8.8471
G01 X8.9623 Y8.7630
G00 Z2.0000
G00 X10.3693 Y8.7630
G01 F30.00
G01 Z-0.0800
G01 F90.00
G01 X10.3525 Y8.7683
G01 X10.3328 Y8.7758
G01 X10.2329 Y8.8173
G01 X10.2137 Y8.8258
G01 X10.1950 Y8.8355
G01 X10.0822 Y8.8985
G01 X9.9764 Y8.9728
G01 X9.9596 Y8.9855
G01 X9.8629 Y9.0711
G01 X9.8476 Y9.0856
G01 X9.7610 Y9.1816
G01 X9.7475 Y9.1976
G01 X9.7348 Y9.2144
G01 X9.6722 Y9.3027
G01 X9.6605 Y9.3202
G01 X9.6498 Y9.3383
G01 X9.6274 Y9.3789
G01 X9.0929 Y9.3789
G01 X9.0597 Y9.3199
G01 X8.9853 Y9.2141
G01 X8.9727 Y9.1973
G01 X8.8870 Y9.1005
G01 X8.8725 Y9.0853
G01 X8.8573 Y9.0708
G01 X8.7605 Y8.9851
G01 X8.7437 Y8.9725
G01 X8.6379 Y8.8981
G01 X8.5250 Y8.8351
G01 X8.5063 Y8.8254
G01 X8.4871 Y8.8168
G01 X8.3871 Y8.7754
G01 X8.3675 Y8.7679
G01 X8.3521 Y8.7630
G01 X8.3675 Y8.7581
G01 X8.3871 Y8.7506
G01 X8.4871 Y8.7092
G01 X8.5063 Y8.7006
G01 X8.5250 Y8.6909
G01 X8.6379 Y8.6279
G01 X8.7437 Y8.5535
G01 X8.7605 Y8.5409
G01 X8.8573 Y8.4552
G01 X8.8725 Y8.4407
G01 X8.8870 Y8.4255
G01 X8.9727 Y8.3287
G01 X9.0480 Y8.2236
G01 X9.0597 Y8.2061
G01 X9.0929 Y8.1471
G01 X9.6274 Y8.1471
G01 X9.6498 Y8.1877
G01 X9.6605 Y8.2058
G01 X9.6722 Y8.2233
G01 X9.7348 Y8.3116
G01 X9.7475 Y8.3284
G01 X9.7610 Y8.3444
G01 X9.8476 Y8.4404
G01 X9.8629 Y8.4549
G01 X9.9596 Y8.5405
G01 X9.9764 Y8.5532
G01 X10.0822 Y8.6275
G01 X10.1950 Y8.6905
G01 X10.2137 Y8.7002
G01 X10.2329 Y8.7087
G01 X10.3328 Y8.7502
G01 X10.3525 Y8.7577
G01 X10.3693 Y8.7630
G00 Z2.0000
G00 X11.4706 Y8.7630
G01 F30.00
G01 Z-0.0800
G01 F90.00
G01 X11.5381 Y8.7257
G01 X11.5610 Y8.7121
G01 X11.5832 Y8.6973
G01 X11.6714 Y8.6347
G01 X11.6927 Y8.6187
G01 X11.7131 Y8.6015
G01 X11.7938 Y8.5294
G01 X11.8131 Y8.5111
G01 X11.8314 Y8.4918
G01 X11.9095 Y8.4040
G01 X11.9459 Y8.4404
G01 X11.9459 Y9.1694
G01 X11.9207 Y9.1353
G01 X11.9035 Y9.1149
G01 X11.8314 Y9.0342
G01 X11.8131 Y9.0149
G01 X11.7938 Y8.9966
G01 X11.7131 Y8.9245
G01 X11.6927 Y8.9073
G01 X11.6714 Y8.8913
G01 X11.5832 Y8.8287
G01 X11.5610 Y8.8139
G01 X11.5381 Y8.8003
G01 X11.4706 Y8.7630
G00 Z2.0000
G00 X11.6635 Y8.7630
G01 F30.00
G01 Z-0.0800
G01 F90.00
G01 X11.7293 Y8.7163
G01 X11.7551 Y8.6969
G01 X11.7797 Y8.6761
G01 X11.8459 Y8.6170
G01 X11.8459 Y8.9090
G01 X11.7797 Y8.8499
G01 X11.7551 Y8.8291
G01 X11.7293 Y8.8097
G01 X11.6635 Y8.7630
G00 Z2.0000
G00 X12.0459 Y9.5557
G01 F30.00
G01 Z-0.0800
G01 F90.00
G01 X12.0022 Y9.4517
G01 X11.9925 Y9.4330
G01 X11.9295 Y9.3202
G01 X11.8552 Y9.2144
G01 X11.8425 Y9.1976
G01 X11.7569 Y9.1009
G01 X11.7424 Y9.0856
G01 X11.7271 Y9.0711
G01 X11.6304 Y8.9855
G01 X11.6136 Y8.9728
G01 X11.5078 Y8.8985
G01 X11.3950 Y8.8355
G01 X11.3763 Y8.8258
G01 X11.2572 Y8.7758
G01 X11.2375 Y8.7683
G01 X11.2207 Y8.7630
G01 X11.2375 Y8.7577
G01 X11.2572 Y8.7502
G01 X11.3571 Y8.7087
G01 X11.3763 Y8.7002
G01 X11.3950 Y8.6905
G01 X11.5078 Y8.6275
G01 X11.6136 Y8.5532
G01 X11.6304 Y8.5405
G01 X11.7271 Y8.4549
G01 X11.7424 Y8.4404
G01 X11.7569 Y8.4251
G01 X11.8425 Y8.3284
G01 X11.8981 Y8.2511
G01 X12.0459 Y8.3989
G01 X12.0459 Y9.5557
G00 Z2.0000
G00 X11.6635 Y11.3030
G01 F30.00
G01 Z-0.0800
G01 F90.00
G01 X11.7293 Y11.2563
G01 X11.7551 Y11.2369
G01 X11.7797 Y11.2161
G01 X11.8459 Y11.1570
G01 X11.8459 Y11.4490
G01 X11.7797 Y11.3899
G01 X11.7551 Y11.3691
G01 X11.7293 Y11.3497
G01 X11.6635 Y11.3030
G00 Z2.0000
G00 X11.4706 Y11.3030
G01 F30.00
G01 Z-0.0800
G01 F90.00
G01 X11.5381 Y11.2657
G01 X11.5610 Y11.2521
G01 X11.5832 Y11.2373
G01 X11.6714 Y11.1747
G01 X11.6927 Y11.1587
G01 X11.7131 Y11.1415
G01 X11.7938 Y11.0694
G01 X11.8131 Y11.0511
G01 X11.8314 Y11.0318
G01 X11.9035 Y10.9511
G01 X11.9207 Y10.9307
G01 X11.9459 Y10.8966
G01 X11.9459 Y11.7094
G01 X11.9207 Y11.6753
G01 X11.9035 Y11.6549
G01 X11.8314 Y11.5742
G01 X11.8131 Y11.5549
G01 X11.7938 Y11.5366
G01 X11.7131 Y11.4645
G01 X11.6927 Y11.4473
G01 X11.6714 Y11.4313
G01 X11.5832 Y11.3687
G01 X11.5610 Y11.3539
G01 X11.5381 Y11.3403
G01 X11.4706 Y11.3030
G00 Z2.0000
G00 X12.0459 Y12.0957
G01 F30.00
G01 Z-0.0800
G01 F90.00
G01 X12.0022 Y11.9917
G01 X11.9925 Y11.9730
G01 X11.9295 Y11.8602
G01 X11.8552 Y11.7544
G01 X11.8425 Y11.7376
G01 X11.7569 Y11.6409
G01 X11.7424 Y11.6256
G01 X11.7271 Y11.6111
G01 X11.6304 Y11.5255
G01 X11.6136 Y11.5128
G01 X11.5078 Y11.4385
G01 X11.3950 Y11.3755
G01 X11.3763 Y11.3658
G01 X11.2572 Y11.3158
G01 X11.2375 Y11.3083
G01 X11.2207 Y11.3030
G01 X11.2375 Y11.2977
G01 X11.2572 Y11.2902
G01 X11.3763 Y11.2402
G01 X11.3950 Y11.2305
G01 X11.5078 Y11.1675
G01 X11.6136 Y11.0932
G01 X11.6304 Y11.0805
G01 X11.7271 Y10.9949
G01 X11.7424 Y10.9804
G01 X11.7569 Y10.9651
G01 X11.8425 Y10.8684
G01 X11.8552 Y10.8516
G01 X11.9295 Y10.7458
G01 X11.9925 Y10.6330
G01 X12.0022 Y10.6143
G01 X12.0459 Y10.5103
G01 X12.0459 Y12.0957
G00 Z2.0000
G00 X11.6635 Y13.8430
G01 F30.00
G01 Z-0.0800
G01 F90.00
G01 X11.7293 Y13.7963
G01 X11.7551 Y13.7769
G01 X11.7797 Y13.7561
G01 X11.8459 Y13.6970
G01 X11.8459 Y13.9890
G01 X11.7797 Y13.9299
G01 X11.7551 Y13.9091
G01 X11.7293 Y13.8897
G01 X11.6635 Y13.8430
G00 Z2.0000
G00 X11.4706 Y13.8430
G01 F30.00
G01 Z-0.0800
G01 F90.00
G01 X11.5381 Y13.8057
G01 X11.5610 Y13.7921
G01 X11.5832 Y13.7773
G01 X11.6714 Y13.7147
G01 X11.6927 Y13.6987
G01 X11.7131 Y13.6815
G01 X11.7938 Y13.6094
G01 X11.8131 Y13.5911
G01 X11.8314 Y13.5718
G01 X11.9035 Y13.4911
G01 X11.9207 Y13.4707
G01 X11.9459 Y13.4366
G01 X11.9459 Y14.2494
G01 X11.9207 Y14.2153
G01 X11.9035 Y14.1949
G01 X11.8314 Y14.1142
G01 X11.8131 Y14.0949
G01 X11.7938 Y14.0766
G01 X11.7131 Y14.0045
G01 X11.6927 Y13.9873
G01 X11.6714 Y13.9713
G01 X11.5832 Y13.9087
G01 X11.5610 Y13.8939
G01 X11.5381 Y13.8803
G01 X11.4706 Y13.8430
G00 Z2.0000
G00 X12.0459 Y14.6357
G01 F30.00
G01 Z-0.0800
G01 F90.00
G01 X12.0022 Y14.5317
G01 X11.9925 Y14.5130
G01 X11.9295 Y14.4002
G01 X11.8552 Y14.2944
G01 X11.8425 Y14.2776
G01 X11.7569 Y14.1809
G01 X11.7424 Y14.1656
G01 X11.7271 Y14.1511
G01 X11.6304 Y14.0655
G01 X11.6136 Y14.0528
G01 X11.5078 Y13.9785
G01 X11.3950 Y13.9155
G01 X11.3763 Y13.9058
G01 X11.2572 Y13.8558
G01 X11.2375 Y13.8483
G01 X11.2207 Y13.8430
G01 X11.2375 Y13.8377
G01 X11.2572 Y13.8302
G01 X11.3763 Y13.7802
G01 X11.3950 Y13.7705
G01 X11.5078 Y13.7075
G01 X11.6136 Y13.6332
G01 X11.6304 Y13.6205
G01 X11.7271 Y13.5349
G01 X11.7424 Y13.5204
G01 X11.7569 Y13.5051
G01 X11.8425 Y13.4084
G01 X11.8552 Y13.3916
G01 X11.9295 Y13.2858
G01 X11.9925 Y13.1730
G01 X12.0022 Y13.1543
G01 X12.0459 Y13.0503
G01 X12.0459 Y14.6357
G00 Z2.0000
G00 X11.6635 Y16.3830
G01 F30.00
G01 Z-0.0800
G01 F90.00
G01 X11.7293 Y16.3363
G01 X11.7551 Y16.3169
G01 X11.7797 Y16.2961
G01 X11.8459 Y16.2370
G01 X11.8459 Y16.5290
G01 X11.7797 Y16.4699
G01 X11.7551 Y16.4491
G01 X11.7293 Y16.4297
G01 X11.6635 Y16.3830
G00 Z2.0000
G00 X11.4706 Y16.3830
G01 F30.00
G01 Z-0.0800
G01 F90.00
G01 X11.5381 Y16.3457
G01 X11.5610 Y16.3321
G01 X11.5832 Y16.3173
G01 X11.6714 Y16.2547
G01 X11.6927 Y16.2387
G01 X11.7131 Y16.2215
G01 X11.7938 Y16.1494
G01 X11.8131 Y16.1311
G01 X11.8314 Y16.1118
G01 X11.9035 Y16.0311
G01 X11.9207 Y16.0107
G01 X11.9459 Y15.9766
G01 X11.9459 Y16.7894
G01 X11.9207 Y16.7553
G01 X11.9035 Y16.7349
G01 X11.8314 Y16.6542
G01 X11.8131 Y16.6349
G01 X11.7938 Y16.6166
G01 X11.7131 Y16.5445
G01 X11.6927 Y16.5273
G01 X11.6714 Y16.5113
G01 X11.5832 Y16.4487
G01 X11.5610 Y16.4339
G01 X11.5381 Y16.4203
G01 X11.4706 Y16.3830
G00 Z2.0000
G00 X12.0459 Y17.1757
G01 F30.00
G01 Z-0.0800
G01 F90.00
G01 X12.0022 Y17.0717
G01 X11.9402 Y16.9583
G01 X11.9295 Y16.9402
G01 X11.8552 Y16.8344
G01 X11.8425 Y16.8176
G01 X11.7569 Y16.7209
G01 X11.7424 Y16.7056
G01 X11.6464 Y16.6190
G01 X11.6304 Y16.6055
G01 X11.5253 Y16.5302
G01 X11.5078 Y16.5185
G01 X11.4897 Y16.5078
G01 X11.3763 Y16.4458
G01 X11.2572 Y16.3958
G01 X11.2375 Y16.3883
G01 X11.2207 Y16.3830
G01 X11.2375 Y16.3777
G01 X11.2572 Y16.3702
G01 X11.3763 Y16.3202
G01 X11.3950 Y16.3105
G01 X11.5078 Y16.2475
G01 X11.6136 Y16.1732
G01 X11.6304 Y16.1605
G01 X11.7271 Y16.0749
G01 X11.7424 Y16.0604
G01 X11.7569 Y16.0451
G01 X11.8425 Y15.9484
G01 X11.8552 Y15.9316
G01 X11.9295 Y15.8258
G01 X11.9925 Y15.7130
G01 X12.0022 Y15.6943
G01 X12.0459 Y15.5903
G01 X12.0459 Y17.1757
G00 Z2.0000
G00 X11.6635 Y18.9230
G01 F30.00
G01 Z-0.0800
G01 F90.00
G01 X11.7293 Y18.8763
G01 X11.7551 Y18.8569
G01 X11.7797 Y18.8361
G01 X11.8459 Y18.7770
G01 X11.8459 Y19.0690
G01 X11.7797 Y19.0099
G01 X11.7551 Y18.9891
G01 X11.7293 Y18.9697
G01 X11.6635 Y18.9230
G00 Z2.0000
G00 X11.4706 Y18.9230
G01 F30.00
G01 Z-0.0800
G01 F90.00
G01 X11.5381 Y18.8857
G01 X11.5610 Y18.8721
G01 X11.5832 Y18.8573
G01 X11.6714 Y18.7947
G01 X11.6927 Y18.7787
G01 X11.7131 Y18.7615
G01 X11.7938 Y18.6894
G01 X11.8131 Y18.6711
G01 X11.8314 Y18.6518
G01 X11.9035 Y18.5711
G01 X11.9207 Y18.5507
G01 X11.9459 Y18.5166
G01 X11.9459 Y19.3294
G01 X11.9207 Y19.2953
G01 X11.9035 Y19.2749
G01 X11.8314 Y19.1942
G01 X11.8131 Y19.1749
G01 X11.7938 Y19.1566
G01 X11.7131 Y19.0845
G01 X11.6927 Y19.0673
G01 X11.6714 Y19.0513
G01 X11.5832 Y18.9887
G01 X11.5610 Y18.9739
G01 X11.5381 Y18.9603
G01 X11.4706 Y18.9230
G00 Z2.0000
G00 X12.0459 Y19.7157
G01 F30.00
G01 Z-0.0800
G01 F90.00
G01 X12.0022 Y19.6117
G01 X11.9402 Y19.4983
G01 X11.9295 Y19.4802
G01 X11.8552 Y19.3744
G01 X11.8425 Y19.3576
G01 X11.7569 Y19.2609
G01 X11.7424 Y19.2456
G01 X11.6464 Y19.1590
G01 X11.6304 Y19.1455
G01 X11.5253 Y19.0702
G01 X11.5078 Y19.0585
G01 X11.4897 Y19.0478
G01 X11.3763 Y18.9858
G01 X11.2572 Y18.9358
G01 X11.2375 Y18.9283
G01 X11.2207 Y18.9230
G01 X11.2375 Y18.9177
G01 X11.2572 Y18.9102
G01 X11.3763 Y18.8602
G01 X11.4897 Y18.7982
G01 X11.5078 Y18.7875
G01 X11.5253 Y18.7758
G01 X11.6304 Y18.7005
G01 X11.6464 Y18.6870
G01 X11.7424 Y18.6004
G01 X11.7569 Y18.5851
G01 X11.8425 Y18.4884
G01 X11.8552 Y18.4716
G01 X11.9295 Y18.3658
G01 X11.9402 Y18.3477
G01 X12.0022 Y18.2343
G01 X12.0459 Y18.1303
G01 X12.0459 Y19.7157
G00 Z2.0000
G00 X11.6635 Y21.4630
G01 F30.00
G01 Z-0.0800
G01 F90.00
G01 X11.7293 Y21.4163
G01 X11.7551 Y21.3969
G01 X11.7797 Y21.3761
G01 X11.8459 Y21.3170
G01 X11.8459 Y21.6090
G01 X11.7797 Y21.5499
G01 X11.7551 Y21.5291
G01 X11.7293 Y21.5097
G01 X11.6635 Y21.4630
G00 Z2.0000
G00 X11.4706 Y21.4630
G01 F30.00
G01 Z-0.0800
G01 F90.00
G01 X11.5381 Y21.4257
G01 X11.5610 Y21.4121
G01 X11.5832 Y21.3973
G01 X11.6714 Y21.3347
G01 X11.6927 Y21.3187
G01 X11.7131 Y21.3015
G01 X11.7938 Y21.2294
G01 X11.8131 Y21.2111
G01 X11.8314 Y21.1918
G01 X11.9035 Y21.1111
G01 X11.9207 Y21.0907
G01 X11.9459 Y21.0566
G01 X11.9459 Y21.8694
G01 X11.9207 Y21.8353
G01 X11.9035 Y21.8149
G01 X11.8314 Y21.7342
G01 X11.8131 Y21.7149
G01 X11.7938 Y21.6966
G01 X11.7131 Y21.6245
G01 X11.6927 Y21.6073
G01 X11.6714 Y21.5913
G01 X11.5832 Y21.5287
G01 X11.5610 Y21.5139
G01 X11.5381 Y21.5003
G01 X11.4706 Y21.4630
G00 Z2.0000
G00 X11.2207 Y21.4630
G01 F30.00
G01 Z-0.0800
G01 F90.00
G01 X11.2375 Y21.4577
G01 X11.2572 Y21.4502
G01 X11.3763 Y21.4002
G01 X11.4897 Y21.3382
G01 X11.5078 Y21.3275
G01 X11.5253 Y21.3158
G01 X11.6304 Y21.2405
G01 X11.6464 Y21.2270
G01 X11.7424 Y21.1404
G01 X11.7569 Y21.1251
G01 X11.8425 Y21.0284
G01 X11.8552 Y21.0116
G01 X11.9295 Y20.9058
G01 X11.9402 Y20.8877
G01 X12.0022 Y20.7743
G01 X12.0459 Y20.6703
G01 X12.0459 Y22.2557
G01 X12.0022 Y22.1517
G01 X11.9402 Y22.0383
G01 X11.9295 Y22.0202
G01 X11.8552 Y21.9144
G01 X11.8425 Y21.8976
G01 X11.7569 Y21.8009
G01 X11.7424 Y21.7856
G01 X11.6464 Y21.6990
G01 X11.6304 Y21.6855
G01 X11.5253 Y21.6102
G01 X11.5078 Y21.5985
G01 X11.4897 Y21.5878
G01 X11.3763 Y21.5258
G01 X11.2572 Y21.4758
G01 X11.2375 Y21.4683
G01 X11.2207 Y21.4630
G00 Z2.0000
G00 X8.9623 Y21.4630
G01 F30.00
G01 Z-0.0800
G01 F90.00
G01 X9.0572 Y21.3789
G01 X9.0847 Y21.3529
G01 X9.1107 Y21.3254
G01 X9.1828 Y21.2446
G01 X9.2072 Y21.2157
G01 X9.2300 Y21.1855
G01 X9.2572 Y21.1471
G01 X9.4632 Y21.1471
G01 X9.4902 Y21.1852
G01 X9.5129 Y21.2154
G01 X9.5374 Y21.2444
G01 X9.6094 Y21.3250
G01 X9.6355 Y21.3525
G01 X9.6630 Y21.3786
G01 X9.7583 Y21.4630
G01 X9.6630 Y21.5474
G01 X9.6355 Y21.5735
G01 X9.6094 Y21.6010
G01 X9.5374 Y21.6816
G01 X9.5129 Y21.7106
G01 X9.4902 Y21.7408
G01 X9.4632 Y21.7789
G01 X9.2572 Y21.7789
G01 X9.2300 Y21.7405
G01 X9.2072 Y21.7103
G01 X9.1828 Y21.6814
G01 X9.1107 Y21.6006
G01 X9.0847 Y21.5731
G01 X9.0572 Y21.5471
G01 X8.9623 Y21.4630
G00 Z2.0000
G00 X8.7941 Y21.4630
G01 F30.00
G01 Z-0.0800
G01 F90.00
G01 X8.8594 Y21.4167
G01 X8.8852 Y21.3973
G01 X8.9098 Y21.3765
G01 X8.9905 Y21.3043
G01 X9.0140 Y21.2822
G01 X9.0361 Y21.2587
G01 X9.1083 Y21.1780
G01 X9.1291 Y21.1534
G01 X9.1485 Y21.1276
G01 X9.2056 Y21.0471
G01 X9.5148 Y21.0471
G01 X9.5717 Y21.1273
G01 X9.5911 Y21.1531
G01 X9.6119 Y21.1777
G01 X9.6840 Y21.2584
G01 X9.7062 Y21.2818
G01 X9.7296 Y21.3040
G01 X9.8103 Y21.3761
G01 X9.8349 Y21.3969
G01 X9.8607 Y21.4163
G01 X9.9265 Y21.4630
G01 X9.8607 Y21.5097
G01 X9.8349 Y21.5291
G01 X9.8103 Y21.5499
G01 X9.7296 Y21.6220
G01 X9.7062 Y21.6442
G01 X9.6840 Y21.6676
G01 X9.6119 Y21.7483
G01 X9.5911 Y21.7729
G01 X9.5717 Y21.7987
G01 X9.5148 Y21.8789
G01 X9.2056 Y21.8789
G01 X9.1485 Y21.7984
G01 X9.1291 Y21.7726
G01 X9.1083 Y21.7480
G01 X9.0361 Y21.6673
G01 X9.0140 Y21.6438
G01 X8.9905 Y21.6217
G01 X8.9098 Y21.5495
G01 X8.8852 Y21.5287
G01 X8.8594 Y21.5093
G01 X8.7941 Y21.4630
G00 Z2.0000
G00 X8.6013 Y21.4630
G01 F30.00
G01 Z-0.0800
G01 F90.00
G01 X8.6681 Y21.4261
G01 X8.6911 Y21.4125
G01 X8.7132 Y21.3977
G01 X8.8015 Y21.3351
G01 X8.8228 Y21.3191
G01 X8.8432 Y21.3019
G01 X8.9239 Y21.2298
G01 X8.9433 Y21.2115
G01 X8.9616 Y21.1921
G01 X9.0337 Y21.1114
G01 X9.0509 Y21.0910
G01 X9.0669 Y21.0697
G01 X9.1295 Y20.9814
G01 X9.1443 Y20.9593
G01 X9.1515 Y20.9471
G01 X9.5688 Y20.9471
G01 X9.5759 Y20.9590
G01 X9.5907 Y20.9812
G01 X9.6533 Y21.0694
G01 X9.6693 Y21.0907
G01 X9.6865 Y21.1111
G01 X9.7586 Y21.1918
G01 X9.7769 Y21.2111
G01 X9.7962 Y21.2294
G01 X9.8769 Y21.3015
G01 X9.8973 Y21.3187
G01 X9.9186 Y21.3347
G01 X10.0068 Y21.3973
G01 X10.0290 Y21.4121
G01 X10.0519 Y21.4257
G01 X10.1194 Y21.4630
G01 X10.0519 Y21.5003
G01 X10.0290 Y21.5139
G01 X10.0068 Y21.5287
G01 X9.9186 Y21.5913
G01 X9.8973 Y21.6073
G01 X9.8769 Y21.6245
G01 X9.7962 Y21.6966
G01 X9.7769 Y21.7149
G01 X9.7586 Y21.7342
G01 X9.6865 Y21.8149
G01 X9.6693 Y21.8353
G01 X9.6533 Y21.8566
G01 X9.5907 Y21.9448
G01 X9.5759 Y21.9670
G01 X9.5688 Y21.9789
G01 X9.1515 Y21.9789
G01 X9.1443 Y21.9667
G01 X9.1295 Y21.9446
G01 X9.0669 Y21.8563
G01 X9.0509 Y21.8350
G01 X9.0337 Y21.8146
G01 X8.9616 Y21.7339
G01 X8.9433 Y21.7145
G01 X8.9239 Y21.6962
G01 X8.8432 Y21.6241
G01 X8.8228 Y21.6069
G01 X8.8015 Y21.5909
G01 X8.7132 Y21.5283
G01 X8.6911 Y21.5135
G01 X8.6681 Y21.4999
G01 X8.6013 Y21.4630
G00 Z2.0000
G00 X8.3521 Y21.4630
G01 F30.00
G01 Z-0.0800
G01 F90.00
G01 X8.3675 Y21.4581
G01 X8.3871 Y21.4506
G01 X8.4871 Y21.4092
G01 X8.5063 Y21.4006
G01 X8.5250 Y21.3909
G01 X8.6379 Y21.3279
G01 X8.6554 Y21.3162
G01 X8.7605 Y21.2409
G01 X8.7765 Y21.2273
G01 X8.8725 Y21.1407
G01 X8.8870 Y21.1255
G01 X8.9727 Y21.0287
G01 X8.9853 Y21.0119
G01 X9.0597 Y20.9061
G01 X9.0929 Y20.8471
G01 X9.6274 Y20.8471
G01 X9.6498 Y20.8877
G01 X9.6605 Y20.9058
G01 X9.6722 Y20.9233
G01 X9.7348 Y21.0116
G01 X9.7475 Y21.0284
G01 X9.7610 Y21.0444
G01 X9.8476 Y21.1404
G01 X9.9436 Y21.2270
G01 X9.9596 Y21.2405
G01 X10.0647 Y21.3158
G01 X10.0822 Y21.3275
G01 X10.1950 Y21.3905
G01 X10.2137 Y21.4002
G01 X10.2329 Y21.4087
G01 X10.3328 Y21.4502
G01 X10.3525 Y21.4577
G01 X10.3693 Y21.4630
G01 X10.3525 Y21.4683
G01 X10.3328 Y21.4758
G01 X10.2329 Y21.5173
G01 X10.2137 Y21.5258
G01 X10.1950 Y21.5355
G01 X10.0822 Y21.5985
G01 X10.0647 Y21.6102
G01 X9.9596 Y21.6855
G01 X9.9436 Y21.6990
G01 X9.8476 Y21.7856
G01 X9.7610 Y21.8816
G01 X9.7475 Y21.8976
G01 X9.7348 Y21.9144
G01 X9.6722 Y22.0027
G01 X9.6605 Y22.0202
G01 X9.6498 Y22.0383
G01 X9.6274 Y22.0789
G01 X9.0929 Y22.0789
G01 X9.0597 Y22.0199
G01 X8.9853 Y21.9141
G01 X8.9727 Y21.8973
G01 X8.8870 Y21.8005
G01 X8.8725 Y21.7853
G01 X8.7765 Y21.6987
G01 X8.7605 Y21.6851
G01 X8.6554 Y21.6098
G01 X8.6379 Y21.5981
G01 X8.5250 Y21.5351
G01 X8.5063 Y21.5254
G01 X8.4871 Y21.5168
G01 X8.3871 Y21.4754
G01 X8.3675 Y21.4679
G01 X8.3521 Y21.4630
G00 Z2.0000
G00 X8.3521 Y18.9230
G01 F30.00
G01 Z-0.0800
G01 F90.00
G01 X8.3675 Y18.9181
G01 X8.3871 Y18.9106
G01 X8.4871 Y18.8692
G01 X8.5063 Y18.8606
G01 X8.5250 Y18.8509
G01 X8.6379 Y18.7879
G01 X8.6554 Y18.7762
G01 X8.7605 Y18.7009
G01 X8.7765 Y18.6873
G01 X8.8725 Y18.6007
G01 X8.8870 Y18.5855
G01 X8.9727 Y18.4887
G01 X8.9853 Y18.4719
G01 X9.0597 Y18.3661
G01 X9.0929 Y18.3071
G01 X9.6274 Y18.3071
G01 X9.6498 Y18.3477
G01 X9.6605 Y18.3658
G01 X9.6722 Y18.3833
G01 X9.7348 Y18.4716
G01 X9.7475 Y18.4884
G01 X9.7610 Y18.5044
G01 X9.8476 Y18.6004
G01 X9.9436 Y18.6870
G01 X9.9596 Y18.7005
G01 X10.0647 Y18.7758
G01 X10.0822 Y18.7875
G01 X10.1950 Y18.8505
G01 X10.2137 Y18.8602
G01 X10.2329 Y18.8687
G01 X10.3328 Y18.9102
G01 X10.3525 Y18.9177
G01 X10.3693 Y18.9230
G01 X10.3525 Y18.9283
G01 X10.3328 Y18.9358
G01 X10.2329 Y18.9773
G01 X10.2137 Y18.9858
G01 X10.1950 Y18.9955
G01 X10.0822 Y19.0585
G01 X10.0647 Y19.0702
G01 X9.9596 Y19.1455
G01 X9.9436 Y19.1590
G01 X9.8476 Y19.2456
G01 X9.7610 Y19.3416
G01 X9.7475 Y19.3576
G01 X9.7348 Y19.3744
G01 X9.6722 Y19.4627
G01 X9.6605 Y19.4802
G01 X9.6498 Y19.4983
G01 X9.6274 Y19.5389
G01 X9.0929 Y19.5389
G01 X9.0597 Y19.4799
G01 X8.9853 Y19.3741
G01 X8.9727 Y19.3573
G01 X8.8870 Y19.2605
G01 X8.8725 Y19.2453
G01 X8.7765 Y19.1587
G01 X8.7605 Y19.1451
G01 X8.6554 Y19.0698
G01 X8.6379 Y19.0581
G01 X8.5250 Y18.9951
G01 X8.5063 Y18.9854
G01 X8.4871 Y18.9768
G01 X8.3871 Y18.9354
G01 X8.3675 Y18.9279
G01 X8.3521 Y18.9230
G00 Z2.0000
G00 X8.6013 Y18.9230
G01 F30.00
G01 Z-0.0800
G01 F90.00
G01 X8.6681 Y18.8861
G01 X8.6911 Y18.8725
G01 X8.7132 Y18.8577
G01 X8.8015 Y18.7951
G01 X8.8228 Y18.7791
G01 X8.8432 Y18.7619
G01 X8.9239 Y18.6898
G01 X8.9433 Y18.6715
G01 X8.9616 Y18.6521
G01 X9.0337 Y18.5714
G01 X9.0509 Y18.5510
G01 X9.0669 Y18.5297
G01 X9.1295 Y18.4414
G01 X9.1443 Y18.4193
G01 X9.1515 Y18.4071
G01 X9.5688 Y18.4071
G01 X9.5759 Y18.4190
G01 X9.5907 Y18.4412
G01 X9.6533 Y18.5294
G01 X9.6693 Y18.5507
G01 X9.6865 Y18.5711
G01 X9.7586 Y18.6518
G01 X9.7769 Y18.6711
G01 X9.7962 Y18.6894
G01 X9.8769 Y18.7615
G01 X9.8973 Y18.7787
G01 X9.9186 Y18.7947
G01 X10.0068 Y18.8573
G01 X10.0290 Y18.8721
G01 X10.0519 Y18.8857
G01 X10.1194 Y18.9230
G01 X10.0519 Y18.9603
G01 X10.0290 Y18.9739
G01 X10.0068 Y18.9887
G01 X9.9186 Y19.0513
G01 X9.8973 Y19.0673
G01 X9.8769 Y19.0845
G01 X9.7962 Y19.1566
G01 X9.7769 Y19.1749
G01 X9.7586 Y19.1942
G01 X9.6865 Y19.2749
G01 X9.6693 Y19.2953
G01 X9.6533 Y19.3166
G01 X9.5907 Y19.4048
G01 X9.5759 Y19.4270
G01 X9.5688 Y19.4389
G01 X9.1515 Y19.4389
G01 X9.1443 Y19.4267
G01 X9.1295 Y19.4046
G01 X9.0669 Y19.3163
G01 X9.0509 Y19.2950
G01 X9.0337 Y19.2746
G01 X8.9616 Y19.1939
G01 X8.9433 Y19.1745
G01 X8.9239 Y19.1562
G01 X8.8432 Y19.0841
G01 X8.8228 Y19.0669
G01 X8.8015 Y19.0509
G01 X8.7132 Y18.9883
G01 X8.6911 Y18.9735
G01 X8.6681 Y18.9599
G01 X8.6013 Y18.9230
G00 Z2.0000
G00 X8.7941 Y18.9230
G01 F30.00
G01 Z-0.0800
G01 F90.00
G01 X8.8594 Y18.8767
G01 X8.8852 Y18.8573
G01 X8.9098 Y18.8365
G01 X8.9905 Y18.7643
G01 X9.0140 Y18.7422
G01 X9.0361 Y18.7187
G01 X9.1083 Y18.6380
G01 X9.1291 Y18.6134
G01 X9.1485 Y18.5876
G01 X9.2056 Y18.5071
G01 X9.5148 Y18.5071
G01 X9.5717 Y18.5873
G01 X9.5911 Y18.6131
G01 X9.6119 Y18.6377
G01 X9.6840 Y18.7184
G01 X9.7062 Y18.7418
G01 X9.7296 Y18.7640
G01 X9.8103 Y18.8361
G01 X9.8349 Y18.8569
G01 X9.8607 Y18.8763
G01 X9.9265 Y18.9230
G01 X9.8607 Y18.9697
G01 X9.8349 Y18.9891
G01 X9.8103 Y19.0099
G01 X9.7296 Y19.0820
G01 X9.7062 Y19.1042
G01 X9.6840 Y19.1276
G01 X9.6119 Y19.2083
G01 X9.5911 Y19.2329
G01 X9.5717 Y19.2587
G01 X9.5148 Y19.3389
G01 X9.2056 Y19.3389
G01 X9.1485 Y19.2584
G01 X9.1291 Y19.2326
G01 X9.1083 Y19.2080
G01 X9.0361 Y19.1273
G01 X9.0140 Y19.1038
G01 X8.9905 Y19.0817
G01 X8.9098 Y19.0095
G01 X8.8852 Y18.9887
G01 X8.8594 Y18.9693
G01 X8.7941 Y18.9230
G00 Z2.0000
G00 X8.9623 Y18.9230
G01 F30.00
G01 Z-0.0800
G01 F90.00
G01 X9.0572 Y18.8389
G01 X9.0847 Y18.8129
G01 X9.1107 Y18.7854
G01 X9.1828 Y18.7046
G01 X9.2072 Y18.6757
G01 X9.2300 Y18.6455
G01 X9.2572 Y18.6071
G01 X9.4632 Y18.6071
G01 X9.4902 Y18.6452
G01 X9.5129 Y18.6754
G01 X9.5374 Y18.7044
G01 X9.6094 Y18.7850
G01 X9.6355 Y18.8125
G01 X9.6630 Y18.8386
G01 X9.7583 Y18.9230
G01 X9.6630 Y19.0074
G01 X9.6355 Y19.0335
G01 X9.6094 Y19.0610
G01 X9.5374 Y19.1416
G01 X9.5129 Y19.1706
G01 X9.4902 Y19.2008
G01 X9.4632 Y19.2389
G01 X9.2572 Y19.2389
G01 X9.2300 Y19.2005
G01 X9.2072 Y19.1703
G01 X9.1828 Y19.1414
G01 X9.1107 Y19.0606
G01 X9.0847 Y19.0331
G01 X9.0572 Y19.0071
G01 X8.9623 Y18.9230
G00 Z2.0000
G00 X7.9255 Y18.8933
G01 F30.00
G01 Z-0.0800
G01 F90.00
G01 X8.0483 Y18.8868
G01 X8.0789 Y18.8834
G01 X8.2008 Y18.8622
G01 X8.3198 Y18.8284
G01 X8.3489 Y18.8182
G01 X8.4630 Y18.7705
G01 X8.5847 Y18.7032
G01 X8.6981 Y18.6227
G01 X8.7906 Y18.5406
G01 X8.8124 Y18.5188
G01 X8.8846 Y18.4381
G01 X8.9038 Y18.4140
G01 X8.9750 Y18.3129
G01 X9.0339 Y18.2071
G01 X9.6864 Y18.2071
G01 X9.7452 Y18.3126
G01 X9.8257 Y18.4260
G01 X9.9183 Y18.5297
G01 X10.0220 Y18.6223
G01 X10.1354 Y18.7028
G01 X10.2571 Y18.7701
G01 X10.3855 Y18.8233
G01 X10.5191 Y18.8618
G01 X10.6409 Y18.8829
G01 X10.6716 Y18.8863
G01 X10.7950 Y18.8928
G01 X10.9338 Y18.8850
G01 X11.0558 Y18.8648
G01 X11.0858 Y18.8579
G01 X11.2045 Y18.8233
G01 X11.3189 Y18.7764
G01 X11.3467 Y18.7630
G01 X11.4546 Y18.7028
G01 X11.5557 Y18.6316
G01 X11.5798 Y18.6124
G01 X11.6605 Y18.5403
G01 X11.6823 Y18.5185
G01 X11.7643 Y18.4260
G01 X11.8448 Y18.3126
G01 X11.9121 Y18.1909
G01 X11.9653 Y18.0625
G01 X12.0038 Y17.9289
G01 X12.0249 Y17.8071
G01 X12.0283 Y17.7764
G01 X12.0344 Y17.6684
G01 X12.0344 Y17.6376
G01 X12.0270 Y17.5142
G01 X12.0038 Y17.3771
G01 X11.9653 Y17.2435
G01 X11.9184 Y17.1291
G01 X11.9050 Y17.1013
G01 X11.8448 Y16.9934
G01 X11.7736 Y16.8923
G01 X11.7544 Y16.8682
G01 X11.6717 Y16.7763
G01 X11.5798 Y16.6936
G01 X11.5557 Y16.6744
G01 X11.4546 Y16.6032
G01 X11.3467 Y16.5430
G01 X11.3189 Y16.5296
G01 X11.2045 Y16.4827
G01 X11.0858 Y16.4481
G01 X11.0558 Y16.4412
G01 X10.9338 Y16.4210
G01 X10.7950 Y16.4132
G01 X10.6562 Y16.4210
G01 X10.5342 Y16.4412
G01 X10.5042 Y16.4481
G01 X10.3855 Y16.4827
G01 X10.2711 Y16.5296
G01 X10.2433 Y16.5430
G01 X10.1354 Y16.6032
G01 X10.0220 Y16.6837
G01 X9.9295 Y16.7657
G01 X9.9077 Y16.7875
G01 X9.8356 Y16.8682
G01 X9.8164 Y16.8923
G01 X9.7452 Y16.9934
G01 X9.6864 Y17.0989
G01 X9.0339 Y17.0989
G01 X8.9750 Y16.9931
G01 X8.9038 Y16.8920
G01 X8.8846 Y16.8679
G01 X8.8124 Y16.7872
G01 X8.7906 Y16.7654
G01 X8.6981 Y16.6833
G01 X8.5847 Y16.6028
G01 X8.4630 Y16.5355
G01 X8.3489 Y16.4878
G01 X8.3198 Y16.4776
G01 X8.2008 Y16.4438
G01 X8.0789 Y16.4226
G01 X8.0483 Y16.4192
G01 X7.9332 Y16.4128
G01 X6.0445 Y16.4127
G01 X5.9063 Y16.4205
G01 X5.7843 Y16.4408
G01 X5.7543 Y16.4476
G01 X5.6356 Y16.4823
G01 X5.5211 Y16.5292
G01 X5.4933 Y16.5426
G01 X5.3986 Y16.5950
G01 X5.3725 Y16.6114
G01 X5.2719 Y16.6833
G01 X5.1682 Y16.7760
G01 X5.0755 Y16.8797
G01 X4.9950 Y16.9931
G01 X4.9277 Y17.1149
G01 X4.8800 Y17.2289
G01 X4.8698 Y17.2581
G01 X4.8398 Y17.3621
G01 X4.8330 Y17.3921
G01 X4.8127 Y17.5141
G01 X4.8049 Y17.6530
G01 X4.8127 Y17.7919
G01 X4.8360 Y17.9290
G01 X4.8745 Y18.0626
G01 X4.9214 Y18.1771
G01 X4.9348 Y18.2049
G01 X4.9872 Y18.2996
G01 X5.0036 Y18.3257
G01 X5.0755 Y18.4263
G01 X5.1682 Y18.5300
G01 X5.2719 Y18.6227
G01 X5.3853 Y18.7032
G01 X5.5070 Y18.7705
G01 X5.6356 Y18.8237
G01 X5.7692 Y18.8622
G01 X5.8911 Y18.8834
G01 X5.9217 Y18.8868
G01 X6.0445 Y18.8933
G01 X7.9255 Y18.8933
G00 Z2.0000
G00 X7.9255 Y18.7933
G01 F30.00
G01 Z-0.0800
G01 F90.00
G01 X8.0427 Y18.7870
G01 X8.0622 Y18.7848
G01 X8.1785 Y18.7647
G01 X8.2921 Y18.7323
G01 X8.3106 Y18.7258
G01 X8.4196 Y18.6804
G01 X8.5315 Y18.6185
G01 X8.6279 Y18.5504
G01 X8.6433 Y18.5382
G01 X8.7311 Y18.4593
G01 X8.8100 Y18.3715
G01 X8.8222 Y18.3561
G01 X8.8903 Y18.2597
G01 X8.9477 Y18.1565
G01 X8.9562 Y18.1388
G01 X8.9693 Y18.1071
G01 X9.7510 Y18.1071
G01 X9.7640 Y18.1386
G01 X9.7725 Y18.1563
G01 X9.8249 Y18.2510
G01 X9.8353 Y18.2676
G01 X9.9038 Y18.3637
G01 X9.9890 Y18.4590
G01 X10.0843 Y18.5442
G01 X10.1804 Y18.6127
G01 X10.1970 Y18.6231
G01 X10.2917 Y18.6755
G01 X10.3094 Y18.6840
G01 X10.4185 Y18.7289
G01 X10.5414 Y18.7643
G01 X10.6674 Y18.7857
G01 X10.7852 Y18.7926
G01 X10.8048 Y18.7926
G01 X10.9226 Y18.7857
G01 X11.0390 Y18.7662
G01 X11.0581 Y18.7618
G01 X11.1621 Y18.7319
G01 X11.1806 Y18.7254
G01 X11.2896 Y18.6800
G01 X11.4014 Y18.6181
G01 X11.5057 Y18.5442
G01 X11.5939 Y18.4657
G01 X11.6077 Y18.4519
G01 X11.6798 Y18.3712
G01 X11.6921 Y18.3558
G01 X11.7601 Y18.2594
G01 X11.8220 Y18.1476
G01 X11.8709 Y18.0295
G01 X11.9063 Y17.9066
G01 X11.9277 Y17.7806
G01 X11.9346 Y17.6628
G01 X11.9346 Y17.6432
G01 X11.9277 Y17.5254
G01 X11.9082 Y17.4090
G01 X11.9038 Y17.3899
G01 X11.8739 Y17.2859
G01 X11.8674 Y17.2674
G01 X11.8220 Y17.1584
G01 X11.7651 Y17.0550
G01 X11.7547 Y17.0384
G01 X11.6862 Y16.9423
G01 X11.6077 Y16.8541
G01 X11.5939 Y16.8403
G01 X11.5057 Y16.7618
G01 X11.4096 Y16.6933
G01 X11.3930 Y16.6829
G01 X11.2896 Y16.6260
G01 X11.1806 Y16.5806
G01 X11.1621 Y16.5741
G01 X11.0581 Y16.5442
G01 X11.0390 Y16.5398
G01 X10.9226 Y16.5203
G01 X10.8048 Y16.5134
G01 X10.7852 Y16.5134
G01 X10.6674 Y16.5203
G01 X10.5510 Y16.5398
G01 X10.5319 Y16.5442
G01 X10.4185 Y16.5771
G01 X10.3094 Y16.6220
G01 X10.2917 Y16.6305
G01 X10.1886 Y16.6879
G01 X10.0922 Y16.7559
G01 X10.0768 Y16.7682
G01 X9.9890 Y16.8470
G01 X9.9102 Y16.9348
G01 X9.8979 Y16.9502
G01 X9.8299 Y17.0466
G01 X9.7725 Y17.1497
G01 X9.7640 Y17.1674
G01 X9.7510 Y17.1989
G01 X8.9693 Y17.1989
G01 X8.9562 Y17.1672
G01 X8.9477 Y17.1495
G01 X8.8903 Y17.0463
G01 X8.8222 Y16.9499
G01 X8.8100 Y16.9345
G01 X8.7311 Y16.8467
G01 X8.6433 Y16.7678
G01 X8.6279 Y16.7556
G01 X8.5315 Y16.6875
G01 X8.4196 Y16.6256
G01 X8.3106 Y16.5802
G01 X8.2921 Y16.5737
G01 X8.1785 Y16.5413
G01 X8.0622 Y16.5212
G01 X8.0427 Y16.5190
G01 X7.9304 Y16.5128
G01 X6.0445 Y16.5127
G01 X5.9175 Y16.5199
G01 X5.8011 Y16.5394
G01 X5.7820 Y16.5437
G01 X5.6686 Y16.5767
G01 X5.5594 Y16.6216
G01 X5.5417 Y16.6301
G01 X5.4470 Y16.6825
G01 X5.4304 Y16.6929
G01 X5.3342 Y16.7615
G01 X5.2389 Y16.8467
G01 X5.1537 Y16.9420
G01 X5.0797 Y17.0463
G01 X5.0178 Y17.1582
G01 X4.9724 Y17.2672
G01 X4.9659 Y17.2857
G01 X4.9359 Y17.3898
G01 X4.9316 Y17.4089
G01 X4.9121 Y17.5253
G01 X4.9049 Y17.6530
G01 X4.9121 Y17.7807
G01 X4.9335 Y17.9067
G01 X4.9689 Y18.0296
G01 X5.0138 Y18.1388
G01 X5.0223 Y18.1565
G01 X5.0747 Y18.2512
G01 X5.0851 Y18.2678
G01 X5.1537 Y18.3640
G01 X5.2389 Y18.4593
G01 X5.3342 Y18.5445
G01 X5.4385 Y18.6185
G01 X5.5504 Y18.6804
G01 X5.6686 Y18.7293
G01 X5.7915 Y18.7647
G01 X5.9078 Y18.7848
G01 X5.9273 Y18.7870
G01 X6.0445 Y18.7933
G01 X7.9255 Y18.7933
G00 Z2.0000
G00 X8.3521 Y16.3830
G01 F30.00
G01 Z-0.0800
G01 F90.00
G01 X8.3675 Y16.3781
G01 X8.3871 Y16.3706
G01 X8.4871 Y16.3292
G01 X8.5063 Y16.3206
G01 X8.5250 Y16.3109
G01 X8.6379 Y16.2479
G01 X8.7437 Y16.1735
G01 X8.7605 Y16.1609
G01 X8.8573 Y16.0752
G01 X8.8725 Y16.0607
G01 X8.8870 Y16.0455
G01 X8.9727 Y15.9487
G01 X8.9853 Y15.9319
G01 X9.0597 Y15.8261
G01 X9.0929 Y15.7671
G01 X9.6274 Y15.7671
G01 X9.6498 Y15.8077
G01 X9.6605 Y15.8258
G01 X9.6722 Y15.8433
G01 X9.7348 Y15.9316
G01 X9.7475 Y15.9484
G01 X9.7610 Y15.9644
G01 X9.8476 Y16.0604
G01 X9.8629 Y16.0749
G01 X9.9596 Y16.1605
G01 X9.9764 Y16.1732
G01 X10.0822 Y16.2475
G01 X10.1950 Y16.3105
G01 X10.2137 Y16.3202
G01 X10.2329 Y16.3287
G01 X10.3328 Y16.3702
G01 X10.3525 Y16.3777
G01 X10.3693 Y16.3830
G01 X10.3525 Y16.3883
G01 X10.3328 Y16.3958
G01 X10.2329 Y16.4373
G01 X10.2137 Y16.4458
G01 X10.1950 Y16.4555
G01 X10.0822 Y16.5185
G01 X10.0647 Y16.5302
G01 X9.9596 Y16.6055
G01 X9.9436 Y16.6190
G01 X9.8476 Y16.7056
G01 X9.7610 Y16.8016
G01 X9.7475 Y16.8176
G01 X9.7348 Y16.8344
G01 X9.6722 Y16.9227
G01 X9.6605 Y16.9402
G01 X9.6498 Y16.9583
G01 X9.6274 Y16.9989
G01 X9.0929 Y16.9989
G01 X9.0597 Y16.9399
G01 X8.9853 Y16.8341
G01 X8.9727 Y16.8173
G01 X8.8870 Y16.7205
G01 X8.8725 Y16.7053
G01 X8.7765 Y16.6187
G01 X8.7605 Y16.6051
G01 X8.6554 Y16.5298
G01 X8.6379 Y16.5181
G01 X8.5250 Y16.4551
G01 X8.5063 Y16.4454
G01 X8.4871 Y16.4368
G01 X8.3871 Y16.3954
G01 X8.3675 Y16.3879
G01 X8.3521 Y16.3830
G00 Z2.0000
G00 X8.6013 Y16.3830
G01 F30.00
G01 Z-0.0800
G01 F90.00
G01 X8.6681 Y16.3461
G01 X8.6911 Y16.3325
G01 X8.7132 Y16.3177
G01 X8.8015 Y16.2551
G01 X8.8228 Y16.2391
G01 X8.8432 Y16.2219
G01 X8.9239 Y16.1498
G01 X8.9433 Y16.1315
G01 X8.9616 Y16.1121
G01 X9.0337 Y16.0314
G01 X9.0509 Y16.0110
G01 X9.0669 Y15.9897
G01 X9.1295 Y15.9014
G01 X9.1443 Y15.8793
G01 X9.1515 Y15.8671
G01 X9.5688 Y15.8671
G01 X9.5759 Y15.8790
G01 X9.5907 Y15.9012
G01 X9.6533 Y15.9894
G01 X9.6693 Y16.0107
G01 X9.6865 Y16.0311
G01 X9.7586 Y16.1118
G01 X9.7769 Y16.1311
G01 X9.7962 Y16.1494
G01 X9.8769 Y16.2215
G01 X9.8973 Y16.2387
G01 X9.9186 Y16.2547
G01 X10.0068 Y16.3173
G01 X10.0290 Y16.3321
G01 X10.0519 Y16.3457
G01 X10.1194 Y16.3830
G01 X10.0519 Y16.4203
G01 X10.0290 Y16.4339
G01 X10.0068 Y16.4487
G01 X9.9186 Y16.5113
G01 X9.8973 Y16.5273
G01 X9.8769 Y16.5445
G01 X9.7962 Y16.6166
G01 X9.7769 Y16.6349
G01 X9.7586 Y16.6542
G01 X9.6865 Y16.7349
G01 X9.6693 Y16.7553
G01 X9.6533 Y16.7766
G01 X9.5907 Y16.8648
G01 X9.5759 Y16.8870
G01 X9.5688 Y16.8989
G01 X9.1515 Y16.8989
G01 X9.1443 Y16.8867
G01 X9.1295 Y16.8646
G01 X9.0669 Y16.7763
G01 X9.0509 Y16.7550
G01 X9.0337 Y16.7346
G01 X8.9616 Y16.6539
G01 X8.9433 Y16.6345
G01 X8.9239 Y16.6162
G01 X8.8432 Y16.5441
G01 X8.8228 Y16.5269
G01 X8.8015 Y16.5109
G01 X8.7132 Y16.4483
G01 X8.6911 Y16.4335
G01 X8.6681 Y16.4199
G01 X8.6013 Y16.3830
G00 Z2.0000
G00 X8.7941 Y16.3830
G01 F30.00
G01 Z-0.0800
G01 F90.00
G01 X8.8594 Y16.3367
G01 X8.8852 Y16.3173
G01 X8.9098 Y16.2965
G01 X8.9905 Y16.2243
G01 X9.0140 Y16.2022
G01 X9.0361 Y16.1787
G01 X9.1083 Y16.0980
G01 X9.1291 Y16.0734
G01 X9.1485 Y16.0476
G01 X9.2056 Y15.9671
G01 X9.5148 Y15.9671
G01 X9.5717 Y16.0473
G01 X9.5911 Y16.0731
G01 X9.6119 Y16.0977
G01 X9.6840 Y16.1784
G01 X9.7062 Y16.2018
G01 X9.7296 Y16.2240
G01 X9.8103 Y16.2961
G01 X9.8349 Y16.3169
G01 X9.8607 Y16.3363
G01 X9.9265 Y16.3830
G01 X9.8607 Y16.4297
G01 X9.8349 Y16.4491
G01 X9.8103 Y16.4699
G01 X9.7296 Y16.5420
G01 X9.7062 Y16.5642
G01 X9.6840 Y16.5876
G01 X9.6119 Y16.6683
G01 X9.5911 Y16.6929
G01 X9.5717 Y16.7187
G01 X9.5148 Y16.7989
G01 X9.2056 Y16.7989
G01 X9.1485 Y16.7184
G01 X9.1291 Y16.6926
G01 X9.1083 Y16.6680
G01 X9.0361 Y16.5873
G01 X9.0140 Y16.5638
G01 X8.9905 Y16.5417
G01 X8.9098 Y16.4695
G01 X8.8852 Y16.4487
G01 X8.8594 Y16.4293
G01 X8.7941 Y16.3830
G00 Z2.0000
G00 X8.9623 Y16.3830
G01 F30.00
G01 Z-0.0800
G01 F90.00
G01 X9.0572 Y16.2989
G01 X9.0847 Y16.2729
G01 X9.1107 Y16.2454
G01 X9.1828 Y16.1646
G01 X9.2072 Y16.1357
G01 X9.2300 Y16.1055
G01 X9.2572 Y16.0671
G01 X9.4632 Y16.0671
G01 X9.4902 Y16.1052
G01 X9.5129 Y16.1354
G01 X9.5374 Y16.1644
G01 X9.6094 Y16.2450
G01 X9.6355 Y16.2725
G01 X9.6630 Y16.2986
G01 X9.7583 Y16.3830
G01 X9.6630 Y16.4674
G01 X9.6355 Y16.4935
G01 X9.6094 Y16.5210
G01 X9.5374 Y16.6016
G01 X9.5129 Y16.6306
G01 X9.4902 Y16.6608
G01 X9.4632 Y16.6989
G01 X9.2572 Y16.6989
G01 X9.2300 Y16.6605
G01 X9.2072 Y16.6303
G01 X9.1828 Y16.6014
G01 X9.1107 Y16.5206
G01 X9.0847 Y16.4931
G01 X9.0572 Y16.4671
G01 X8.9623 Y16.3830
G00 Z2.0000
G00 X8.9623 Y13.8430
G01 F30.00
G01 Z-0.0800
G01 F90.00
G01 X9.0572 Y13.7589
G01 X9.0847 Y13.7329
G01 X9.1107 Y13.7054
G01 X9.1828 Y13.6246
G01 X9.2072 Y13.5957
G01 X9.2300 Y13.5655
G01 X9.2572 Y13.5271
G01 X9.4632 Y13.5271
G01 X9.4902 Y13.5652
G01 X9.5129 Y13.5954
G01 X9.5374 Y13.6244
G01 X9.6094 Y13.7050
G01 X9.6355 Y13.7325
G01 X9.6630 Y13.7586
G01 X9.7583 Y13.8430
G01 X9.6630 Y13.9274
G01 X9.6355 Y13.9535
G01 X9.6094 Y13.9810
G01 X9.5374 Y14.0616
G01 X9.5129 Y14.0906
G01 X9.4902 Y14.1208
G01 X9.4632 Y14.1589
G01 X9.2572 Y14.1589
G01 X9.2300 Y14.1205
G01 X9.2072 Y14.0903
G01 X9.1828 Y14.0614
G01 X9.1107 Y13.9806
G01 X9.0847 Y13.9531
G01 X9.0572 Y13.9271
G01 X8.9623 Y13.8430
G00 Z2.0000
G00 X8.7941 Y13.8430
G01 F30.00
G01 Z-0.0800
G01 F90.00
G01 X8.8594 Y13.7967
G01 X8.8852 Y13.7773
G01 X8.9098 Y13.7565
G01 X8.9905 Y13.6843
G01 X9.0140 Y13.6622
G01 X9.0361 Y13.6387
G01 X9.1083 Y13.5580
G01 X9.1291 Y13.5334
G01 X9.1485 Y13.5076
G01 X9.2056 Y13.4271
G01 X9.5148 Y13.4271
G01 X9.5717 Y13.5073
G01 X9.5911 Y13.5331
G01 X9.6119 Y13.5577
G01 X9.6840 Y13.6384
G01 X9.7062 Y13.6618
G01 X9.7296 Y13.6840
G01 X9.8103 Y13.7561
G01 X9.8349 Y13.7769
G01 X9.8607 Y13.7963
G01 X9.9265 Y13.8430
G01 X9.8607 Y13.8897
G01 X9.8349 Y13.9091
G01 X9.8103 Y13.9299
G01 X9.7296 Y14.0020
G01 X9.7062 Y14.0242
G01 X9.6840 Y14.0476
G01 X9.6119 Y14.1283
G01 X9.5911 Y14.1529
G01 X9.5717 Y14.1787
G01 X9.5148 Y14.2589
G01 X9.2056 Y14.2589
G01 X9.1485 Y14.1784
G01 X9.1291 Y14.1526
G01 X9.1083 Y14.1280
G01 X9.0361 Y14.0473
G01 X9.0140 Y14.0238
G01 X8.9905 Y14.0017
G01 X8.9098 Y13.9295
G01 X8.8852 Y13.9087
G01 X8.8594 Y13.8893
G01 X8.7941 Y13.8430
G00 Z2.0000
G00 X8.6013 Y13.8430
G01 F30.00
G01 Z-0.0800
G01 F90.00
G01 X8.6681 Y13.8061
G01 X8.6911 Y13.7925
G01 X8.7132 Y13.7777
G01 X8.8015 Y13.7151
G01 X8.8228 Y13.6991
G01 X8.8432 Y13.6819
G01 X8.9239 Y13.6098
G01 X8.9433 Y13.5915
G01 X8.9616 Y13.5721
G01 X9.0337 Y13.4914
G01 X9.0509 Y13.4710
G01 X9.0669 Y13.4497
G01 X9.1295 Y13.3614
G01 X9.1443 Y13.3393
G01 X9.1515 Y13.3271
G01 X9.5688 Y13.3271
G01 X9.5759 Y13.3390
G01 X9.5907 Y13.3612
G01 X9.6533 Y13.4494
G01 X9.6693 Y13.4707
G01 X9.6865 Y13.4911
G01 X9.7586 Y13.5718
G01 X9.7769 Y13.5911
G01 X9.7962 Y13.6094
G01 X9.8769 Y13.6815
G01 X9.8973 Y13.6987
G01 X9.9186 Y13.7147
G01 X10.0068 Y13.7773
G01 X10.0290 Y13.7921
G01 X10.0519 Y13.8057
G01 X10.1194 Y13.8430
G01 X10.0519 Y13.8803
G01 X10.0290 Y13.8939
G01 X10.0068 Y13.9087
G01 X9.9186 Y13.9713
G01 X9.8973 Y13.9873
G01 X9.8769 Y14.0045
G01 X9.7962 Y14.0766
G01 X9.7769 Y14.0949
G01 X9.7586 Y14.1142
G01 X9.6865 Y14.1949
G01 X9.6693 Y14.2153
G01 X9.6533 Y14.2366
G01 X9.5907 Y14.3248
G01 X9.5759 Y14.3470
G01 X9.5688 Y14.3589
G01 X9.1515 Y14.3589
G01 X9.1443 Y14.3467
G01 X9.1295 Y14.3246
G01 X9.0669 Y14.2363
G01 X9.0509 Y14.2150
G01 X9.0337 Y14.1946
G01 X8.9616 Y14.1139
G01 X8.9433 Y14.0945
G01 X8.9239 Y14.0762
G01 X8.8432 Y14.0041
G01 X8.8228 Y13.9869
G01 X8.8015 Y13.9709
G01 X8.7132 Y13.9083
G01 X8.6911 Y13.8935
G01 X8.6681 Y13.8799
G01 X8.6013 Y13.8430
G00 Z2.0000
G00 X8.3521 Y13.8430
G01 F30.00
G01 Z-0.0800
G01 F90.00
G01 X8.3675 Y13.8381
G01 X8.3871 Y13.8306
G01 X8.4871 Y13.7892
G01 X8.5063 Y13.7806
G01 X8.5250 Y13.7709
G01 X8.6379 Y13.7079
G01 X8.7437 Y13.6335
G01 X8.7605 Y13.6209
G01 X8.8573 Y13.5352
G01 X8.8725 Y13.5207
G01 X8.8870 Y13.5055
G01 X8.9727 Y13.4087
G01 X8.9853 Y13.3919
G01 X9.0597 Y13.2861
G01 X9.0929 Y13.2271
G01 X9.6274 Y13.2271
G01 X9.6498 Y13.2677
G01 X9.6605 Y13.2858
G01 X9.6722 Y13.3033
G01 X9.7348 Y13.3916
G01 X9.7475 Y13.4084
G01 X9.7610 Y13.4244
G01 X9.8476 Y13.5204
G01 X9.8629 Y13.5349
G01 X9.9596 Y13.6205
G01 X9.9764 Y13.6332
G01 X10.0822 Y13.7075
G01 X10.1950 Y13.7705
G01 X10.2137 Y13.7802
G01 X10.2329 Y13.7887
G01 X10.3328 Y13.8302
G01 X10.3525 Y13.8377
G01 X10.3693 Y13.8430
G01 X10.3525 Y13.8483
G01 X10.3328 Y13.8558
G01 X10.2329 Y13.8973
G01 X10.2137 Y13.9058
G01 X10.1950 Y13.9155
G01 X10.0822 Y13.9785
G01 X9.9764 Y14.0528
G01 X9.9596 Y14.0655
G01 X9.8629 Y14.1511
G01 X9.8476 Y14.1656
G01 X9.7610 Y14.2616
G01 X9.7475 Y14.2776
G01 X9.7348 Y14.2944
G01 X9.6722 Y14.3827
G01 X9.6605 Y14.4002
G01 X9.6498 Y14.4183
G01 X9.6274 Y14.4589
G01 X9.0929 Y14.4589
G01 X9.0597 Y14.3999
G01 X8.9853 Y14.2941
G01 X8.9727 Y14.2773
G01 X8.8870 Y14.1805
G01 X8.8725 Y14.1653
G01 X8.8573 Y14.1508
G01 X8.7605 Y14.0651
G01 X8.7437 Y14.0525
G01 X8.6379 Y13.9781
G01 X8.5250 Y13.9151
G01 X8.5063 Y13.9054
G01 X8.4871 Y13.8968
G01 X8.3871 Y13.8554
G01 X8.3675 Y13.8479
G01 X8.3521 Y13.8430
G00 Z2.0000
G00 X7.9255 Y13.8133
G01 F30.00
G01 Z-0.0800
G01 F90.00
G01 X8.0483 Y13.8068
G01 X8.0789 Y13.8034
G01 X8.2008 Y13.7822
G01 X8.3197 Y13.7484
G01 X8.3489 Y13.7382
G01 X8.4629 Y13.6905
G01 X8.5847 Y13.6232
G01 X8.6981 Y13.5427
G01 X8.7906 Y13.4606
G01 X8.8124 Y13.4388
G01 X8.8846 Y13.3581
G01 X8.9038 Y13.3340
G01 X8.9750 Y13.2329
G01 X9.0339 Y13.1271
G01 X9.6864 Y13.1271
G01 X9.7452 Y13.2326
G01 X9.8257 Y13.3460
G01 X9.9183 Y13.4497
G01 X10.0220 Y13.5423
G01 X10.1354 Y13.6228
G01 X10.2571 Y13.6901
G01 X10.3855 Y13.7433
G01 X10.5191 Y13.7818
G01 X10.6409 Y13.8029
G01 X10.6716 Y13.8063
G01 X10.7950 Y13.8128
G01 X10.9338 Y13.8050
G01 X11.0558 Y13.7848
G01 X11.0858 Y13.7779
G01 X11.2045 Y13.7433
G01 X11.3189 Y13.6964
G01 X11.3467 Y13.6830
G01 X11.4413 Y13.6306
G01 X11.4675 Y13.6142
G01 X11.5680 Y13.5423
G01 X11.6605 Y13.4603
G01 X11.6823 Y13.4385
G01 X11.7643 Y13.3460
G01 X11.8448 Y13.2326
G01 X11.9121 Y13.1109
G01 X11.9653 Y12.9825
G01 X12.0038 Y12.8489
G01 X12.0249 Y12.7271
G01 X12.0283 Y12.6964
G01 X12.0344 Y12.5884
G01 X12.0344 Y12.5576
G01 X12.0270 Y12.4342
G01 X12.0038 Y12.2971
G01 X11.9653 Y12.1635
G01 X11.9184 Y12.0491
G01 X11.9050 Y12.0213
G01 X11.8448 Y11.9134
G01 X11.7736 Y11.8123
G01 X11.7544 Y11.7882
G01 X11.6717 Y11.6963
G01 X11.5798 Y11.6136
G01 X11.5557 Y11.5944
G01 X11.4546 Y11.5232
G01 X11.3467 Y11.4630
G01 X11.3189 Y11.4496
G01 X11.2045 Y11.4027
G01 X11.0858 Y11.3681
G01 X11.0558 Y11.3612
G01 X10.9338 Y11.3410
G01 X10.7950 Y11.3332
G01 X10.6562 Y11.3410
G01 X10.5342 Y11.3612
G01 X10.5042 Y11.3681
G01 X10.3855 Y11.4027
G01 X10.2711 Y11.4496
G01 X10.2433 Y11.4630
G01 X10.1354 Y11.5232
G01 X10.0220 Y11.6037
G01 X9.9295 Y11.6857
G01 X9.9077 Y11.7075
G01 X9.8356 Y11.7882
G01 X9.8164 Y11.8123
G01 X9.7452 Y11.9134
G01 X9.6864 Y12.0189
G01 X9.0339 Y12.0189
G01 X8.9750 Y11.9131
G01 X8.9038 Y11.8120
G01 X8.8846 Y11.7879
G01 X8.8124 Y11.7072
G01 X8.7906 Y11.6854
G01 X8.6981 Y11.6033
G01 X8.5847 Y11.5228
G01 X8.4629 Y11.4555
G01 X8.3489 Y11.4078
G01 X8.3197 Y11.3976
G01 X8.2008 Y11.3638
G01 X8.0789 Y11.3426
G01 X8.0483 Y11.3392
G01 X7.9332 Y11.3328
G01 X6.0445 Y11.3327
G01 X5.9063 Y11.3405
G01 X5.7843 Y11.3608
G01 X5.7543 Y11.3676
G01 X5.6502 Y11.3976
G01 X5.6211 Y11.4078
G01 X5.5070 Y11.4555
G01 X5.3986 Y11.5150
G01 X5.3725 Y11.5314
G01 X5.2719 Y11.6033
G01 X5.1682 Y11.6960
G01 X5.0755 Y11.7997
G01 X4.9950 Y11.9131
G01 X4.9277 Y12.0348
G01 X4.8745 Y12.1634
G01 X4.8360 Y12.2970
G01 X4.8148 Y12.4189
G01 X4.8114 Y12.4495
G01 X4.8053 Y12.5576
G01 X4.8053 Y12.5884
G01 X4.8127 Y12.7119
G01 X4.8360 Y12.8490
G01 X4.8745 Y12.9826
G01 X4.9277 Y13.1112
G01 X4.9950 Y13.2329
G01 X5.0662 Y13.3340
G01 X5.0854 Y13.3581
G01 X5.1576 Y13.4388
G01 X5.1794 Y13.4606
G01 X5.2719 Y13.5427
G01 X5.3853 Y13.6232
G01 X5.5070 Y13.6905
G01 X5.6356 Y13.7437
G01 X5.7692 Y13.7822
G01 X5.8911 Y13.8034
G01 X5.9217 Y13.8068
G01 X6.0445 Y13.8133
G01 X7.9255 Y13.8133
G00 Z2.0000
G00 X7.9255 Y13.7133
G01 F30.00
G01 Z-0.0800
G01 F90.00
G01 X8.0427 Y13.7070
G01 X8.0622 Y13.7048
G01 X8.1785 Y13.6847
G01 X8.2921 Y13.6523
G01 X8.3106 Y13.6458
G01 X8.4196 Y13.6004
G01 X8.5315 Y13.5385
G01 X8.6279 Y13.4704
G01 X8.6433 Y13.4582
G01 X8.7311 Y13.3793
G01 X8.8100 Y13.2915
G01 X8.8222 Y13.2761
G01 X8.8903 Y13.1797
G01 X8.9477 Y13.0765
G01 X8.9562 Y13.0588
G01 X8.9693 Y13.0271
G01 X9.7510 Y13.0271
G01 X9.7640 Y13.0586
G01 X9.7725 Y13.0763
G01 X9.8249 Y13.1710
G01 X9.8353 Y13.1876
G01 X9.9038 Y13.2837
G01 X9.9890 Y13.3790
G01 X10.0843 Y13.4642
G01 X10.1804 Y13.5327
G01 X10.1970 Y13.5431
G01 X10.2917 Y13.5955
G01 X10.3094 Y13.6040
G01 X10.4185 Y13.6489
G01 X10.5414 Y13.6843
G01 X10.6674 Y13.7057
G01 X10.7852 Y13.7126
G01 X10.8048 Y13.7126
G01 X10.9226 Y13.7057
G01 X11.0390 Y13.6862
G01 X11.0581 Y13.6818
G01 X11.1621 Y13.6519
G01 X11.1806 Y13.6454
G01 X11.2896 Y13.6000
G01 X11.4014 Y13.5381
G01 X11.5057 Y13.4642
G01 X11.5939 Y13.3857
G01 X11.6077 Y13.3719
G01 X11.6798 Y13.2912
G01 X11.6921 Y13.2758
G01 X11.7601 Y13.1794
G01 X11.8220 Y13.0676
G01 X11.8709 Y12.9495
G01 X11.9063 Y12.8266
G01 X11.9277 Y12.7006
G01 X11.9346 Y12.5828
G01 X11.9346 Y12.5632
G01 X11.9277 Y12.4454
G01 X11.9082 Y12.3290
G01 X11.9038 Y12.3099
G01 X11.8739 Y12.2059
G01 X11.8674 Y12.1874
G01 X11.8220 Y12.0784
G01 X11.7651 Y11.9750
G01 X11.7547 Y11.9584
G01 X11.6862 Y11.8623
G01 X11.6077 Y11.7741
G01 X11.5939 Y11.7603
G01 X11.5057 Y11.6818
G01 X11.4096 Y11.6133
G01 X11.3930 Y11.6029
G01 X11.2896 Y11.5460
G01 X11.1806 Y11.5006
G01 X11.1621 Y11.4941
G01 X11.0581 Y11.4642
G01 X11.0390 Y11.4598
G01 X10.9226 Y11.4403
G01 X10.8048 Y11.4334
G01 X10.7852 Y11.4334
G01 X10.6674 Y11.4403
G01 X10.5510 Y11.4598
G01 X10.5319 Y11.4642
G01 X10.4185 Y11.4971
G01 X10.3094 Y11.5420
G01 X10.2917 Y11.5505
G01 X10.1886 Y11.6079
G01 X10.0922 Y11.6759
G01 X10.0768 Y11.6882
G01 X9.9890 Y11.7670
G01 X9.9102 Y11.8548
G01 X9.8979 Y11.8702
G01 X9.8299 Y11.9666
G01 X9.7725 Y12.0697
G01 X9.7640 Y12.0874
G01 X9.7510 Y12.1189
G01 X8.9693 Y12.1189
G01 X8.9562 Y12.0872
G01 X8.9477 Y12.0695
G01 X8.8903 Y11.9663
G01 X8.8222 Y11.8699
G01 X8.8100 Y11.8545
G01 X8.7311 Y11.7667
G01 X8.6433 Y11.6878
G01 X8.6279 Y11.6756
G01 X8.5315 Y11.6075
G01 X8.4196 Y11.5456
G01 X8.3106 Y11.5002
G01 X8.2921 Y11.4937
G01 X8.1785 Y11.4613
G01 X8.0622 Y11.4412
G01 X8.0427 Y11.4390
G01 X7.9304 Y11.4328
G01 X6.0445 Y11.4327
G01 X5.9175 Y11.4399
G01 X5.8011 Y11.4594
G01 X5.7820 Y11.4637
G01 X5.6779 Y11.4937
G01 X5.6594 Y11.5002
G01 X5.5504 Y11.5456
G01 X5.4470 Y11.6025
G01 X5.4304 Y11.6129
G01 X5.3342 Y11.6815
G01 X5.2389 Y11.7667
G01 X5.1537 Y11.8620
G01 X5.0797 Y11.9663
G01 X5.0178 Y12.0782
G01 X4.9689 Y12.1964
G01 X4.9335 Y12.3193
G01 X4.9134 Y12.4356
G01 X4.9112 Y12.4551
G01 X4.9052 Y12.5632
G01 X4.9052 Y12.5828
G01 X4.9121 Y12.7007
G01 X4.9335 Y12.8267
G01 X4.9689 Y12.9496
G01 X5.0178 Y13.0678
G01 X5.0797 Y13.1797
G01 X5.1478 Y13.2761
G01 X5.1600 Y13.2915
G01 X5.2321 Y13.3722
G01 X5.2460 Y13.3861
G01 X5.3342 Y13.4645
G01 X5.4385 Y13.5385
G01 X5.5504 Y13.6004
G01 X5.6686 Y13.6493
G01 X5.7915 Y13.6847
G01 X5.9078 Y13.7048
G01 X5.9273 Y13.7070
G01 X6.0445 Y13.7133
G01 X7.9255 Y13.7133
G00 Z2.0000
G00 X6.0445 Y13.8727
G01 F30.00
G01 Z-0.0800
G01 F90.00
G01 X5.9063 Y13.8805
G01 X5.7843 Y13.9008
G01 X5.7543 Y13.9076
G01 X5.6502 Y13.9376
G01 X5.6211 Y13.9478
G01 X5.5070 Y13.9955
G01 X5.3853 Y14.0628
G01 X5.2719 Y14.1433
G01 X5.1794 Y14.2254
G01 X5.1576 Y14.2472
G01 X5.0854 Y14.3279
G01 X5.0662 Y14.3520
G01 X4.9950 Y14.4531
G01 X4.9277 Y14.5748
G01 X4.8800 Y14.6889
G01 X4.8698 Y14.7181
G01 X4.8360 Y14.8370
G01 X4.8127 Y14.9741
G01 X4.8053 Y15.0976
G01 X4.8053 Y15.1284
G01 X4.8127 Y15.2519
G01 X4.8360 Y15.3890
G01 X4.8745 Y15.5226
G01 X4.9214 Y15.6371
G01 X4.9348 Y15.6649
G01 X4.9872 Y15.7596
G01 X5.0036 Y15.7857
G01 X5.0755 Y15.8863
G01 X5.1682 Y15.9900
G01 X5.2719 Y16.0827
G01 X5.3725 Y16.1546
G01 X5.3986 Y16.1710
G01 X5.4933 Y16.2234
G01 X5.5211 Y16.2368
G01 X5.6356 Y16.2837
G01 X5.7692 Y16.3222
G01 X5.9063 Y16.3455
G01 X6.0445 Y16.3533
G01 X7.9255 Y16.3533
G01 X8.0483 Y16.3468
G01 X8.0789 Y16.3434
G01 X8.2008 Y16.3222
G01 X8.3344 Y16.2837
G01 X8.4629 Y16.2305
G01 X8.5714 Y16.1710
G01 X8.5975 Y16.1546
G01 X8.6981 Y16.0827
G01 X8.7906 Y16.0006
G01 X8.8124 Y15.9788
G01 X8.8846 Y15.8981
G01 X8.9038 Y15.8740
G01 X8.9750 Y15.7729
G01 X9.0339 Y15.6671
G01 X9.6864 Y15.6671
G01 X9.7452 Y15.7726
G01 X9.8164 Y15.8737
G01 X9.8356 Y15.8978
G01 X9.9183 Y15.9897
G01 X10.0102 Y16.0724
G01 X10.0343 Y16.0916
G01 X10.1354 Y16.1628
G01 X10.2433 Y16.2230
G01 X10.2711 Y16.2364
G01 X10.3711 Y16.2778
G01 X10.4002 Y16.2879
G01 X10.5191 Y16.3218
G01 X10.6409 Y16.3429
G01 X10.6716 Y16.3463
G01 X10.7950 Y16.3528
G01 X10.9184 Y16.3463
G01 X10.9491 Y16.3429
G01 X11.0709 Y16.3218
G01 X11.1898 Y16.2879
G01 X11.2189 Y16.2778
G01 X11.3329 Y16.2301
G01 X11.4413 Y16.1706
G01 X11.4675 Y16.1542
G01 X11.5680 Y16.0823
G01 X11.6605 Y16.0003
G01 X11.6823 Y15.9785
G01 X11.7643 Y15.8860
G01 X11.8362 Y15.7855
G01 X11.8526 Y15.7593
G01 X11.9121 Y15.6509
G01 X11.9598 Y15.5369
G01 X11.9699 Y15.5078
G01 X12.0038 Y15.3889
G01 X12.0270 Y15.2518
G01 X12.0344 Y15.1284
G01 X12.0344 Y15.0976
G01 X12.0283 Y14.9896
G01 X12.0249 Y14.9589
G01 X12.0038 Y14.8371
G01 X11.9653 Y14.7035
G01 X11.9121 Y14.5751
G01 X11.8448 Y14.4534
G01 X11.7643 Y14.3400
G01 X11.6823 Y14.2475
G01 X11.6605 Y14.2257
G01 X11.5798 Y14.1536
G01 X11.5557 Y14.1344
G01 X11.4546 Y14.0632
G01 X11.3329 Y13.9959
G01 X11.2045 Y13.9427
G01 X11.0709 Y13.9042
G01 X10.9491 Y13.8831
G01 X10.9184 Y13.8797
G01 X10.7950 Y13.8732
G01 X10.6562 Y13.8810
G01 X10.5342 Y13.9012
G01 X10.5042 Y13.9081
G01 X10.3855 Y13.9427
G01 X10.2571 Y13.9959
G01 X10.1487 Y14.0554
G01 X10.1225 Y14.0718
G01 X10.0220 Y14.1437
G01 X9.9183 Y14.2363
G01 X9.8356 Y14.3282
G01 X9.8164 Y14.3523
G01 X9.7452 Y14.4534
G01 X9.6864 Y14.5589
G01 X9.0339 Y14.5589
G01 X8.9750 Y14.4531
G01 X8.8945 Y14.3397
G01 X8.8018 Y14.2360
G01 X8.6981 Y14.1433
G01 X8.5847 Y14.0628
G01 X8.4629 Y13.9955
G01 X8.3344 Y13.9423
G01 X8.2008 Y13.9038
G01 X8.0637 Y13.8805
G01 X7.9332 Y13.8728
G01 X6.0445 Y13.8727
G00 Z2.0000
G00 X6.0445 Y13.9727
G01 F30.00
G01 Z-0.0800
G01 F90.00
G01 X5.9175 Y13.9799
G01 X5.8011 Y13.9994
G01 X5.7820 Y14.0037
G01 X5.6779 Y14.0337
G01 X5.6594 Y14.0402
G01 X5.5504 Y14.0856
G01 X5.4385 Y14.1475
G01 X5.3342 Y14.2215
G01 X5.2460 Y14.2999
G01 X5.2321 Y14.3138
G01 X5.1600 Y14.3945
G01 X5.1478 Y14.4099
G01 X5.0797 Y14.5063
G01 X5.0178 Y14.6182
G01 X4.9724 Y14.7272
G01 X4.9659 Y14.7457
G01 X4.9335 Y14.8593
G01 X4.9121 Y14.9853
G01 X4.9052 Y15.1032
G01 X4.9052 Y15.1228
G01 X4.9121 Y15.2407
G01 X4.9335 Y15.3667
G01 X4.9689 Y15.4896
G01 X5.0138 Y15.5988
G01 X5.0223 Y15.6165
G01 X5.0747 Y15.7112
G01 X5.0851 Y15.7278
G01 X5.1537 Y15.8240
G01 X5.2389 Y15.9193
G01 X5.3342 Y16.0045
G01 X5.4304 Y16.0731
G01 X5.4470 Y16.0835
G01 X5.5417 Y16.1359
G01 X5.5594 Y16.1444
G01 X5.6686 Y16.1893
G01 X5.7915 Y16.2247
G01 X5.9175 Y16.2461
G01 X6.0445 Y16.2533
G01 X7.9255 Y16.2533
G01 X8.0427 Y16.2470
G01 X8.0622 Y16.2448
G01 X8.1689 Y16.2266
G01 X8.1880 Y16.2223
G01 X8.3014 Y16.1893
G01 X8.4106 Y16.1444
G01 X8.4283 Y16.1359
G01 X8.5315 Y16.0785
G01 X8.6279 Y16.0104
G01 X8.6433 Y15.9982
G01 X8.7311 Y15.9193
G01 X8.8163 Y15.8240
G01 X8.8903 Y15.7197
G01 X8.9477 Y15.6165
G01 X8.9562 Y15.5988
G01 X8.9693 Y15.5671
G01 X9.7510 Y15.5671
G01 X9.7640 Y15.5986
G01 X9.7725 Y15.6163
G01 X9.8299 Y15.7194
G01 X9.8979 Y15.8158
G01 X9.9102 Y15.8312
G01 X9.9890 Y15.9190
G01 X10.0768 Y15.9978
G01 X10.0922 Y16.0101
G01 X10.1804 Y16.0727
G01 X10.1970 Y16.0831
G01 X10.3004 Y16.1400
G01 X10.4094 Y16.1854
G01 X10.4279 Y16.1919
G01 X10.5414 Y16.2243
G01 X10.6577 Y16.2443
G01 X10.6772 Y16.2465
G01 X10.7950 Y16.2528
G01 X10.9226 Y16.2457
G01 X11.0390 Y16.2262
G01 X11.0581 Y16.2218
G01 X11.1715 Y16.1889
G01 X11.2806 Y16.1440
G01 X11.2983 Y16.1355
G01 X11.4014 Y16.0781
G01 X11.4978 Y16.0101
G01 X11.5132 Y15.9978
G01 X11.6010 Y15.9190
G01 X11.6798 Y15.8312
G01 X11.6921 Y15.8158
G01 X11.7601 Y15.7194
G01 X11.8220 Y15.6076
G01 X11.8674 Y15.4986
G01 X11.8739 Y15.4801
G01 X11.9063 Y15.3666
G01 X11.9277 Y15.2406
G01 X11.9346 Y15.1228
G01 X11.9346 Y15.1032
G01 X11.9285 Y14.9952
G01 X11.9263 Y14.9757
G01 X11.9063 Y14.8594
G01 X11.8709 Y14.7365
G01 X11.8220 Y14.6184
G01 X11.7601 Y14.5066
G01 X11.6862 Y14.4023
G01 X11.6077 Y14.3141
G01 X11.5939 Y14.3003
G01 X11.5132 Y14.2282
G01 X11.4978 Y14.2159
G01 X11.4014 Y14.1479
G01 X11.2896 Y14.0860
G01 X11.1715 Y14.0371
G01 X11.0486 Y14.0017
G01 X10.9323 Y13.9817
G01 X10.9128 Y13.9795
G01 X10.7950 Y13.9732
G01 X10.6674 Y13.9803
G01 X10.5510 Y13.9998
G01 X10.5319 Y14.0042
G01 X10.4185 Y14.0371
G01 X10.3004 Y14.0860
G01 X10.1970 Y14.1429
G01 X10.1804 Y14.1533
G01 X10.0843 Y14.2218
G01 X9.9890 Y14.3070
G01 X9.9038 Y14.4023
G01 X9.8353 Y14.4984
G01 X9.8249 Y14.5150
G01 X9.7725 Y14.6097
G01 X9.7640 Y14.6274
G01 X9.7510 Y14.6589
G01 X8.9693 Y14.6589
G01 X8.9562 Y14.6272
G01 X8.9477 Y14.6095
G01 X8.8903 Y14.5063
G01 X8.8163 Y14.4020
G01 X8.7311 Y14.3067
G01 X8.6358 Y14.2215
G01 X8.5315 Y14.1475
G01 X8.4196 Y14.0856
G01 X8.3014 Y14.0367
G01 X8.1785 Y14.0013
G01 X8.0525 Y13.9799
G01 X7.9255 Y13.9727
G01 X6.0445 Y13.9727
G00 Z2.0000
G00 X8.3521 Y11.3030
G01 F30.00
G01 Z-0.0800
G01 F90.00
G01 X8.3675 Y11.2981
G01 X8.3871 Y11.2906
G01 X8.4871 Y11.2492
G01 X8.5063 Y11.2406
G01 X8.5250 Y11.2309
G01 X8.6379 Y11.1679
G01 X8.7437 Y11.0935
G01 X8.7605 Y11.0809
G01 X8.8573 Y10.9952
G01 X8.8725 Y10.9807
G01 X8.8870 Y10.9655
G01 X8.9727 Y10.8687
G01 X8.9853 Y10.8519
G01 X9.0597 Y10.7461
G01 X9.0929 Y10.6871
G01 X9.6274 Y10.6871
G01 X9.6498 Y10.7277
G01 X9.6605 Y10.7458
G01 X9.6722 Y10.7633
G01 X9.7348 Y10.8516
G01 X9.7475 Y10.8684
G01 X9.7610 Y10.8844
G01 X9.8476 Y10.9804
G01 X9.8629 Y10.9949
G01 X9.9596 Y11.0805
G01 X9.9764 Y11.0932
G01 X10.0822 Y11.1675
G01 X10.1950 Y11.2305
G01 X10.2137 Y11.2402
G01 X10.2329 Y11.2487
G01 X10.3328 Y11.2902
G01 X10.3525 Y11.2977
G01 X10.3693 Y11.3030
G01 X10.3525 Y11.3083
G01 X10.3328 Y11.3158
G01 X10.2329 Y11.3573
G01 X10.2137 Y11.3658
G01 X10.1950 Y11.3755
G01 X10.0822 Y11.4385
G01 X9.9764 Y11.5128
G01 X9.9596 Y11.5255
G01 X9.8629 Y11.6111
G01 X9.8476 Y11.6256
G01 X9.7610 Y11.7216
G01 X9.7475 Y11.7376
G01 X9.7348 Y11.7544
G01 X9.6722 Y11.8427
G01 X9.6605 Y11.8602
G01 X9.6498 Y11.8783
G01 X9.6274 Y11.9189
G01 X9.0929 Y11.9189
G01 X9.0597 Y11.8599
G01 X8.9853 Y11.7541
G01 X8.9727 Y11.7373
G01 X8.8870 Y11.6405
G01 X8.8725 Y11.6253
G01 X8.8573 Y11.6108
G01 X8.7605 Y11.5251
G01 X8.7437 Y11.5125
G01 X8.6379 Y11.4381
G01 X8.5250 Y11.3751
G01 X8.5063 Y11.3654
G01 X8.4871 Y11.3568
G01 X8.3871 Y11.3154
G01 X8.3675 Y11.3079
G01 X8.3521 Y11.3030
G00 Z2.0000
G00 X8.6013 Y11.3030
G01 F30.00
G01 Z-0.0800
G01 F90.00
G01 X8.6681 Y11.2661
G01 X8.6911 Y11.2525
G01 X8.7132 Y11.2377
G01 X8.8015 Y11.1751
G01 X8.8228 Y11.1591
G01 X8.8432 Y11.1419
G01 X8.9239 Y11.0698
G01 X8.9433 Y11.0515
G01 X8.9616 Y11.0321
G01 X9.0337 Y10.9514
G01 X9.0509 Y10.9310
G01 X9.0669 Y10.9097
G01 X9.1295 Y10.8214
G01 X9.1443 Y10.7993
G01 X9.1515 Y10.7871
G01 X9.5688 Y10.7871
G01 X9.5759 Y10.7990
G01 X9.5907 Y10.8212
G01 X9.6533 Y10.9094
G01 X9.6693 Y10.9307
G01 X9.6865 Y10.9511
G01 X9.7586 Y11.0318
G01 X9.7769 Y11.0511
G01 X9.7962 Y11.0694
G01 X9.8769 Y11.1415
G01 X9.8973 Y11.1587
G01 X9.9186 Y11.1747
G01 X10.0068 Y11.2373
G01 X10.0290 Y11.2521
G01 X10.0519 Y11.2657
G01 X10.1194 Y11.3030
G01 X10.0519 Y11.3403
G01 X10.0290 Y11.3539
G01 X10.0068 Y11.3687
G01 X9.9186 Y11.4313
G01 X9.8973 Y11.4473
G01 X9.8769 Y11.4645
G01 X9.7962 Y11.5366
G01 X9.7769 Y11.5549
G01 X9.7586 Y11.5742
G01 X9.6865 Y11.6549
G01 X9.6693 Y11.6753
G01 X9.6533 Y11.6966
G01 X9.5907 Y11.7848
G01 X9.5759 Y11.8070
G01 X9.5688 Y11.8189
G01 X9.1515 Y11.8189
G01 X9.1443 Y11.8067
G01 X9.1295 Y11.7846
G01 X9.0669 Y11.6963
G01 X9.0509 Y11.6750
G01 X9.0337 Y11.6546
G01 X8.9616 Y11.5739
G01 X8.9433 Y11.5545
G01 X8.9239 Y11.5362
G01 X8.8432 Y11.4641
G01 X8.8228 Y11.4469
G01 X8.8015 Y11.4309
G01 X8.7132 Y11.3683
G01 X8.6911 Y11.3535
G01 X8.6681 Y11.3399
G01 X8.6013 Y11.3030
G00 Z2.0000
G00 X8.7941 Y11.3030
G01 F30.00
G01 Z-0.0800
G01 F90.00
G01 X8.8594 Y11.2567
G01 X8.8852 Y11.2373
G01 X8.9098 Y11.2165
G01 X8.9905 Y11.1443
G01 X9.0140 Y11.1222
G01 X9.0361 Y11.0987
G01 X9.1083 Y11.0180
G01 X9.1291 Y10.9934
G01 X9.1485 Y10.9676
G01 X9.2056 Y10.8871
G01 X9.5148 Y10.8871
G01 X9.5717 Y10.9673
G01 X9.5911 Y10.9931
G01 X9.6119 Y11.0177
G01 X9.6840 Y11.0984
G01 X9.7062 Y11.1218
G01 X9.7296 Y11.1440
G01 X9.8103 Y11.2161
G01 X9.8349 Y11.2369
G01 X9.8607 Y11.2563
G01 X9.9265 Y11.3030
G01 X9.8607 Y11.3497
G01 X9.8349 Y11.3691
G01 X9.8103 Y11.3899
G01 X9.7296 Y11.4620
G01 X9.7062 Y11.4842
G01 X9.6840 Y11.5076
G01 X9.6119 Y11.5883
G01 X9.5911 Y11.6129
G01 X9.5717 Y11.6387
G01 X9.5148 Y11.7189
G01 X9.2056 Y11.7189
G01 X9.1485 Y11.6384
G01 X9.1291 Y11.6126
G01 X9.1083 Y11.5880
G01 X9.0361 Y11.5073
G01 X9.0140 Y11.4838
G01 X8.9905 Y11.4617
G01 X8.9098 Y11.3895
G01 X8.8852 Y11.3687
G01 X8.8594 Y11.3493
G01 X8.7941 Y11.3030
G00 Z2.0000
G00 X8.9623 Y11.3030
G01 F30.00
G01 Z-0.0800
G01 F90.00
G01 X9.0572 Y11.2189
G01 X9.0847 Y11.1929
G01 X9.1107 Y11.1654
G01 X9.1828 Y11.0846
G01 X9.2072 Y11.0557
G01 X9.2300 Y11.0255
G01 X9.2572 Y10.9871
G01 X9.4632 Y10.9871
G01 X9.4902 Y11.0252
G01 X9.5129 Y11.0554
G01 X9.5374 Y11.0844
G01 X9.6094 Y11.1650
G01 X9.6355 Y11.1925
G01 X9.6630 Y11.2186
G01 X9.7583 Y11.3030
G01 X9.6630 Y11.3874
G01 X9.6355 Y11.4135
G01 X9.6094 Y11.4410
G01 X9.5374 Y11.5216
G01 X9.5129 Y11.5506
G01 X9.4902 Y11.5808
G01 X9.4632 Y11.6189
G01 X9.2572 Y11.6189
G01 X9.2300 Y11.5805
G01 X9.2072 Y11.5503
G01 X9.1828 Y11.5214
G01 X9.1107 Y11.4406
G01 X9.0847 Y11.4131
G01 X9.0572 Y11.3871
G01 X8.9623 Y11.3030
G00 Z2.0000
G00 X6.0445 Y8.8927
G01 F30.00
G01 Z-0.0800
G01 F90.00
G01 X5.9175 Y8.8999
G01 X5.8011 Y8.9194
G01 X5.7820 Y8.9237
G01 X5.6779 Y8.9537
G01 X5.6594 Y8.9602
G01 X5.5504 Y9.0056
G01 X5.4385 Y9.0675
G01 X5.3342 Y9.1415
G01 X5.2460 Y9.2199
G01 X5.2321 Y9.2338
G01 X5.1600 Y9.3145
G01 X5.1478 Y9.3299
G01 X5.0797 Y9.4263
G01 X5.0178 Y9.5382
G01 X4.9724 Y9.6472
G01 X4.9659 Y9.6657
G01 X4.9335 Y9.7793
G01 X4.9121 Y9.9053
G01 X4.9049 Y10.0330
G01 X4.9112 Y10.1509
G01 X4.9134 Y10.1704
G01 X4.9316 Y10.2771
G01 X4.9359 Y10.2962
G01 X4.9689 Y10.4096
G01 X5.0178 Y10.5278
G01 X5.0797 Y10.6397
G01 X5.1478 Y10.7361
G01 X5.1600 Y10.7515
G01 X5.2321 Y10.8322
G01 X5.2460 Y10.8461
G01 X5.3342 Y10.9245
G01 X5.4385 Y10.9985
G01 X5.5504 Y11.0604
G01 X5.6594 Y11.1058
G01 X5.6779 Y11.1123
G01 X5.7915 Y11.1447
G01 X5.9175 Y11.1661
G01 X6.0445 Y11.1733
G01 X7.9255 Y11.1733
G01 X8.0427 Y11.1670
G01 X8.0622 Y11.1648
G01 X8.1689 Y11.1466
G01 X8.1880 Y11.1423
G01 X8.3014 Y11.1093
G01 X8.4106 Y11.0644
G01 X8.4283 Y11.0559
G01 X8.5315 Y10.9985
G01 X8.6279 Y10.9304
G01 X8.6433 Y10.9182
G01 X8.7311 Y10.8393
G01 X8.8163 Y10.7440
G01 X8.8903 Y10.6397
G01 X8.9477 Y10.5365
G01 X8.9562 Y10.5188
G01 X8.9693 Y10.4871
G01 X9.7510 Y10.4871
G01 X9.7640 Y10.5186
G01 X9.7725 Y10.5363
G01 X9.8299 Y10.6394
G01 X9.8979 Y10.7358
G01 X9.9102 Y10.7512
G01 X9.9890 Y10.8390
G01 X10.0768 Y10.9178
G01 X10.0922 Y10.9301
G01 X10.1804 Y10.9927
G01 X10.1970 Y11.0031
G01 X10.3004 Y11.0600
G01 X10.4094 Y11.1054
G01 X10.4279 Y11.1119
G01 X10.5414 Y11.1443
G01 X10.6577 Y11.1643
G01 X10.6772 Y11.1665
G01 X10.7950 Y11.1728
G01 X10.9226 Y11.1657
G01 X11.0390 Y11.1462
G01 X11.0581 Y11.1418
G01 X11.1715 Y11.1089
G01 X11.2806 Y11.0640
G01 X11.2983 Y11.0555
G01 X11.4014 Y10.9981
G01 X11.4978 Y10.9301
G01 X11.5132 Y10.9178
G01 X11.6010 Y10.8390
G01 X11.6798 Y10.7512
G01 X11.6921 Y10.7358
G01 X11.7601 Y10.6394
G01 X11.8220 Y10.5276
G01 X11.8674 Y10.4186
G01 X11.8739 Y10.4001
G01 X11.9063 Y10.2866
G01 X11.9277 Y10.1606
G01 X11.9346 Y10.0428
G01 X11.9346 Y10.0232
G01 X11.9285 Y9.9152
G01 X11.9263 Y9.8957
G01 X11.9063 Y9.7794
G01 X11.8709 Y9.6565
G01 X11.8220 Y9.5384
G01 X11.7601 Y9.4266
G01 X11.6862 Y9.3223
G01 X11.6077 Y9.2341
G01 X11.5939 Y9.2203
G01 X11.5132 Y9.1482
G01 X11.4978 Y9.1359
G01 X11.4014 Y9.0679
G01 X11.2896 Y9.0060
G01 X11.1715 Y8.9571
G01 X11.0486 Y8.9217
G01 X10.9323 Y8.9017
G01 X10.9128 Y8.8995
G01 X10.7950 Y8.8932
G01 X10.6674 Y8.9003
G01 X10.5510 Y8.9198
G01 X10.5319 Y8.9242
G01 X10.4185 Y8.9571
G01 X10.3004 Y9.0060
G01 X10.1970 Y9.0629
G01 X10.1804 Y9.0733
G01 X10.0843 Y9.1418
G01 X9.9890 Y9.2270
G01 X9.9038 Y9.3223
G01 X9.8353 Y9.4184
G01 X9.8249 Y9.4350
G01 X9.7725 Y9.5297
G01 X9.7640 Y9.5474
G01 X9.7510 Y9.5789
G01 X8.9693 Y9.5789
G01 X8.9562 Y9.5472
G01 X8.9477 Y9.5295
G01 X8.8903 Y9.4263
G01 X8.8163 Y9.3220
G01 X8.7311 Y9.2267
G01 X8.6358 Y9.1415
G01 X8.5315 Y9.0675
G01 X8.4196 Y9.0056
G01 X8.3014 Y8.9567
G01 X8.1785 Y8.9213
G01 X8.0525 Y8.8999
G01 X7.9255 Y8.8927
G01 X6.0445 Y8.8927
G00 Z2.0000
G00 X6.0445 Y8.7927
G01 F30.00
G01 Z-0.0800
G01 F90.00
G01 X5.9063 Y8.8005
G01 X5.7843 Y8.8208
G01 X5.7543 Y8.8276
G01 X5.6502 Y8.8576
G01 X5.6211 Y8.8678
G01 X5.5070 Y8.9155
G01 X5.3853 Y8.9828
G01 X5.2719 Y9.0633
G01 X5.1794 Y9.1454
G01 X5.1576 Y9.1672
G01 X5.0854 Y9.2479
G01 X5.0662 Y9.2720
G01 X4.9950 Y9.3731
G01 X4.9277 Y9.4948
G01 X4.8800 Y9.6089
G01 X4.8698 Y9.6381
G01 X4.8360 Y9.7570
G01 X4.8127 Y9.8941
G01 X4.8049 Y10.0330
G01 X4.8114 Y10.1565
G01 X4.8148 Y10.1871
G01 X4.8330 Y10.2939
G01 X4.8398 Y10.3239
G01 X4.8745 Y10.4426
G01 X4.9277 Y10.5712
G01 X4.9950 Y10.6929
G01 X5.0662 Y10.7940
G01 X5.0854 Y10.8181
G01 X5.1576 Y10.8988
G01 X5.1794 Y10.9206
G01 X5.2719 Y11.0027
G01 X5.3853 Y11.0832
G01 X5.5070 Y11.1505
G01 X5.6211 Y11.1982
G01 X5.6502 Y11.2084
G01 X5.7692 Y11.2422
G01 X5.9063 Y11.2655
G01 X6.0445 Y11.2733
G01 X7.9255 Y11.2733
G01 X8.0483 Y11.2668
G01 X8.0789 Y11.2634
G01 X8.2008 Y11.2422
G01 X8.3344 Y11.2037
G01 X8.4629 Y11.1505
G01 X8.5714 Y11.0910
G01 X8.5975 Y11.0746
G01 X8.6981 Y11.0027
G01 X8.7906 Y10.9206
G01 X8.8124 Y10.8988
G01 X8.8846 Y10.8181
G01 X8.9038 Y10.7940
G01 X8.9750 Y10.6929
G01 X9.0339 Y10.5871
G01 X9.6864 Y10.5871
G01 X9.7452 Y10.6926
G01 X9.8164 Y10.7937
G01 X9.8356 Y10.8178
G01 X9.9183 Y10.9097
G01 X10.0102 Y10.9924
G01 X10.0343 Y11.0116
G01 X10.1354 Y11.0828
G01 X10.2433 Y11.1430
G01 X10.2711 Y11.1564
G01 X10.3711 Y11.1978
G01 X10.4002 Y11.2079
G01 X10.5191 Y11.2418
G01 X10.6409 Y11.2629
G01 X10.6716 Y11.2663
G01 X10.7950 Y11.2728
G01 X10.9184 Y11.2663
G01 X10.9491 Y11.2629
G01 X11.0709 Y11.2418
G01 X11.1898 Y11.2079
G01 X11.2189 Y11.1978
G01 X11.3329 Y11.1501
G01 X11.4413 Y11.0906
G01 X11.4675 Y11.0742
G01 X11.5680 Y11.0023
G01 X11.6605 Y10.9203
G01 X11.6823 Y10.8985
G01 X11.7643 Y10.8060
G01 X11.8362 Y10.7055
G01 X11.8526 Y10.6793
G01 X11.9121 Y10.5709
G01 X11.9598 Y10.4569
G01 X11.9699 Y10.4278
G01 X12.0038 Y10.3089
G01 X12.0270 Y10.1718
G01 X12.0344 Y10.0484
G01 X12.0344 Y10.0176
G01 X12.0283 Y9.9096
G01 X12.0249 Y9.8789
G01 X12.0038 Y9.7571
G01 X11.9653 Y9.6235
G01 X11.9121 Y9.4951
G01 X11.8448 Y9.3734
G01 X11.7643 Y9.2600
G01 X11.6823 Y9.1675
G01 X11.6605 Y9.1457
G01 X11.5798 Y9.0736
G01 X11.5557 Y9.0544
G01 X11.4546 Y8.9832
G01 X11.3329 Y8.9159
G01 X11.2045 Y8.8627
G01 X11.0709 Y8.8242
G01 X10.9491 Y8.8031
G01 X10.9184 Y8.7997
G01 X10.7950 Y8.7932
G01 X10.6562 Y8.8010
G01 X10.5342 Y8.8212
G01 X10.5042 Y8.8281
G01 X10.3855 Y8.8627
G01 X10.2571 Y8.9159
G01 X10.1487 Y8.9754
G01 X10.1225 Y8.9918
G01 X10.0220 Y9.0637
G01 X9.9183 Y9.1563
G01 X9.8356 Y9.2482
G01 X9.8164 Y9.2723
G01 X9.7452 Y9.3734
G01 X9.6864 Y9.4789
G01 X9.0339 Y9.4789
G01 X8.9750 Y9.3731
G01 X8.8945 Y9.2597
G01 X8.8018 Y9.1560
G01 X8.6981 Y9.0633
G01 X8.5847 Y8.9828
G01 X8.4629 Y8.9155
G01 X8.3344 Y8.8623
G01 X8.2008 Y8.8238
G01 X8.0637 Y8.8005
G01 X7.9332 Y8.7928
G01 X6.0445 Y8.7927
G00 Z2.0000
G00 X1.7314 Y16.8371
G01 F30.00
G01 Z-0.0800
G01 F90.00
G01 X2.0786 Y16.8371
G01 X1.9050 Y17.0108
G01 X1.7314 Y16.8371
G00 Z2.0000
G00 X1.6027 Y17.9913
G01 F30.00
G01 Z-0.0800
G01 F90.00
G01 X1.6218 Y18.0081
G01 X1.6634 Y18.0376
G01 X1.6992 Y18.0577
G01 X1.7169 Y18.0662
G01 X1.7550 Y18.0817
G01 X1.7944 Y18.0933
G01 X1.8136 Y18.0977
G01 X1.8444 Y18.1029
G01 X1.8639 Y18.1051
G01 X1.9050 Y18.1072
G01 X1.9461 Y18.1051
G01 X1.9656 Y18.1029
G01 X2.0061 Y18.0958
G01 X2.0550 Y18.0817
G01 X2.0931 Y18.0662
G01 X2.1108 Y18.0577
G01 X2.1382 Y18.0425
G01 X2.1548 Y18.0321
G01 X2.1882 Y18.0081
G01 X2.2256 Y17.9746
G01 X3.4966 Y16.7036
G01 X3.5301 Y16.6662
G01 X3.5596 Y16.6246
G01 X3.5842 Y16.5801
G01 X3.6002 Y16.5422
G01 X3.6067 Y16.5236
G01 X3.6153 Y16.4936
G01 X3.6197 Y16.4744
G01 X3.6263 Y16.4339
G01 X3.6292 Y16.3830
G01 X3.6263 Y16.3321
G01 X3.6178 Y16.2819
G01 X3.6037 Y16.2330
G01 X3.5882 Y16.1949
G01 X3.5797 Y16.1772
G01 X3.5645 Y16.1498
G01 X3.5541 Y16.1332
G01 X3.5301 Y16.0998
G01 X3.4961 Y16.0619
G01 X3.4582 Y16.0279
G01 X3.4248 Y16.0039
G01 X3.4082 Y15.9935
G01 X3.3808 Y15.9783
G01 X3.3631 Y15.9698
G01 X3.3250 Y15.9543
G01 X3.2761 Y15.9402
G01 X3.2259 Y15.9317
G01 X3.1757 Y15.9289
G01 X0.6245 Y15.9291
G01 X0.5841 Y15.9317
G01 X0.5339 Y15.9402
G01 X0.4850 Y15.9543
G01 X0.4469 Y15.9698
G01 X0.4292 Y15.9783
G01 X0.4018 Y15.9935
G01 X0.3852 Y16.0039
G01 X0.3518 Y16.0279
G01 X0.3139 Y16.0619
G01 X0.2863 Y16.0923
G01 X0.2740 Y16.1077
G01 X0.2504 Y16.1414
G01 X0.2258 Y16.1859
G01 X0.2098 Y16.2238
G01 X0.2033 Y16.2424
G01 X0.1922 Y16.2819
G01 X0.1837 Y16.3321
G01 X0.1808 Y16.3830
G01 X0.1829 Y16.4241
G01 X0.1851 Y16.4436
G01 X0.1922 Y16.4841
G01 X0.2033 Y16.5236
G01 X0.2098 Y16.5422
G01 X0.2258 Y16.5801
G01 X0.2504 Y16.6246
G01 X0.2799 Y16.6662
G01 X0.3134 Y16.7036
G01 X1.5844 Y17.9746
G01 X1.6027 Y17.9913
G00 Z2.0000
G00 X1.5360 Y18.0659
G01 F30.00
G01 Z-0.0800
G01 F90.00
G01 X1.5595 Y18.0863
G01 X1.5973 Y18.1137
G01 X1.6235 Y18.1301
G01 X1.6646 Y18.1523
G01 X1.7076 Y18.1706
G01 X1.7367 Y18.1808
G01 X1.7817 Y18.1933
G01 X1.8430 Y18.2037
G01 X1.8896 Y18.2067
G01 X1.9204 Y18.2067
G01 X1.9670 Y18.2037
G01 X2.0283 Y18.1933
G01 X2.0733 Y18.1808
G01 X2.1024 Y18.1706
G01 X2.1454 Y18.1523
G01 X2.1998 Y18.1222
G01 X2.2505 Y18.0863
G01 X2.2963 Y18.0453
G01 X3.5673 Y16.7743
G01 X3.6083 Y16.7285
G01 X3.6442 Y16.6778
G01 X3.6743 Y16.6234
G01 X3.6926 Y16.5804
G01 X3.7028 Y16.5513
G01 X3.7114 Y16.5213
G01 X3.7183 Y16.4912
G01 X3.7257 Y16.4450
G01 X3.7292 Y16.3830
G01 X3.7257 Y16.3210
G01 X3.7153 Y16.2597
G01 X3.6981 Y16.2000
G01 X3.6806 Y16.1566
G01 X3.6672 Y16.1289
G01 X3.6521 Y16.1015
G01 X3.6357 Y16.0753
G01 X3.6083 Y16.0375
G01 X3.5669 Y15.9911
G01 X3.5205 Y15.9497
G01 X3.4827 Y15.9223
G01 X3.4565 Y15.9059
G01 X3.4291 Y15.8908
G01 X3.4014 Y15.8774
G01 X3.3580 Y15.8599
G01 X3.2983 Y15.8427
G01 X3.2370 Y15.8323
G01 X3.1757 Y15.8289
G01 X0.6189 Y15.8293
G01 X0.5730 Y15.8323
G01 X0.5117 Y15.8427
G01 X0.4520 Y15.8599
G01 X0.4086 Y15.8774
G01 X0.3809 Y15.8908
G01 X0.3535 Y15.9059
G01 X0.3273 Y15.9223
G01 X0.2895 Y15.9497
G01 X0.2431 Y15.9911
G01 X0.2117 Y16.0257
G01 X0.1925 Y16.0498
G01 X0.1658 Y16.0882
G01 X0.1357 Y16.1426
G01 X0.1174 Y16.1856
G01 X0.1072 Y16.2147
G01 X0.0947 Y16.2597
G01 X0.0843 Y16.3210
G01 X0.0808 Y16.3830
G01 X0.0830 Y16.4297
G01 X0.0865 Y16.4603
G01 X0.0947 Y16.5063
G01 X0.1072 Y16.5513
G01 X0.1174 Y16.5804
G01 X0.1357 Y16.6234
G01 X0.1658 Y16.6778
G01 X0.2017 Y16.7285
G01 X0.2427 Y16.7743
G01 X1.5137 Y18.0453
G01 X1.5360 Y18.0659
G00 Z2.0000
G00 X1.4694 Y18.1404
G01 F30.00
G01 Z-0.0800
G01 F90.00
G01 X1.4971 Y18.1644
G01 X1.5395 Y18.1952
G01 X1.5570 Y18.2069
G01 X1.5751 Y18.2176
G01 X1.6212 Y18.2424
G01 X1.6693 Y18.2630
G01 X1.6889 Y18.2705
G01 X1.7090 Y18.2768
G01 X1.7594 Y18.2908
G01 X1.8109 Y18.3001
G01 X1.8318 Y18.3031
G01 X1.8840 Y18.3066
G01 X1.9050 Y18.3072
G01 X1.9260 Y18.3066
G01 X1.9782 Y18.3031
G01 X1.9991 Y18.3001
G01 X2.0506 Y18.2908
G01 X2.1010 Y18.2768
G01 X2.1211 Y18.2705
G01 X2.1407 Y18.2630
G01 X2.1888 Y18.2424
G01 X2.2349 Y18.2176
G01 X2.2530 Y18.2069
G01 X2.2705 Y18.1952
G01 X2.3129 Y18.1644
G01 X2.3289 Y18.1509
G01 X2.3670 Y18.1160
G01 X3.6380 Y16.8450
G01 X3.6525 Y16.8298
G01 X3.6864 Y16.7909
G01 X3.6991 Y16.7741
G01 X3.7289 Y16.7310
G01 X3.7396 Y16.7129
G01 X3.7644 Y16.6668
G01 X3.7850 Y16.6187
G01 X3.7925 Y16.5991
G01 X3.7988 Y16.5790
G01 X3.8128 Y16.5286
G01 X3.8169 Y16.5079
G01 X3.8251 Y16.4562
G01 X3.8268 Y16.4353
G01 X3.8292 Y16.3830
G01 X3.8268 Y16.3307
G01 X3.8251 Y16.3098
G01 X3.8169 Y16.2581
G01 X3.8128 Y16.2374
G01 X3.7988 Y16.1870
G01 X3.7925 Y16.1669
G01 X3.7730 Y16.1184
G01 X3.7644 Y16.0992
G01 X3.7396 Y16.0531
G01 X3.7289 Y16.0350
G01 X3.7172 Y16.0175
G01 X3.6864 Y15.9751
G01 X3.6520 Y15.9357
G01 X3.6376 Y15.9204
G01 X3.5989 Y15.8851
G01 X3.5829 Y15.8716
G01 X3.5405 Y15.8408
G01 X3.5230 Y15.8291
G01 X3.5049 Y15.8184
G01 X3.4588 Y15.7936
G01 X3.4396 Y15.7850
G01 X3.3911 Y15.7655
G01 X3.3409 Y15.7505
G01 X3.3206 Y15.7452
G01 X3.2999 Y15.7411
G01 X3.2482 Y15.7329
G01 X3.2273 Y15.7312
G01 X3.1757 Y15.7289
G01 X0.6343 Y15.7289
G01 X0.5827 Y15.7312
G01 X0.5618 Y15.7329
G01 X0.5409 Y15.7359
G01 X0.4894 Y15.7452
G01 X0.4691 Y15.7505
G01 X0.4189 Y15.7655
G01 X0.3993 Y15.7730
G01 X0.3512 Y15.7936
G01 X0.3051 Y15.8184
G01 X0.2870 Y15.8291
G01 X0.2695 Y15.8408
G01 X0.2271 Y15.8716
G01 X0.2111 Y15.8851
G01 X0.1724 Y15.9204
G01 X0.1371 Y15.9591
G01 X0.1236 Y15.9751
G01 X0.1109 Y15.9919
G01 X0.0811 Y16.0350
G01 X0.0553 Y16.0805
G01 X0.0456 Y16.0992
G01 X0.0250 Y16.1473
G01 X0.0175 Y16.1669
G01 X0.0112 Y16.1870
G01 X-0.0028 Y16.2374
G01 X-0.0069 Y16.2581
G01 X-0.0151 Y16.3098
G01 X-0.0168 Y16.3307
G01 X-0.0192 Y16.3830
G01 X-0.0168 Y16.4353
G01 X-0.0151 Y16.4562
G01 X-0.0121 Y16.4771
G01 X-0.0028 Y16.5286
G01 X0.0112 Y16.5790
G01 X0.0175 Y16.5991
G01 X0.0250 Y16.6187
G01 X0.0456 Y16.6668
G01 X0.0704 Y16.7129
G01 X0.0811 Y16.7310
G01 X0.0928 Y16.7485
G01 X0.1236 Y16.7909
G01 X0.1575 Y16.8298
G01 X0.1720 Y16.8450
G01 X1.4430 Y18.1160
G01 X1.4694 Y18.1404
G00 Z2.0000
G00 X1.4028 Y18.2150
G01 F30.00
G01 Z-0.0800
G01 F90.00
G01 X1.4348 Y18.2426
G01 X1.4816 Y18.2768
G01 X1.5038 Y18.2916
G01 X1.5267 Y18.3051
G01 X1.5778 Y18.3325
G01 X1.6310 Y18.3553
G01 X1.6559 Y18.3648
G01 X1.6813 Y18.3729
G01 X1.7372 Y18.3883
G01 X1.7942 Y18.3987
G01 X1.8206 Y18.4024
G01 X1.8784 Y18.4064
G01 X1.9050 Y18.4072
G01 X1.9316 Y18.4064
G01 X1.9894 Y18.4024
G01 X2.0158 Y18.3987
G01 X2.0728 Y18.3883
G01 X2.1287 Y18.3729
G01 X2.1541 Y18.3648
G01 X2.1790 Y18.3553
G01 X2.2322 Y18.3325
G01 X2.2833 Y18.3051
G01 X2.3062 Y18.2916
G01 X2.3284 Y18.2768
G01 X2.3752 Y18.2426
G01 X2.3956 Y18.2254
G01 X2.4378 Y18.1867
G01 X3.7087 Y16.9158
G01 X3.7270 Y16.8964
G01 X3.7646 Y16.8532
G01 X3.7807 Y16.8319
G01 X3.8136 Y16.7842
G01 X3.8271 Y16.7613
G01 X3.8545 Y16.7102
G01 X3.8773 Y16.6570
G01 X3.8868 Y16.6321
G01 X3.8949 Y16.6067
G01 X3.9103 Y16.5508
G01 X3.9155 Y16.5247
G01 X3.9244 Y16.4674
G01 X3.9267 Y16.4409
G01 X3.9292 Y16.3830
G01 X3.9267 Y16.3251
G01 X3.9244 Y16.2986
G01 X3.9155 Y16.2413
G01 X3.9103 Y16.2152
G01 X3.8949 Y16.1593
G01 X3.8868 Y16.1339
G01 X3.8654 Y16.0801
G01 X3.8545 Y16.0558
G01 X3.8271 Y16.0047
G01 X3.8136 Y15.9818
G01 X3.7988 Y15.9596
G01 X3.7646 Y15.9128
G01 X3.7266 Y15.8691
G01 X3.7083 Y15.8497
G01 X3.6656 Y15.8106
G01 X3.6452 Y15.7934
G01 X3.5984 Y15.7592
G01 X3.5762 Y15.7444
G01 X3.5533 Y15.7309
G01 X3.5022 Y15.7035
G01 X3.4779 Y15.6926
G01 X3.4241 Y15.6712
G01 X3.3686 Y15.6544
G01 X3.3428 Y15.6477
G01 X3.3167 Y15.6425
G01 X3.2594 Y15.6336
G01 X3.2329 Y15.6313
G01 X3.1757 Y15.6289
G01 X0.6343 Y15.6289
G01 X0.5771 Y15.6313
G01 X0.5506 Y15.6336
G01 X0.5242 Y15.6373
G01 X0.4672 Y15.6477
G01 X0.4414 Y15.6544
G01 X0.3859 Y15.6712
G01 X0.3610 Y15.6807
G01 X0.3078 Y15.7035
G01 X0.2567 Y15.7309
G01 X0.2338 Y15.7444
G01 X0.2116 Y15.7592
G01 X0.1648 Y15.7934
G01 X0.1444 Y15.8106
G01 X0.1017 Y15.8497
G01 X0.0626 Y15.8924
G01 X0.0454 Y15.9128
G01 X0.0293 Y15.9341
G01 X-0.0036 Y15.9818
G01 X-0.0323 Y16.0321
G01 X-0.0445 Y16.0558
G01 X-0.0673 Y16.1090
G01 X-0.0768 Y16.1339
G01 X-0.0849 Y16.1593
G01 X-0.1003 Y16.2152
G01 X-0.1107 Y16.2722
G01 X-0.1144 Y16.2986
G01 X-0.1167 Y16.3251
G01 X-0.1192 Y16.3830
G01 X-0.1167 Y16.4409
G01 X-0.1144 Y16.4674
G01 X-0.1055 Y16.5247
G01 X-0.1003 Y16.5508
G01 X-0.0936 Y16.5766
G01 X-0.0768 Y16.6321
G01 X-0.0554 Y16.6859
G01 X-0.0445 Y16.7102
G01 X-0.0323 Y16.7339
G01 X-0.0036 Y16.7842
G01 X0.0293 Y16.8319
G01 X0.0454 Y16.8532
G01 X0.0626 Y16.8736
G01 X0.0920 Y16.9062
G01 X1.3722 Y18.1867
G01 X1.4028 Y18.2150
G00 Z2.0000
G00 X1.3361 Y18.2896
G01 F30.00
G01 Z-0.0800
G01 F90.00
G01 X1.3724 Y18.3208
G01 X1.4237 Y18.3583
G01 X1.4506 Y18.3762
G01 X1.4783 Y18.3926
G01 X1.5344 Y18.4226
G01 X1.5928 Y18.4477
G01 X1.6229 Y18.4592
G01 X1.6536 Y18.4690
G01 X1.7149 Y18.4858
G01 X1.7774 Y18.4973
G01 X1.8094 Y18.5018
G01 X1.8728 Y18.5063
G01 X1.9050 Y18.5072
G01 X1.9372 Y18.5063
G01 X2.0006 Y18.5018
G01 X2.0634 Y18.4920
G01 X2.0951 Y18.4858
G01 X2.1263 Y18.4777
G01 X2.1871 Y18.4592
G01 X2.2462 Y18.4358
G01 X2.2756 Y18.4226
G01 X2.3043 Y18.4078
G01 X2.3594 Y18.3762
G01 X2.4118 Y18.3402
G01 X2.4376 Y18.3208
G01 X2.4622 Y18.3000
G01 X2.4969 Y18.2687
G01 X3.7795 Y16.9865
G01 X3.8016 Y16.9630
G01 X3.8428 Y16.9156
G01 X3.8622 Y16.8898
G01 X3.8982 Y16.8374
G01 X3.9146 Y16.8097
G01 X3.9446 Y16.7536
G01 X3.9697 Y16.6952
G01 X3.9812 Y16.6651
G01 X3.9910 Y16.6344
G01 X4.0078 Y16.5731
G01 X4.0140 Y16.5414
G01 X4.0238 Y16.4786
G01 X4.0265 Y16.4465
G01 X4.0292 Y16.3830
G01 X4.0265 Y16.3195
G01 X4.0238 Y16.2874
G01 X4.0140 Y16.2246
G01 X4.0078 Y16.1929
G01 X3.9910 Y16.1316
G01 X3.9812 Y16.1009
G01 X3.9578 Y16.0418
G01 X3.9446 Y16.0124
G01 X3.9146 Y15.9563
G01 X3.8982 Y15.9286
G01 X3.8803 Y15.9017
G01 X3.8428 Y15.8504
G01 X3.8011 Y15.8025
G01 X3.7790 Y15.7790
G01 X3.7322 Y15.7360
G01 X3.7076 Y15.7152
G01 X3.6563 Y15.6777
G01 X3.6294 Y15.6598
G01 X3.6017 Y15.6434
G01 X3.5456 Y15.6134
G01 X3.5162 Y15.6002
G01 X3.4571 Y15.5768
G01 X3.3963 Y15.5583
G01 X3.3651 Y15.5502
G01 X3.3334 Y15.5440
G01 X3.2706 Y15.5342
G01 X3.2385 Y15.5315
G01 X3.1757 Y15.5289
G01 X0.6343 Y15.5289
G01 X0.5715 Y15.5315
G01 X0.5394 Y15.5342
G01 X0.5074 Y15.5387
G01 X0.4449 Y15.5502
G01 X0.4137 Y15.5583
G01 X0.3529 Y15.5768
G01 X0.3228 Y15.5883
G01 X0.2644 Y15.6134
G01 X0.2083 Y15.6434
G01 X0.1806 Y15.6598
G01 X0.1537 Y15.6777
G01 X0.1024 Y15.7152
G01 X0.0778 Y15.7360
G01 X0.0310 Y15.7790
G01 X-0.0120 Y15.8258
G01 X-0.0328 Y15.8504
G01 X-0.0522 Y15.8762
G01 X-0.0882 Y15.9286
G01 X-0.1198 Y15.9837
G01 X-0.1346 Y16.0124
G01 X-0.1597 Y16.0708
G01 X-0.1712 Y16.1009
G01 X-0.1810 Y16.1316
G01 X-0.1978 Y16.1929
G01 X-0.2093 Y16.2554
G01 X-0.2138 Y16.2874
G01 X-0.2165 Y16.3195
G01 X-0.2192 Y16.3830
G01 X-0.2165 Y16.4465
G01 X-0.2138 Y16.4786
G01 X-0.2040 Y16.5414
G01 X-0.1978 Y16.5731
G01 X-0.1897 Y16.6043
G01 X-0.1712 Y16.6651
G01 X-0.1478 Y16.7242
G01 X-0.1346 Y16.7536
G01 X-0.1198 Y16.7823
G01 X-0.0882 Y16.8374
G01 X-0.0522 Y16.8898
G01 X-0.0328 Y16.9156
G01 X-0.0120 Y16.9402
G01 X0.0193 Y16.9749
G01 X1.3015 Y18.2575
G01 X1.3361 Y18.2896
G00 Z2.0000
G00 X1.2695 Y18.3641
G01 F30.00
G01 Z-0.0800
G01 F90.00
G01 X1.3101 Y18.3990
G01 X1.3659 Y18.4399
G01 X1.3974 Y18.4609
G01 X1.4300 Y18.4802
G01 X1.4910 Y18.5127
G01 X1.5545 Y18.5401
G01 X1.5899 Y18.5536
G01 X1.6259 Y18.5651
G01 X1.6927 Y18.5832
G01 X1.7607 Y18.5959
G01 X1.7982 Y18.6012
G01 X1.8359 Y18.6043
G01 X1.9050 Y18.6072
G01 X1.9741 Y18.6043
G01 X2.0118 Y18.6012
G01 X2.0493 Y18.5959
G01 X2.1173 Y18.5832
G01 X2.1841 Y18.5651
G01 X2.2201 Y18.5536
G01 X2.2555 Y18.5401
G01 X2.3190 Y18.5127
G01 X2.3800 Y18.4802
G01 X2.4126 Y18.4609
G01 X2.4441 Y18.4399
G01 X2.4999 Y18.3990
G01 X2.5288 Y18.3746
G01 X2.5656 Y18.3414
G01 X3.8634 Y17.0436
G01 X3.8966 Y17.0068
G01 X3.9210 Y16.9779
G01 X3.9438 Y16.9477
G01 X3.9829 Y16.8906
G01 X4.0022 Y16.8580
G01 X4.0347 Y16.7970
G01 X4.0621 Y16.7335
G01 X4.0756 Y16.6981
G01 X4.0871 Y16.6621
G01 X4.1052 Y16.5953
G01 X4.1126 Y16.5582
G01 X4.1232 Y16.4898
G01 X4.1263 Y16.4521
G01 X4.1292 Y16.3830
G01 X4.1263 Y16.3139
G01 X4.1232 Y16.2762
G01 X4.1126 Y16.2078
G01 X4.1052 Y16.1707
G01 X4.0871 Y16.1039
G01 X4.0756 Y16.0679
G01 X4.0501 Y16.0036
G01 X4.0347 Y15.9690
G01 X4.0022 Y15.9080
G01 X3.9829 Y15.8754
G01 X3.9619 Y15.8439
G01 X3.9210 Y15.7881
G01 X3.8757 Y15.7358
G01 X3.8497 Y15.7083
G01 X3.7988 Y15.6614
G01 X3.7699 Y15.6370
G01 X3.7141 Y15.5961
G01 X3.6826 Y15.5751
G01 X3.6500 Y15.5558
G01 X3.5890 Y15.5233
G01 X3.5544 Y15.5079
G01 X3.4901 Y15.4824
G01 X3.4240 Y15.4622
G01 X3.3873 Y15.4528
G01 X3.3502 Y15.4454
G01 X3.2818 Y15.4348
G01 X3.2441 Y15.4317
G01 X3.1946 Y15.4291
G01 X3.1757 Y15.4289
G01 X0.6343 Y15.4289
G01 X0.6154 Y15.4291
G01 X0.5659 Y15.4317
G01 X0.5282 Y15.4348
G01 X0.4907 Y15.4401
G01 X0.4227 Y15.4528
G01 X0.3559 Y15.4709
G01 X0.3199 Y15.4824
G01 X0.2845 Y15.4959
G01 X0.2210 Y15.5233
G01 X0.1600 Y15.5558
G01 X0.1274 Y15.5751
G01 X0.0959 Y15.5961
G01 X0.0401 Y15.6370
G01 X0.0112 Y15.6614
G01 X-0.0397 Y15.7083
G01 X-0.0866 Y15.7592
G01 X-0.1110 Y15.7881
G01 X-0.1338 Y15.8183
G01 X-0.1729 Y15.8754
G01 X-0.2073 Y15.9354
G01 X-0.2247 Y15.9690
G01 X-0.2401 Y16.0036
G01 X-0.2656 Y16.0679
G01 X-0.2858 Y16.1340
G01 X-0.2952 Y16.1707
G01 X-0.3026 Y16.2078
G01 X-0.3132 Y16.2762
G01 X-0.3181 Y16.3452
G01 X-0.3192 Y16.3830
G01 X-0.3181 Y16.4208
G01 X-0.3132 Y16.4898
G01 X-0.3026 Y16.5582
G01 X-0.2952 Y16.5953
G01 X-0.2771 Y16.6621
G01 X-0.2656 Y16.6981
G01 X-0.2521 Y16.7335
G01 X-0.2247 Y16.7970
G01 X-0.1922 Y16.8580
G01 X-0.1729 Y16.8906
G01 X-0.1519 Y16.9221
G01 X-0.1110 Y16.9779
G01 X-0.0866 Y17.0068
G01 X-0.0534 Y17.0436
G01 X1.2308 Y18.3282
G01 X1.2695 Y18.3641
G00 Z2.0000
G00 X2.4123 Y18.9306
G01 F30.00
G01 Z-0.0800
G01 F90.00
G01 X2.3857 Y18.9314
G01 X2.2982 Y18.9363
G01 X2.2717 Y18.9385
G01 X2.2453 Y18.9422
G01 X2.1582 Y18.9570
G01 X2.1321 Y18.9622
G01 X2.1063 Y18.9689
G01 X2.0214 Y18.9933
G01 X1.9961 Y19.0014
G01 X1.9712 Y19.0109
G01 X1.8896 Y19.0447
G01 X1.8653 Y19.0556
G01 X1.8416 Y19.0678
G01 X1.7643 Y19.1105
G01 X1.7414 Y19.1241
G01 X1.7192 Y19.1389
G01 X1.6472 Y19.1900
G01 X1.6259 Y19.2060
G01 X1.6055 Y19.2232
G01 X1.5397 Y19.2820
G01 X1.5203 Y19.3003
G01 X1.5020 Y19.3197
G01 X1.4432 Y19.3855
G01 X1.4260 Y19.4059
G01 X1.4100 Y19.4272
G01 X1.3589 Y19.4992
G01 X1.3441 Y19.5214
G01 X1.3305 Y19.5443
G01 X1.2878 Y19.6216
G01 X1.2756 Y19.6453
G01 X1.2647 Y19.6696
G01 X1.2309 Y19.7512
G01 X1.2214 Y19.7760
G01 X1.2133 Y19.8014
G01 X1.1889 Y19.8863
G01 X1.1822 Y19.9121
G01 X1.1770 Y19.9382
G01 X1.1622 Y20.0253
G01 X1.1585 Y20.0517
G01 X1.1563 Y20.0782
G01 X1.1513 Y20.1664
G01 X1.1506 Y20.1930
G01 X1.1513 Y20.2196
G01 X1.1563 Y20.3078
G01 X1.1585 Y20.3343
G01 X1.1622 Y20.3607
G01 X1.1770 Y20.4478
G01 X1.1822 Y20.4739
G01 X1.1889 Y20.4997
G01 X1.2133 Y20.5846
G01 X1.2214 Y20.6100
G01 X1.2309 Y20.6348
G01 X1.2647 Y20.7164
G01 X1.2756 Y20.7407
G01 X1.2878 Y20.7644
G01 X1.3305 Y20.8417
G01 X1.3441 Y20.8646
G01 X1.3589 Y20.8868
G01 X1.4100 Y20.9588
G01 X1.4260 Y20.9801
G01 X1.4432 Y21.0005
G01 X1.5020 Y21.0663
G01 X1.5203 Y21.0857
G01 X1.5397 Y21.1040
G01 X1.6055 Y21.1628
G01 X1.6259 Y21.1800
G01 X1.6472 Y21.1960
G01 X1.7192 Y21.2471
G01 X1.7414 Y21.2619
G01 X1.7643 Y21.2755
G01 X1.8416 Y21.3182
G01 X1.8653 Y21.3304
G01 X1.8896 Y21.3413
G01 X1.9712 Y21.3751
G01 X1.9961 Y21.3846
G01 X2.0214 Y21.3927
G01 X2.1063 Y21.4171
G01 X2.1321 Y21.4238
G01 X2.1582 Y21.4290
G01 X2.2453 Y21.4438
G01 X2.2717 Y21.4475
G01 X2.2982 Y21.4497
G01 X2.3857 Y21.4546
G01 X2.4123 Y21.4554
G01 X3.9510 Y21.4552
G01 X4.0518 Y21.4497
G01 X4.0783 Y21.4475
G01 X4.1047 Y21.4438
G01 X4.1918 Y21.4290
G01 X4.2179 Y21.4238
G01 X4.2437 Y21.4171
G01 X4.3286 Y21.3927
G01 X4.3540 Y21.3846
G01 X4.3788 Y21.3751
G01 X4.4604 Y21.3413
G01 X4.4847 Y21.3304
G01 X4.5084 Y21.3182
G01 X4.5857 Y21.2755
G01 X4.6086 Y21.2619
G01 X4.6308 Y21.2471
G01 X4.7028 Y21.1960
G01 X4.7241 Y21.1800
G01 X4.7445 Y21.1628
G01 X4.8103 Y21.1040
G01 X4.8297 Y21.0857
G01 X4.8773 Y21.0334
G01 X4.9191 Y21.0910
G01 X4.9363 Y21.1114
G01 X5.0084 Y21.1921
G01 X5.0267 Y21.2115
G01 X5.0461 Y21.2298
G01 X5.1268 Y21.3019
G01 X5.1472 Y21.3191
G01 X5.1685 Y21.3351
G01 X5.2568 Y21.3977
G01 X5.2789 Y21.4125
G01 X5.3019 Y21.4261
G01 X5.3687 Y21.4630
G01 X5.3019 Y21.4999
G01 X5.2789 Y21.5135
G01 X5.2568 Y21.5283
G01 X5.1685 Y21.5909
G01 X5.1472 Y21.6069
G01 X5.1268 Y21.6241
G01 X5.0461 Y21.6962
G01 X5.0267 Y21.7145
G01 X5.0084 Y21.7339
G01 X4.9363 Y21.8146
G01 X4.9191 Y21.8350
G01 X4.8773 Y21.8926
G01 X4.8297 Y21.8403
G01 X4.8103 Y21.8220
G01 X4.7445 Y21.7632
G01 X4.7241 Y21.7460
G01 X4.7028 Y21.7300
G01 X4.6308 Y21.6789
G01 X4.6086 Y21.6641
G01 X4.5857 Y21.6505
G01 X4.5084 Y21.6078
G01 X4.4847 Y21.5956
G01 X4.4604 Y21.5847
G01 X4.3788 Y21.5509
G01 X4.3540 Y21.5414
G01 X4.3286 Y21.5333
G01 X4.2437 Y21.5089
G01 X4.2179 Y21.5022
G01 X4.1918 Y21.4970
G01 X4.1047 Y21.4822
G01 X4.0783 Y21.4785
G01 X4.0518 Y21.4763
G01 X3.9643 Y21.4714
G01 X3.9377 Y21.4706
G01 X2.4123 Y21.4706
G01 X2.3857 Y21.4714
G01 X2.2982 Y21.4763
G01 X2.2717 Y21.4785
G01 X2.2453 Y21.4822
G01 X2.1582 Y21.4970
G01 X2.1321 Y21.5022
G01 X2.1063 Y21.5089
G01 X2.0214 Y21.5333
G01 X1.9961 Y21.5414
G01 X1.9712 Y21.5509
G01 X1.8896 Y21.5847
G01 X1.8653 Y21.5956
G01 X1.8416 Y21.6078
G01 X1.7643 Y21.6505
G01 X1.7414 Y21.6641
G01 X1.7192 Y21.6789
G01 X1.6472 Y21.7300
G01 X1.6259 Y21.7460
G01 X1.6055 Y21.7632
G01 X1.5397 Y21.8220
G01 X1.5203 Y21.8403
G01 X1.5020 Y21.8597
G01 X1.4432 Y21.9255
G01 X1.4260 Y21.9459
G01 X1.4100 Y21.9672
G01 X1.3589 Y22.0392
G01 X1.3441 Y22.0614
G01 X1.3305 Y22.0843
G01 X1.2878 Y22.1616
G01 X1.2756 Y22.1853
G01 X1.2647 Y22.2096
G01 X1.2309 Y22.2912
G01 X1.2214 Y22.3160
G01 X1.2133 Y22.3414
G01 X1.1889 Y22.4263
G01 X1.1822 Y22.4521
G01 X1.1770 Y22.4782
G01 X1.1622 Y22.5653
G01 X1.1585 Y22.5917
G01 X1.1563 Y22.6182
G01 X1.1513 Y22.7064
G01 X1.1506 Y22.7330
G01 X1.1513 Y22.7596
G01 X1.1563 Y22.8478
G01 X1.1585 Y22.8743
G01 X1.1622 Y22.9007
G01 X1.1770 Y22.9878
G01 X1.1822 Y23.0139
G01 X1.1889 Y23.0397
G01 X1.2133 Y23.1246
G01 X1.2214 Y23.1500
G01 X1.2309 Y23.1748
G01 X1.2647 Y23.2564
G01 X1.2756 Y23.2807
G01 X1.2878 Y23.3044
G01 X1.3305 Y23.3817
G01 X1.3441 Y23.4046
G01 X1.3589 Y23.4268
G01 X1.4100 Y23.4988
G01 X1.4260 Y23.5201
G01 X1.4432 Y23.5405
G01 X1.5020 Y23.6063
G01 X1.5203 Y23.6257
G01 X1.5397 Y23.6440
G01 X1.6055 Y23.7028
G01 X1.6259 Y23.7200
G01 X1.6472 Y23.7360
G01 X1.7192 Y23.7871
G01 X1.7414 Y23.8019
G01 X1.7643 Y23.8155
G01 X1.8416 Y23.8582
G01 X1.8653 Y23.8704
G01 X1.8896 Y23.8813
G01 X1.9712 Y23.9151
G01 X1.9961 Y23.9246
G01 X2.0214 Y23.9327
G01 X2.1063 Y23.9571
G01 X2.1321 Y23.9638
G01 X2.1582 Y23.9690
G01 X2.2453 Y23.9838
G01 X2.2717 Y23.9875
G01 X2.2982 Y23.9897
G01 X2.3857 Y23.9946
G01 X2.4123 Y23.9954
