(G-CODE GENERATED BY FLATCAM v8.909 - www.flatcam.org - Version Date: 2019/02/16)

(Name: drills.xln_cnc)
(Type: G-code from Excellon)
(Units: MM)

(Created on Tuesday, 05 March 2019 at 17:30)

(Feedrate: 30.0 mm/min)
(Feedrate rapids 3.0 mm/min)

(Z_Cut: -1.7 mm)
(Z_Move: 0.3 mm)
(Z Toolchange: 2.0 mm)
(X,Y Toolchange: 0.0000, 0.0000 mm)
(Z Start: None mm)
(Z End: 2.0 mm)
(Steps per circle: 64)
(Postprocessor Excellon: default)

(X range:    2.6670 ...   60.6750  mm)
(Y range:    1.8540 ...   33.4010  mm)

(Spindle Speed: 1000.0 RPM)

G21
G90
G94

G01 F30.00
M03 S1000.0
G00 X60.3250 Y7.4930
G01 Z-1.7000
G01 Z0
G00 Z0.3000
G00 X60.3250 Y10.0330
G01 Z-1.7000
G01 Z0
G00 Z0.3000
M03 S1000.0
G00 X57.7850 Y4.9530
G01 Z-1.7000
G01 Z0
G00 Z0.3000
G00 X57.7850 Y7.4930
G01 Z-1.7000
G01 Z0
G00 Z0.3000
G00 X57.7850 Y10.0330
G01 Z-1.7000
G01 Z0
G00 Z0.3000
G00 X57.7850 Y12.5730
G01 Z-1.7000
G01 Z0
G00 Z0.3000
G00 X57.7850 Y15.1130
G01 Z-1.7000
G01 Z0
G00 Z0.3000
G00 X57.7850 Y17.6530
G01 Z-1.7000
G01 Z0
G00 Z0.3000
G00 X57.7850 Y20.1930
G01 Z-1.7000
G01 Z0
G00 Z0.3000
G00 X57.7850 Y22.7330
G01 Z-1.7000
G01 Z0
G00 Z0.3000
G00 X50.1650 Y22.7330
G01 Z-1.7000
G01 Z0
G00 Z0.3000
G00 X50.1650 Y20.1930
G01 Z-1.7000
G01 Z0
G00 Z0.3000
G00 X50.1650 Y17.6530
G01 Z-1.7000
G01 Z0
G00 Z0.3000
G00 X50.1650 Y15.1130
G01 Z-1.7000
G01 Z0
G00 Z0.3000
G00 X50.1650 Y12.5730
G01 Z-1.7000
G01 Z0
G00 Z0.3000
G00 X50.1650 Y10.0330
G01 Z-1.7000
G01 Z0
G00 Z0.3000
G00 X50.1650 Y7.4930
G01 Z-1.7000
G01 Z0
G00 Z0.3000
G00 X50.1650 Y4.9530
G01 Z-1.7000
G01 Z0
G00 Z0.3000
M03 S1000.0
G00 X41.2750 Y13.8430
G01 Z-1.7000
G01 Z0
G00 Z0.3000
G00 X41.2750 Y16.3830
G01 Z-1.7000
G01 Z0
G00 Z0.3000
G00 X41.2750 Y18.9230
G01 Z-1.7000
G01 Z0
G00 Z0.3000
G00 X41.2750 Y21.4630
G01 Z-1.7000
G01 Z0
G00 Z0.3000
G00 X33.6550 Y21.4630
G01 Z-1.7000
G01 Z0
G00 Z0.3000
G00 X33.6550 Y18.9230
G01 Z-1.7000
G01 Z0
G00 Z0.3000
G00 X33.6550 Y16.3830
G01 Z-1.7000
G01 Z0
G00 Z0.3000
G00 X33.6550 Y13.8430
G01 Z-1.7000
G01 Z0
G00 Z0.3000
G00 X33.6550 Y11.3030
G01 Z-1.7000
G01 Z0
G00 Z0.3000
G00 X33.6550 Y8.7630
G01 Z-1.7000
G01 Z0
G00 Z0.3000
G00 X41.2750 Y8.7630
G01 Z-1.7000
G01 Z0
G00 Z0.3000
G00 X41.2750 Y11.3030
G01 Z-1.7000
G01 Z0
G00 Z0.3000
M03 S1000.0
G00 X10.7950 Y17.6530
G01 Z-1.7000
G01 Z0
G00 Z0.3000
G00 X10.7950 Y15.1130
G01 Z-1.7000
G01 Z0
G00 Z0.3000
G00 X10.7950 Y12.5730
G01 Z-1.7000
G01 Z0
G00 Z0.3000
G00 X10.7950 Y10.0330
G01 Z-1.7000
G01 Z0
G00 Z0.3000
G00 X10.7950 Y7.4930
G01 Z-1.7000
G01 Z0
G00 Z0.3000
G00 X10.7950 Y4.9530
G01 Z-1.7000
G01 Z0
G00 Z0.3000
G00 X10.7950 Y2.4130
G01 Z-1.7000
G01 Z0
G00 Z0.3000
G00 X26.0350 Y2.4130
G01 Z-1.7000
G01 Z0
G00 Z0.3000
G00 X26.0350 Y4.9530
G01 Z-1.7000
G01 Z0
G00 Z0.3000
G00 X26.0350 Y7.4930
G01 Z-1.7000
G01 Z0
G00 Z0.3000
G00 X26.0350 Y10.0330
G01 Z-1.7000
G01 Z0
G00 Z0.3000
G00 X26.0350 Y12.5730
G01 Z-1.7000
G01 Z0
G00 Z0.3000
G00 X45.0850 Y8.7630
G01 Z-1.7000
G01 Z0
G00 Z0.3000
G00 X45.0850 Y11.3030
G01 Z-1.7000
G01 Z0
G00 Z0.3000
G00 X45.0850 Y13.8430
G01 Z-1.7000
G01 Z0
G00 Z0.3000
G00 X45.0850 Y16.3830
G01 Z-1.7000
G01 Z0
G00 Z0.3000
G00 X45.0850 Y18.9230
G01 Z-1.7000
G01 Z0
G00 Z0.3000
G00 X45.0850 Y21.4630
G01 Z-1.7000
G01 Z0
G00 Z0.3000
G00 X45.0850 Y24.0030
G01 Z-1.7000
G01 Z0
G00 Z0.3000
G00 X26.0350 Y30.3530
G01 Z-1.7000
G01 Z0
G00 Z0.3000
G00 X26.0350 Y27.8130
G01 Z-1.7000
G01 Z0
G00 Z0.3000
G00 X26.0350 Y25.2730
G01 Z-1.7000
G01 Z0
G00 Z0.3000
G00 X26.0350 Y22.7330
G01 Z-1.7000
G01 Z0
G00 Z0.3000
G00 X26.0350 Y20.1930
G01 Z-1.7000
G01 Z0
G00 Z0.3000
G00 X26.0350 Y17.6530
G01 Z-1.7000
G01 Z0
G00 Z0.3000
G00 X26.0350 Y15.1130
G01 Z-1.7000
G01 Z0
G00 Z0.3000
G00 X10.7950 Y22.7330
G01 Z-1.7000
G01 Z0
G00 Z0.3000
G00 X10.7950 Y25.2730
G01 Z-1.7000
G01 Z0
G00 Z0.3000
G00 X10.7950 Y27.8130
G01 Z-1.7000
G01 Z0
G00 Z0.3000
G00 X10.7950 Y30.3530
G01 Z-1.7000
G01 Z0
G00 Z0.3000
G00 X3.1750 Y32.8930
G01 Z-1.7000
G01 Z0
G00 Z0.3000
G00 X3.1750 Y30.3530
G01 Z-1.7000
G01 Z0
G00 Z0.3000
G00 X3.1750 Y27.8130
G01 Z-1.7000
G01 Z0
G00 Z0.3000
G00 X3.1750 Y25.2730
G01 Z-1.7000
G01 Z0
G00 Z0.3000
G00 X3.1750 Y22.7330
G01 Z-1.7000
G01 Z0
G00 Z0.3000
G00 X3.1750 Y20.1930
G01 Z-1.7000
G01 Z0
G00 Z0.3000
G00 X10.7950 Y20.1930
G01 Z-1.7000
G01 Z0
G00 Z0.3000
M03 S1000.0
G00 X6.9850 Y15.1130
G01 Z-1.7000
G01 Z0
G00 Z0.3000
G00 X6.9850 Y12.5730
G01 Z-1.7000
G01 Z0
G00 Z0.3000
G00 X6.9850 Y10.0330
G01 Z-1.7000
G01 Z0
G00 Z0.3000
G00 X6.9850 Y7.4930
G01 Z-1.7000
G01 Z0
G00 Z0.3000
G00 X6.9850 Y4.9530
G01 Z-1.7000
G01 Z0
G00 Z0.3000
G00 X6.9850 Y2.4130
G01 Z-1.7000
G01 Z0
G00 Z0.3000
G00 X29.8450 Y2.4130
G01 Z-1.7000
G01 Z0
G00 Z0.3000
G00 X29.8450 Y4.9530
G01 Z-1.7000
G01 Z0
G00 Z0.3000
G00 X29.8450 Y7.4930
G01 Z-1.7000
G01 Z0
G00 Z0.3000
G00 X29.8450 Y10.0330
G01 Z-1.7000
G01 Z0
G00 Z0.3000
G00 X29.8450 Y12.5730
G01 Z-1.7000
G01 Z0
G00 Z0.3000
G00 X29.8450 Y15.1130
G01 Z-1.7000
G01 Z0
G00 Z0.3000
G00 X29.8450 Y17.6530
G01 Z-1.7000
G01 Z0
G00 Z0.3000
G00 X29.8450 Y20.1930
G01 Z-1.7000
G01 Z0
G00 Z0.3000
G00 X29.8450 Y22.7330
G01 Z-1.7000
G01 Z0
G00 Z0.3000
G00 X29.8450 Y25.2730
G01 Z-1.7000
G01 Z0
G00 Z0.3000
G00 X29.8450 Y27.8130
G01 Z-1.7000
G01 Z0
G00 Z0.3000
G00 X29.8450 Y30.3530
G01 Z-1.7000
G01 Z0
G00 Z0.3000
G00 X6.9850 Y30.3530
G01 Z-1.7000
G01 Z0
G00 Z0.3000
G00 X6.9850 Y27.8130
G01 Z-1.7000
G01 Z0
G00 Z0.3000
G00 X6.9850 Y25.2730
G01 Z-1.7000
G01 Z0
G00 Z0.3000
G00 X6.9850 Y22.7330
G01 Z-1.7000
G01 Z0
G00 Z0.3000
G00 X6.9850 Y20.1930
G01 Z-1.7000
G01 Z0
G00 Z0.3000
G00 X6.9850 Y17.6530
G01 Z-1.7000
G01 Z0
G00 Z0.3000
M05
G00 Z2.00
G00 X0.0 Y0.0

