(G-CODE GENERATED BY FLATCAM v8.909 - www.flatcam.org - Version Date: 2019/02/16)

(Name: new_g_cnc)
(Type: G-code from Geometry)
(Units: MM)

(Created on Tuesday, 05 March 2019 at 21:27)

(TOOL DIAMETER: 1.0 mm)
(Feedrate: 30.0 mm/min)
(Feedrate_Z: 50.0 mm/min)
(Feedrate rapids 30.0 mm/min)

(Z_Cut: -1.5 mm)
(DepthPerCut: 0.5 mm <=>3 passes)
(Z_Move: 2.0 mm)
(Z Toolchange: 2.0 mm)
(X,Y Toolchange: 0.0000, 0.0000 mm)
(Z Start: None mm)
(Z End: 2.0 mm)
(Steps per circle: 64)
(Postprocessor Geometry: default)

(X range:   -3.0000 ...   75.0000  mm)
(Y range:   39.0000 ...   39.0000  mm)

(Spindle Speed: 1000 RPM)

G21
G90
G94

G01 F30.00
G00 Z2.0000

M03 S1000
G00 X-3.0000 Y39.0000
G01 F50.00
G01 Z-0.5000
G01 F30.00
G01 X75.0000 Y39.0000
G00 X75.0000 Y39.0000
G01 F50.00
G01 Z-1.0000
G01 F30.00
G01 X-3.0000 Y39.0000
G00 X-3.0000 Y39.0000
G01 F50.00
G01 Z-1.5000
G01 F30.00
G01 X75.0000 Y39.0000
G00 Z2.0000
M05
G00 Z2.0000
G00 Z2.00
G00 X0.0 Y0.0

