(G-CODE GENERATED BY FLATCAM v8.909 - www.flatcam.org - Version Date: 2019/02/16)

(Name: new_g_copy_cutout_cnc)
(Type: G-code from Geometry)
(Units: MM)

(Created on Saturday, 09 March 2019 at 10:42)

(TOOL DIAMETER: 1.5 mm)
(Feedrate: 20.0 mm/min)
(Feedrate_Z: 20.0 mm/min)
(Feedrate rapids 20.0 mm/min)

(Z_Cut: -1.6 mm)
(Z_Move: 1.0 mm)
(Z Toolchange: 15.0 mm)
(X,Y Toolchange: 0.0000, 0.0000 mm)
(Z Start: None mm)
(Z End: 2.0 mm)
(Steps per circle: 64)
(Postprocessor Geometry: default)

(X range:   -0.8500 ...  127.8500  mm)
(Y range:   -0.8500 ...  119.8500  mm)

(Spindle Speed: 1000 RPM)

G21
G90
G94

G01 F20.00
G00 Z1.0000

M03 S1000
G00 X-0.8500 Y58.3500
G01 F20.00
G01 Z-1.6000
G01 F20.00
G01 X-0.8500 Y-0.8500
G01 X62.3500 Y-0.8500
G00 Z1.0000
G00 X64.6500 Y-0.8500
G01 F20.00
G01 Z-1.6000
G01 F20.00
G01 X127.8500 Y-0.8500
G01 X127.8500 Y58.3500
G00 Z1.0000
G00 X127.8500 Y60.6500
G01 F20.00
G01 Z-1.6000
G01 F20.00
G01 X127.8500 Y119.8500
G01 X64.6500 Y119.8500
G00 Z1.0000
G00 X62.3500 Y119.8500
G01 F20.00
G01 Z-1.6000
G01 F20.00
G01 X-0.8500 Y119.8500
G01 X-0.8500 Y60.6500
G00 Z1.0000
M05
G00 Z1.0000
G00 Z2.00
G00 X0.0 Y0.0

