(G-CODE GENERATED BY FLATCAM v8.909 - www.flatcam.org - Version Date: 2019/02/16)

(Name: drills.xln_cnc_1)
(Type: G-code from Excellon)
(Units: MM)

(Created on Saturday, 09 March 2019 at 10:16)

(Feedrate: 25.0 mm/min)
(Feedrate rapids 3.0 mm/min)

(Z_Cut: -1.8 mm)
(Z_Move: 1.0 mm)
(Z Toolchange: 15.0 mm)
(X,Y Toolchange: 0.0000, 0.0000 mm)
(Z Start: None mm)
(Z End: 15.0 mm)
(Steps per circle: 64)
(Postprocessor Excellon: default)

(X range:    5.6460 ...  116.4465  mm)
(Y range:    4.6800 ...  113.5380  mm)

(Spindle Speed: 1000.0 RPM)

G21
G90
G94

G01 F25.00
M03 S1000.0
G00 X66.0400 Y88.9000
G01 Z-1.8000
G01 Z0
G00 Z1.0000
G00 X59.6900 Y91.4400
G01 Z-1.8000
G01 Z0
G00 Z1.0000
G00 X40.6400 Y88.9000
G01 Z-1.8000
G01 Z0
G00 Z1.0000
G00 X34.2900 Y91.4400
G01 Z-1.8000
G01 Z0
G00 Z1.0000
G00 X17.7800 Y88.9000
G01 Z-1.8000
G01 Z0
G00 Z1.0000
G00 X11.4300 Y91.4400
G01 Z-1.8000
G01 Z0
G00 Z1.0000
G00 X11.4300 Y71.1200
G01 Z-1.8000
G01 Z0
G00 Z1.0000
G00 X17.7800 Y68.5800
G01 Z-1.8000
G01 Z0
G00 Z1.0000
G00 X34.2900 Y71.1200
G01 Z-1.8000
G01 Z0
G00 Z1.0000
G00 X40.6400 Y68.5800
G01 Z-1.8000
G01 Z0
G00 Z1.0000
G00 X40.6400 Y48.2600
G01 Z-1.8000
G01 Z0
G00 Z1.0000
G00 X34.2900 Y50.8000
G01 Z-1.8000
G01 Z0
G00 Z1.0000
G00 X17.7800 Y48.2600
G01 Z-1.8000
G01 Z0
G00 Z1.0000
G00 X11.4300 Y50.8000
G01 Z-1.8000
G01 Z0
G00 Z1.0000
G00 X11.4300 Y30.4800
G01 Z-1.8000
G01 Z0
G00 Z1.0000
G00 X17.7800 Y27.9400
G01 Z-1.8000
G01 Z0
G00 Z1.0000
G00 X11.4300 Y10.1600
G01 Z-1.8000
G01 Z0
G00 Z1.0000
G00 X17.7800 Y7.6200
G01 Z-1.8000
G01 Z0
G00 Z1.0000
G00 X34.2900 Y30.4800
G01 Z-1.8000
G01 Z0
G00 Z1.0000
G00 X40.6400 Y27.9400
G01 Z-1.8000
G01 Z0
G00 Z1.0000
G00 X59.6900 Y50.8000
G01 Z-1.8000
G01 Z0
G00 Z1.0000
G00 X66.0400 Y48.2600
G01 Z-1.8000
G01 Z0
G00 Z1.0000
G00 X85.0900 Y50.8000
G01 Z-1.8000
G01 Z0
G00 Z1.0000
G00 X91.4400 Y48.2600
G01 Z-1.8000
G01 Z0
G00 Z1.0000
G00 X85.0900 Y30.4800
G01 Z-1.8000
G01 Z0
G00 Z1.0000
G00 X91.4400 Y27.9400
G01 Z-1.8000
G01 Z0
G00 Z1.0000
G00 X109.2200 Y10.1600
G01 Z-1.8000
G01 Z0
G00 Z1.0000
G00 X115.5700 Y7.6200
G01 Z-1.8000
G01 Z0
G00 Z1.0000
G00 X115.5700 Y27.9400
G01 Z-1.8000
G01 Z0
G00 Z1.0000
G00 X109.2200 Y30.4800
G01 Z-1.8000
G01 Z0
G00 Z1.0000
G00 X115.5700 Y48.2600
G01 Z-1.8000
G01 Z0
G00 Z1.0000
G00 X109.2200 Y50.8000
G01 Z-1.8000
G01 Z0
G00 Z1.0000
G00 X115.5700 Y68.5800
G01 Z-1.8000
G01 Z0
G00 Z1.0000
G00 X109.2200 Y71.1200
G01 Z-1.8000
G01 Z0
G00 Z1.0000
G00 X115.5700 Y88.9000
G01 Z-1.8000
G01 Z0
G00 Z1.0000
G00 X109.2200 Y91.4400
G01 Z-1.8000
G01 Z0
G00 Z1.0000
G00 X91.4400 Y88.9000
G01 Z-1.8000
G01 Z0
G00 Z1.0000
G00 X85.0900 Y91.4400
G01 Z-1.8000
G01 Z0
G00 Z1.0000
G00 X91.4400 Y68.5800
G01 Z-1.8000
G01 Z0
G00 Z1.0000
G00 X85.0900 Y71.1200
G01 Z-1.8000
G01 Z0
G00 Z1.0000
G00 X66.0400 Y68.5800
G01 Z-1.8000
G01 Z0
G00 Z1.0000
G00 X59.6900 Y71.1200
G01 Z-1.8000
G01 Z0
G00 Z1.0000
M05
G00 Z15.00
G00 X0.0 Y0.0

