(G-CODE GENERATED BY FLATCAM v8.909 - www.flatcam.org - Version Date: 2019/02/16)

(Name: profile.gbr_cutout_cnc)
(Type: G-code from Geometry)
(Units: MM)

(Created on Saturday, 09 March 2019 at 10:27)

(TOOL DIAMETER: 1.5 mm)
(Feedrate: 20.0 mm/min)
(Feedrate_Z: 20.0 mm/min)
(Feedrate rapids 20.0 mm/min)

(Z_Cut: -1.6 mm)
(DepthPerCut: 0.4 mm <=>4 passes)
(Z_Move: 1.0 mm)
(Z Toolchange: 15.0 mm)
(X,Y Toolchange: 0.0000, 0.0000 mm)
(Z Start: None mm)
(Z End: 2.0 mm)
(Steps per circle: 64)
(Postprocessor Geometry: default)

(X range:   -0.6271 ...  127.6071  mm)
(Y range:   -0.6271 ...  119.6771  mm)

(Spindle Speed: 1000 RPM)

G21
G90
G94

G01 F20.00
G00 Z1.0000

M03 S1000
G00 X13.3182 Y12.6419
G01 F20.00
G01 Z-0.4000
G01 F20.00
G01 X13.3182 Y12.7580
G01 X13.3253 Y12.8739
G01 X13.3393 Y12.9893
G01 X13.3601 Y13.1034
G01 X13.3880 Y13.2163
G01 X13.4225 Y13.3271
G01 X13.4637 Y13.4357
G01 X13.5114 Y13.5417
G01 X13.5654 Y13.6446
G01 X13.6254 Y13.7440
G01 X13.6914 Y13.8395
G01 X13.7631 Y13.9308
G01 X13.8401 Y14.0179
G01 X13.9223 Y14.1000
G01 X14.0091 Y14.1770
G01 X14.1006 Y14.2487
G01 X14.1961 Y14.3146
G01 X14.2955 Y14.3747
G01 X14.3984 Y14.4286
G01 X14.5043 Y14.4763
G01 X14.6129 Y14.5175
G01 X14.7237 Y14.5520
G01 X14.8364 Y14.5798
G01 X14.9507 Y14.6007
G01 X15.0660 Y14.6147
G01 X15.1820 Y14.6218
G01 X15.2980 Y14.6218
G01 X15.4139 Y14.6147
G01 X15.5293 Y14.6007
G01 X15.6434 Y14.5799
G01 X15.7563 Y14.5520
G01 X15.8671 Y14.5175
G01 X15.9757 Y14.4763
G01 X16.0817 Y14.4286
G01 X16.1846 Y14.3746
G01 X16.2840 Y14.3146
G01 X16.3795 Y14.2486
G01 X16.4709 Y14.1770
G01 X16.5578 Y14.0999
G01 X16.6400 Y14.0177
G01 X16.7171 Y13.9308
G01 X16.7887 Y13.8394
G01 X16.8546 Y13.7440
G01 X16.9146 Y13.6446
G01 X16.9686 Y13.5417
G01 X17.0162 Y13.4358
G01 X17.0574 Y13.3272
G01 X17.0920 Y13.2163
G01 X17.1199 Y13.1034
G01 X17.1407 Y12.9893
G01 X17.1547 Y12.8740
G01 X17.1618 Y12.7554
G01 X17.1618 Y12.6419
G01 X17.1547 Y12.5260
G01 X17.1407 Y12.4107
G01 X17.1199 Y12.2966
G01 X17.0920 Y12.1837
G01 X17.0575 Y12.0729
G01 X17.0163 Y11.9643
G01 X16.9686 Y11.8583
G01 X16.9146 Y11.7554
G01 X16.8546 Y11.6560
G01 X16.7886 Y11.5605
G01 X16.7170 Y11.4691
G01 X16.6399 Y11.3822
G01 X16.5578 Y11.3000
G01 X16.4708 Y11.2231
G01 X16.3794 Y11.1513
G01 X16.2839 Y11.0854
G01 X16.1845 Y11.0253
G01 X16.0816 Y10.9714
G01 X15.9757 Y10.9237
G01 X15.8671 Y10.8825
G01 X15.7563 Y10.8480
G01 X15.6436 Y10.8202
G01 X15.5293 Y10.7993
G01 X15.4140 Y10.7853
G01 X15.2980 Y10.7782
G01 X15.1820 Y10.7782
G01 X15.0661 Y10.7853
G01 X14.9507 Y10.7993
G01 X14.8366 Y10.8201
G01 X14.7237 Y10.8480
G01 X14.6129 Y10.8825
G01 X14.5043 Y10.9237
G01 X14.3983 Y10.9714
G01 X14.2954 Y11.0254
G01 X14.1960 Y11.0854
G01 X14.1005 Y11.1514
G01 X14.0092 Y11.2231
G01 X13.9221 Y11.3001
G01 X13.8400 Y11.3822
G01 X13.7631 Y11.4692
G01 X13.6913 Y11.5606
G01 X13.6254 Y11.6561
G01 X13.5653 Y11.7555
G01 X13.5114 Y11.8584
G01 X13.4637 Y11.9643
G01 X13.4225 Y12.0729
G01 X13.3880 Y12.1837
G01 X13.3602 Y12.2964
G01 X13.3393 Y12.4107
G01 X13.3253 Y12.5260
G01 X13.3182 Y12.6419
G00 X13.3182 Y12.6419
G01 F20.00
G01 Z-0.8000
G01 F20.00
G01 X13.3182 Y12.7580
G01 X13.3253 Y12.8739
G01 X13.3393 Y12.9893
G01 X13.3601 Y13.1034
G01 X13.3880 Y13.2163
G01 X13.4225 Y13.3271
G01 X13.4637 Y13.4357
G01 X13.5114 Y13.5417
G01 X13.5654 Y13.6446
G01 X13.6254 Y13.7440
G01 X13.6914 Y13.8395
G01 X13.7631 Y13.9308
G01 X13.8401 Y14.0179
G01 X13.9223 Y14.1000
G01 X14.0091 Y14.1770
G01 X14.1006 Y14.2487
G01 X14.1961 Y14.3146
G01 X14.2955 Y14.3747
G01 X14.3984 Y14.4286
G01 X14.5043 Y14.4763
G01 X14.6129 Y14.5175
G01 X14.7237 Y14.5520
G01 X14.8364 Y14.5798
G01 X14.9507 Y14.6007
G01 X15.0660 Y14.6147
G01 X15.1820 Y14.6218
G01 X15.2980 Y14.6218
G01 X15.4139 Y14.6147
G01 X15.5293 Y14.6007
G01 X15.6434 Y14.5799
G01 X15.7563 Y14.5520
G01 X15.8671 Y14.5175
G01 X15.9757 Y14.4763
G01 X16.0817 Y14.4286
G01 X16.1846 Y14.3746
G01 X16.2840 Y14.3146
G01 X16.3795 Y14.2486
G01 X16.4709 Y14.1770
G01 X16.5578 Y14.0999
G01 X16.6400 Y14.0177
G01 X16.7171 Y13.9308
G01 X16.7887 Y13.8394
G01 X16.8546 Y13.7440
G01 X16.9146 Y13.6446
G01 X16.9686 Y13.5417
G01 X17.0162 Y13.4358
G01 X17.0574 Y13.3272
G01 X17.0920 Y13.2163
G01 X17.1199 Y13.1034
G01 X17.1407 Y12.9893
G01 X17.1547 Y12.8740
G01 X17.1618 Y12.7554
G01 X17.1618 Y12.6419
G01 X17.1547 Y12.5260
G01 X17.1407 Y12.4107
G01 X17.1199 Y12.2966
G01 X17.0920 Y12.1837
G01 X17.0575 Y12.0729
G01 X17.0163 Y11.9643
G01 X16.9686 Y11.8583
G01 X16.9146 Y11.7554
G01 X16.8546 Y11.6560
G01 X16.7886 Y11.5605
G01 X16.7170 Y11.4691
G01 X16.6399 Y11.3822
G01 X16.5578 Y11.3000
G01 X16.4708 Y11.2231
G01 X16.3794 Y11.1513
G01 X16.2839 Y11.0854
G01 X16.1845 Y11.0253
G01 X16.0816 Y10.9714
G01 X15.9757 Y10.9237
G01 X15.8671 Y10.8825
G01 X15.7563 Y10.8480
G01 X15.6436 Y10.8202
G01 X15.5293 Y10.7993
G01 X15.4140 Y10.7853
G01 X15.2980 Y10.7782
G01 X15.1820 Y10.7782
G01 X15.0661 Y10.7853
G01 X14.9507 Y10.7993
G01 X14.8366 Y10.8201
G01 X14.7237 Y10.8480
G01 X14.6129 Y10.8825
G01 X14.5043 Y10.9237
G01 X14.3983 Y10.9714
G01 X14.2954 Y11.0254
G01 X14.1960 Y11.0854
G01 X14.1005 Y11.1514
G01 X14.0092 Y11.2231
G01 X13.9221 Y11.3001
G01 X13.8400 Y11.3822
G01 X13.7631 Y11.4692
G01 X13.6913 Y11.5606
G01 X13.6254 Y11.6561
G01 X13.5653 Y11.7555
G01 X13.5114 Y11.8584
G01 X13.4637 Y11.9643
G01 X13.4225 Y12.0729
G01 X13.3880 Y12.1837
G01 X13.3602 Y12.2964
G01 X13.3393 Y12.4107
G01 X13.3253 Y12.5260
G01 X13.3182 Y12.6419
G00 X13.3182 Y12.6419
G01 F20.00
G01 Z-1.2000
G01 F20.00
G01 X13.3182 Y12.7580
G01 X13.3253 Y12.8739
G01 X13.3393 Y12.9893
G01 X13.3601 Y13.1034
G01 X13.3880 Y13.2163
G01 X13.4225 Y13.3271
G01 X13.4637 Y13.4357
G01 X13.5114 Y13.5417
G01 X13.5654 Y13.6446
G01 X13.6254 Y13.7440
G01 X13.6914 Y13.8395
G01 X13.7631 Y13.9308
G01 X13.8401 Y14.0179
G01 X13.9223 Y14.1000
G01 X14.0091 Y14.1770
G01 X14.1006 Y14.2487
G01 X14.1961 Y14.3146
G01 X14.2955 Y14.3747
G01 X14.3984 Y14.4286
G01 X14.5043 Y14.4763
G01 X14.6129 Y14.5175
G01 X14.7237 Y14.5520
G01 X14.8364 Y14.5798
G01 X14.9507 Y14.6007
G01 X15.0660 Y14.6147
G01 X15.1820 Y14.6218
G01 X15.2980 Y14.6218
G01 X15.4139 Y14.6147
G01 X15.5293 Y14.6007
G01 X15.6434 Y14.5799
G01 X15.7563 Y14.5520
G01 X15.8671 Y14.5175
G01 X15.9757 Y14.4763
G01 X16.0817 Y14.4286
G01 X16.1846 Y14.3746
G01 X16.2840 Y14.3146
G01 X16.3795 Y14.2486
G01 X16.4709 Y14.1770
G01 X16.5578 Y14.0999
G01 X16.6400 Y14.0177
G01 X16.7171 Y13.9308
G01 X16.7887 Y13.8394
G01 X16.8546 Y13.7440
G01 X16.9146 Y13.6446
G01 X16.9686 Y13.5417
G01 X17.0162 Y13.4358
G01 X17.0574 Y13.3272
G01 X17.0920 Y13.2163
G01 X17.1199 Y13.1034
G01 X17.1407 Y12.9893
G01 X17.1547 Y12.8740
G01 X17.1618 Y12.7554
G01 X17.1618 Y12.6419
G01 X17.1547 Y12.5260
G01 X17.1407 Y12.4107
G01 X17.1199 Y12.2966
G01 X17.0920 Y12.1837
G01 X17.0575 Y12.0729
G01 X17.0163 Y11.9643
G01 X16.9686 Y11.8583
G01 X16.9146 Y11.7554
G01 X16.8546 Y11.6560
G01 X16.7886 Y11.5605
G01 X16.7170 Y11.4691
G01 X16.6399 Y11.3822
G01 X16.5578 Y11.3000
G01 X16.4708 Y11.2231
G01 X16.3794 Y11.1513
G01 X16.2839 Y11.0854
G01 X16.1845 Y11.0253
G01 X16.0816 Y10.9714
G01 X15.9757 Y10.9237
G01 X15.8671 Y10.8825
G01 X15.7563 Y10.8480
G01 X15.6436 Y10.8202
G01 X15.5293 Y10.7993
G01 X15.4140 Y10.7853
G01 X15.2980 Y10.7782
G01 X15.1820 Y10.7782
G01 X15.0661 Y10.7853
G01 X14.9507 Y10.7993
G01 X14.8366 Y10.8201
G01 X14.7237 Y10.8480
G01 X14.6129 Y10.8825
G01 X14.5043 Y10.9237
G01 X14.3983 Y10.9714
G01 X14.2954 Y11.0254
G01 X14.1960 Y11.0854
G01 X14.1005 Y11.1514
G01 X14.0092 Y11.2231
G01 X13.9221 Y11.3001
G01 X13.8400 Y11.3822
G01 X13.7631 Y11.4692
G01 X13.6913 Y11.5606
G01 X13.6254 Y11.6561
G01 X13.5653 Y11.7555
G01 X13.5114 Y11.8584
G01 X13.4637 Y11.9643
G01 X13.4225 Y12.0729
G01 X13.3880 Y12.1837
G01 X13.3602 Y12.2964
G01 X13.3393 Y12.4107
G01 X13.3253 Y12.5260
G01 X13.3182 Y12.6419
G00 X13.3182 Y12.6419
G01 F20.00
G01 Z-1.6000
G01 F20.00
G01 X13.3182 Y12.7580
G01 X13.3253 Y12.8739
G01 X13.3393 Y12.9893
G01 X13.3601 Y13.1034
G01 X13.3880 Y13.2163
G01 X13.4225 Y13.3271
G01 X13.4637 Y13.4357
G01 X13.5114 Y13.5417
G01 X13.5654 Y13.6446
G01 X13.6254 Y13.7440
G01 X13.6914 Y13.8395
G01 X13.7631 Y13.9308
G01 X13.8401 Y14.0179
G01 X13.9223 Y14.1000
G01 X14.0091 Y14.1770
G01 X14.1006 Y14.2487
G01 X14.1961 Y14.3146
G01 X14.2955 Y14.3747
G01 X14.3984 Y14.4286
G01 X14.5043 Y14.4763
G01 X14.6129 Y14.5175
G01 X14.7237 Y14.5520
G01 X14.8364 Y14.5798
G01 X14.9507 Y14.6007
G01 X15.0660 Y14.6147
G01 X15.1820 Y14.6218
G01 X15.2980 Y14.6218
G01 X15.4139 Y14.6147
G01 X15.5293 Y14.6007
G01 X15.6434 Y14.5799
G01 X15.7563 Y14.5520
G01 X15.8671 Y14.5175
G01 X15.9757 Y14.4763
G01 X16.0817 Y14.4286
G01 X16.1846 Y14.3746
G01 X16.2840 Y14.3146
G01 X16.3795 Y14.2486
G01 X16.4709 Y14.1770
G01 X16.5578 Y14.0999
G01 X16.6400 Y14.0177
G01 X16.7171 Y13.9308
G01 X16.7887 Y13.8394
G01 X16.8546 Y13.7440
G01 X16.9146 Y13.6446
G01 X16.9686 Y13.5417
G01 X17.0162 Y13.4358
G01 X17.0574 Y13.3272
G01 X17.0920 Y13.2163
G01 X17.1199 Y13.1034
G01 X17.1407 Y12.9893
G01 X17.1547 Y12.8740
G01 X17.1618 Y12.7554
G01 X17.1618 Y12.6419
G01 X17.1547 Y12.5260
G01 X17.1407 Y12.4107
G01 X17.1199 Y12.2966
G01 X17.0920 Y12.1837
G01 X17.0575 Y12.0729
G01 X17.0163 Y11.9643
G01 X16.9686 Y11.8583
G01 X16.9146 Y11.7554
G01 X16.8546 Y11.6560
G01 X16.7886 Y11.5605
G01 X16.7170 Y11.4691
G01 X16.6399 Y11.3822
G01 X16.5578 Y11.3000
G01 X16.4708 Y11.2231
G01 X16.3794 Y11.1513
G01 X16.2839 Y11.0854
G01 X16.1845 Y11.0253
G01 X16.0816 Y10.9714
G01 X15.9757 Y10.9237
G01 X15.8671 Y10.8825
G01 X15.7563 Y10.8480
G01 X15.6436 Y10.8202
G01 X15.5293 Y10.7993
G01 X15.4140 Y10.7853
G01 X15.2980 Y10.7782
G01 X15.1820 Y10.7782
G01 X15.0661 Y10.7853
G01 X14.9507 Y10.7993
G01 X14.8366 Y10.8201
G01 X14.7237 Y10.8480
G01 X14.6129 Y10.8825
G01 X14.5043 Y10.9237
G01 X14.3983 Y10.9714
G01 X14.2954 Y11.0254
G01 X14.1960 Y11.0854
G01 X14.1005 Y11.1514
G01 X14.0092 Y11.2231
G01 X13.9221 Y11.3001
G01 X13.8400 Y11.3822
G01 X13.7631 Y11.4692
G01 X13.6913 Y11.5606
G01 X13.6254 Y11.6561
G01 X13.5653 Y11.7555
G01 X13.5114 Y11.8584
G01 X13.4637 Y11.9643
G01 X13.4225 Y12.0729
G01 X13.3880 Y12.1837
G01 X13.3602 Y12.2964
G01 X13.3393 Y12.4107
G01 X13.3253 Y12.5260
G01 X13.3182 Y12.6419
G00 Z1.0000
G00 X13.3182 Y32.9619
G01 F20.00
G01 Z-0.4000
G01 F20.00
G01 X13.3182 Y33.0780
G01 X13.3253 Y33.1939
G01 X13.3393 Y33.3093
G01 X13.3601 Y33.4234
G01 X13.3880 Y33.5363
G01 X13.4225 Y33.6471
G01 X13.4637 Y33.7557
G01 X13.5114 Y33.8617
G01 X13.5654 Y33.9646
G01 X13.6254 Y34.0640
G01 X13.6914 Y34.1595
G01 X13.7631 Y34.2508
G01 X13.8401 Y34.3379
G01 X13.9218 Y34.4195
G01 X14.0091 Y34.4970
G01 X14.1006 Y34.5687
G01 X14.1961 Y34.6346
G01 X14.2950 Y34.6943
G01 X14.3984 Y34.7486
G01 X14.5043 Y34.7963
G01 X14.6129 Y34.8375
G01 X14.7237 Y34.8720
G01 X14.8364 Y34.8998
G01 X14.9524 Y34.9209
G01 X15.0669 Y34.9348
G01 X15.1820 Y34.9418
G01 X15.2980 Y34.9418
G01 X15.4133 Y34.9348
G01 X15.5293 Y34.9207
G01 X15.6434 Y34.8999
G01 X15.7563 Y34.8720
G01 X15.8671 Y34.8375
G01 X15.9757 Y34.7963
G01 X16.0817 Y34.7486
G01 X16.1846 Y34.6946
G01 X16.2840 Y34.6346
G01 X16.3795 Y34.5686
G01 X16.4709 Y34.4970
G01 X16.5578 Y34.4199
G01 X16.6400 Y34.3377
G01 X16.7171 Y34.2508
G01 X16.7887 Y34.1594
G01 X16.8546 Y34.0640
G01 X16.9146 Y33.9646
G01 X16.9686 Y33.8617
G01 X17.0162 Y33.7558
G01 X17.0574 Y33.6472
G01 X17.0920 Y33.5363
G01 X17.1199 Y33.4234
G01 X17.1407 Y33.3093
G01 X17.1545 Y33.1959
G01 X17.1618 Y33.0754
G01 X17.1618 Y32.9619
G01 X17.1548 Y32.8467
G01 X17.1407 Y32.7307
G01 X17.1199 Y32.6166
G01 X17.0920 Y32.5037
G01 X17.0575 Y32.3929
G01 X17.0163 Y32.2843
G01 X16.9686 Y32.1783
G01 X16.9146 Y32.0754
G01 X16.8546 Y31.9760
G01 X16.7886 Y31.8805
G01 X16.7170 Y31.7891
G01 X16.6399 Y31.7022
G01 X16.5578 Y31.6200
G01 X16.4708 Y31.5431
G01 X16.3794 Y31.4713
G01 X16.2839 Y31.4054
G01 X16.1845 Y31.3453
G01 X16.0816 Y31.2914
G01 X15.9757 Y31.2437
G01 X15.8671 Y31.2025
G01 X15.7563 Y31.1680
G01 X15.6436 Y31.1402
G01 X15.5293 Y31.1193
G01 X15.4140 Y31.1053
G01 X15.2980 Y31.0982
G01 X15.1820 Y31.0982
G01 X15.0661 Y31.1053
G01 X14.9507 Y31.1193
G01 X14.8366 Y31.1401
G01 X14.7237 Y31.1680
G01 X14.6129 Y31.2025
G01 X14.5043 Y31.2437
G01 X14.3983 Y31.2914
G01 X14.2954 Y31.3454
G01 X14.1960 Y31.4054
G01 X14.1005 Y31.4714
G01 X14.0092 Y31.5431
G01 X13.9221 Y31.6201
G01 X13.8400 Y31.7022
G01 X13.7631 Y31.7892
G01 X13.6913 Y31.8806
G01 X13.6254 Y31.9761
G01 X13.5653 Y32.0755
G01 X13.5114 Y32.1784
G01 X13.4637 Y32.2843
G01 X13.4225 Y32.3929
G01 X13.3880 Y32.5037
G01 X13.3602 Y32.6164
G01 X13.3393 Y32.7307
G01 X13.3253 Y32.8460
G01 X13.3182 Y32.9619
G00 X13.3182 Y32.9619
G01 F20.00
G01 Z-0.8000
G01 F20.00
G01 X13.3182 Y33.0780
G01 X13.3253 Y33.1939
G01 X13.3393 Y33.3093
G01 X13.3601 Y33.4234
G01 X13.3880 Y33.5363
G01 X13.4225 Y33.6471
G01 X13.4637 Y33.7557
G01 X13.5114 Y33.8617
G01 X13.5654 Y33.9646
G01 X13.6254 Y34.0640
G01 X13.6914 Y34.1595
G01 X13.7631 Y34.2508
G01 X13.8401 Y34.3379
G01 X13.9218 Y34.4195
G01 X14.0091 Y34.4970
G01 X14.1006 Y34.5687
G01 X14.1961 Y34.6346
G01 X14.2950 Y34.6943
G01 X14.3984 Y34.7486
G01 X14.5043 Y34.7963
G01 X14.6129 Y34.8375
G01 X14.7237 Y34.8720
G01 X14.8364 Y34.8998
G01 X14.9524 Y34.9209
G01 X15.0669 Y34.9348
G01 X15.1820 Y34.9418
G01 X15.2980 Y34.9418
G01 X15.4133 Y34.9348
G01 X15.5293 Y34.9207
G01 X15.6434 Y34.8999
G01 X15.7563 Y34.8720
G01 X15.8671 Y34.8375
G01 X15.9757 Y34.7963
G01 X16.0817 Y34.7486
G01 X16.1846 Y34.6946
G01 X16.2840 Y34.6346
G01 X16.3795 Y34.5686
G01 X16.4709 Y34.4970
G01 X16.5578 Y34.4199
G01 X16.6400 Y34.3377
G01 X16.7171 Y34.2508
G01 X16.7887 Y34.1594
G01 X16.8546 Y34.0640
G01 X16.9146 Y33.9646
G01 X16.9686 Y33.8617
G01 X17.0162 Y33.7558
G01 X17.0574 Y33.6472
G01 X17.0920 Y33.5363
G01 X17.1199 Y33.4234
G01 X17.1407 Y33.3093
G01 X17.1545 Y33.1959
G01 X17.1618 Y33.0754
G01 X17.1618 Y32.9619
G01 X17.1548 Y32.8467
G01 X17.1407 Y32.7307
G01 X17.1199 Y32.6166
G01 X17.0920 Y32.5037
G01 X17.0575 Y32.3929
G01 X17.0163 Y32.2843
G01 X16.9686 Y32.1783
G01 X16.9146 Y32.0754
G01 X16.8546 Y31.9760
G01 X16.7886 Y31.8805
G01 X16.7170 Y31.7891
G01 X16.6399 Y31.7022
G01 X16.5578 Y31.6200
G01 X16.4708 Y31.5431
G01 X16.3794 Y31.4713
G01 X16.2839 Y31.4054
G01 X16.1845 Y31.3453
G01 X16.0816 Y31.2914
G01 X15.9757 Y31.2437
G01 X15.8671 Y31.2025
G01 X15.7563 Y31.1680
G01 X15.6436 Y31.1402
G01 X15.5293 Y31.1193
G01 X15.4140 Y31.1053
G01 X15.2980 Y31.0982
G01 X15.1820 Y31.0982
G01 X15.0661 Y31.1053
G01 X14.9507 Y31.1193
G01 X14.8366 Y31.1401
G01 X14.7237 Y31.1680
G01 X14.6129 Y31.2025
G01 X14.5043 Y31.2437
G01 X14.3983 Y31.2914
G01 X14.2954 Y31.3454
G01 X14.1960 Y31.4054
G01 X14.1005 Y31.4714
G01 X14.0092 Y31.5431
G01 X13.9221 Y31.6201
G01 X13.8400 Y31.7022
G01 X13.7631 Y31.7892
G01 X13.6913 Y31.8806
G01 X13.6254 Y31.9761
G01 X13.5653 Y32.0755
G01 X13.5114 Y32.1784
G01 X13.4637 Y32.2843
G01 X13.4225 Y32.3929
G01 X13.3880 Y32.5037
G01 X13.3602 Y32.6164
G01 X13.3393 Y32.7307
G01 X13.3253 Y32.8460
G01 X13.3182 Y32.9619
G00 X13.3182 Y32.9619
G01 F20.00
G01 Z-1.2000
G01 F20.00
G01 X13.3182 Y33.0780
G01 X13.3253 Y33.1939
G01 X13.3393 Y33.3093
G01 X13.3601 Y33.4234
G01 X13.3880 Y33.5363
G01 X13.4225 Y33.6471
G01 X13.4637 Y33.7557
G01 X13.5114 Y33.8617
G01 X13.5654 Y33.9646
G01 X13.6254 Y34.0640
G01 X13.6914 Y34.1595
G01 X13.7631 Y34.2508
G01 X13.8401 Y34.3379
G01 X13.9218 Y34.4195
G01 X14.0091 Y34.4970
G01 X14.1006 Y34.5687
G01 X14.1961 Y34.6346
G01 X14.2950 Y34.6943
G01 X14.3984 Y34.7486
G01 X14.5043 Y34.7963
G01 X14.6129 Y34.8375
G01 X14.7237 Y34.8720
G01 X14.8364 Y34.8998
G01 X14.9524 Y34.9209
G01 X15.0669 Y34.9348
G01 X15.1820 Y34.9418
G01 X15.2980 Y34.9418
G01 X15.4133 Y34.9348
G01 X15.5293 Y34.9207
G01 X15.6434 Y34.8999
G01 X15.7563 Y34.8720
G01 X15.8671 Y34.8375
G01 X15.9757 Y34.7963
G01 X16.0817 Y34.7486
G01 X16.1846 Y34.6946
G01 X16.2840 Y34.6346
G01 X16.3795 Y34.5686
G01 X16.4709 Y34.4970
G01 X16.5578 Y34.4199
G01 X16.6400 Y34.3377
G01 X16.7171 Y34.2508
G01 X16.7887 Y34.1594
G01 X16.8546 Y34.0640
G01 X16.9146 Y33.9646
G01 X16.9686 Y33.8617
G01 X17.0162 Y33.7558
G01 X17.0574 Y33.6472
G01 X17.0920 Y33.5363
G01 X17.1199 Y33.4234
G01 X17.1407 Y33.3093
G01 X17.1545 Y33.1959
G01 X17.1618 Y33.0754
G01 X17.1618 Y32.9619
G01 X17.1548 Y32.8467
G01 X17.1407 Y32.7307
G01 X17.1199 Y32.6166
G01 X17.0920 Y32.5037
G01 X17.0575 Y32.3929
G01 X17.0163 Y32.2843
G01 X16.9686 Y32.1783
G01 X16.9146 Y32.0754
G01 X16.8546 Y31.9760
G01 X16.7886 Y31.8805
G01 X16.7170 Y31.7891
G01 X16.6399 Y31.7022
G01 X16.5578 Y31.6200
G01 X16.4708 Y31.5431
G01 X16.3794 Y31.4713
G01 X16.2839 Y31.4054
G01 X16.1845 Y31.3453
G01 X16.0816 Y31.2914
G01 X15.9757 Y31.2437
G01 X15.8671 Y31.2025
G01 X15.7563 Y31.1680
G01 X15.6436 Y31.1402
G01 X15.5293 Y31.1193
G01 X15.4140 Y31.1053
G01 X15.2980 Y31.0982
G01 X15.1820 Y31.0982
G01 X15.0661 Y31.1053
G01 X14.9507 Y31.1193
G01 X14.8366 Y31.1401
G01 X14.7237 Y31.1680
G01 X14.6129 Y31.2025
G01 X14.5043 Y31.2437
G01 X14.3983 Y31.2914
G01 X14.2954 Y31.3454
G01 X14.1960 Y31.4054
G01 X14.1005 Y31.4714
G01 X14.0092 Y31.5431
G01 X13.9221 Y31.6201
G01 X13.8400 Y31.7022
G01 X13.7631 Y31.7892
G01 X13.6913 Y31.8806
G01 X13.6254 Y31.9761
G01 X13.5653 Y32.0755
G01 X13.5114 Y32.1784
G01 X13.4637 Y32.2843
G01 X13.4225 Y32.3929
G01 X13.3880 Y32.5037
G01 X13.3602 Y32.6164
G01 X13.3393 Y32.7307
G01 X13.3253 Y32.8460
G01 X13.3182 Y32.9619
G00 X13.3182 Y32.9619
G01 F20.00
G01 Z-1.6000
G01 F20.00
G01 X13.3182 Y33.0780
G01 X13.3253 Y33.1939
G01 X13.3393 Y33.3093
G01 X13.3601 Y33.4234
G01 X13.3880 Y33.5363
G01 X13.4225 Y33.6471
G01 X13.4637 Y33.7557
G01 X13.5114 Y33.8617
G01 X13.5654 Y33.9646
G01 X13.6254 Y34.0640
G01 X13.6914 Y34.1595
G01 X13.7631 Y34.2508
G01 X13.8401 Y34.3379
G01 X13.9218 Y34.4195
G01 X14.0091 Y34.4970
G01 X14.1006 Y34.5687
G01 X14.1961 Y34.6346
G01 X14.2950 Y34.6943
G01 X14.3984 Y34.7486
G01 X14.5043 Y34.7963
G01 X14.6129 Y34.8375
G01 X14.7237 Y34.8720
G01 X14.8364 Y34.8998
G01 X14.9524 Y34.9209
G01 X15.0669 Y34.9348
G01 X15.1820 Y34.9418
G01 X15.2980 Y34.9418
G01 X15.4133 Y34.9348
G01 X15.5293 Y34.9207
G01 X15.6434 Y34.8999
G01 X15.7563 Y34.8720
G01 X15.8671 Y34.8375
G01 X15.9757 Y34.7963
G01 X16.0817 Y34.7486
G01 X16.1846 Y34.6946
G01 X16.2840 Y34.6346
G01 X16.3795 Y34.5686
G01 X16.4709 Y34.4970
G01 X16.5578 Y34.4199
G01 X16.6400 Y34.3377
G01 X16.7171 Y34.2508
G01 X16.7887 Y34.1594
G01 X16.8546 Y34.0640
G01 X16.9146 Y33.9646
G01 X16.9686 Y33.8617
G01 X17.0162 Y33.7558
G01 X17.0574 Y33.6472
G01 X17.0920 Y33.5363
G01 X17.1199 Y33.4234
G01 X17.1407 Y33.3093
G01 X17.1545 Y33.1959
G01 X17.1618 Y33.0754
G01 X17.1618 Y32.9619
G01 X17.1548 Y32.8467
G01 X17.1407 Y32.7307
G01 X17.1199 Y32.6166
G01 X17.0920 Y32.5037
G01 X17.0575 Y32.3929
G01 X17.0163 Y32.2843
G01 X16.9686 Y32.1783
G01 X16.9146 Y32.0754
G01 X16.8546 Y31.9760
G01 X16.7886 Y31.8805
G01 X16.7170 Y31.7891
G01 X16.6399 Y31.7022
G01 X16.5578 Y31.6200
G01 X16.4708 Y31.5431
G01 X16.3794 Y31.4713
G01 X16.2839 Y31.4054
G01 X16.1845 Y31.3453
G01 X16.0816 Y31.2914
G01 X15.9757 Y31.2437
G01 X15.8671 Y31.2025
G01 X15.7563 Y31.1680
G01 X15.6436 Y31.1402
G01 X15.5293 Y31.1193
G01 X15.4140 Y31.1053
G01 X15.2980 Y31.0982
G01 X15.1820 Y31.0982
G01 X15.0661 Y31.1053
G01 X14.9507 Y31.1193
G01 X14.8366 Y31.1401
G01 X14.7237 Y31.1680
G01 X14.6129 Y31.2025
G01 X14.5043 Y31.2437
G01 X14.3983 Y31.2914
G01 X14.2954 Y31.3454
G01 X14.1960 Y31.4054
G01 X14.1005 Y31.4714
G01 X14.0092 Y31.5431
G01 X13.9221 Y31.6201
G01 X13.8400 Y31.7022
G01 X13.7631 Y31.7892
G01 X13.6913 Y31.8806
G01 X13.6254 Y31.9761
G01 X13.5653 Y32.0755
G01 X13.5114 Y32.1784
G01 X13.4637 Y32.2843
G01 X13.4225 Y32.3929
G01 X13.3880 Y32.5037
G01 X13.3602 Y32.6164
G01 X13.3393 Y32.7307
G01 X13.3253 Y32.8460
G01 X13.3182 Y32.9619
G00 Z1.0000
G00 X13.3182 Y53.2819
G01 F20.00
G01 Z-0.4000
G01 F20.00
G01 X13.3182 Y53.3980
G01 X13.3253 Y53.5139
G01 X13.3393 Y53.6293
G01 X13.3601 Y53.7434
G01 X13.3880 Y53.8563
G01 X13.4225 Y53.9671
G01 X13.4637 Y54.0757
G01 X13.5114 Y54.1817
G01 X13.5654 Y54.2846
G01 X13.6254 Y54.3840
G01 X13.6914 Y54.4795
G01 X13.7631 Y54.5708
G01 X13.8401 Y54.6579
G01 X13.9218 Y54.7395
G01 X14.0091 Y54.8170
G01 X14.1006 Y54.8887
G01 X14.1961 Y54.9546
G01 X14.2950 Y55.0143
G01 X14.3984 Y55.0686
G01 X14.5043 Y55.1163
G01 X14.6129 Y55.1575
G01 X14.7237 Y55.1920
G01 X14.8364 Y55.2198
G01 X14.9524 Y55.2409
G01 X15.0669 Y55.2548
G01 X15.1820 Y55.2618
G01 X15.2980 Y55.2618
G01 X15.4133 Y55.2548
G01 X15.5293 Y55.2407
G01 X15.6434 Y55.2199
G01 X15.7563 Y55.1920
G01 X15.8671 Y55.1575
G01 X15.9757 Y55.1163
G01 X16.0817 Y55.0686
G01 X16.1846 Y55.0146
G01 X16.2840 Y54.9546
G01 X16.3795 Y54.8886
G01 X16.4709 Y54.8170
G01 X16.5578 Y54.7399
G01 X16.6400 Y54.6577
G01 X16.7171 Y54.5708
G01 X16.7887 Y54.4794
G01 X16.8546 Y54.3840
G01 X16.9146 Y54.2846
G01 X16.9686 Y54.1817
G01 X17.0162 Y54.0758
G01 X17.0574 Y53.9672
G01 X17.0920 Y53.8563
G01 X17.1199 Y53.7434
G01 X17.1407 Y53.6293
G01 X17.1545 Y53.5159
G01 X17.1618 Y53.3954
G01 X17.1618 Y53.2819
G01 X17.1548 Y53.1667
G01 X17.1407 Y53.0507
G01 X17.1199 Y52.9366
G01 X17.0920 Y52.8237
G01 X17.0575 Y52.7129
G01 X17.0163 Y52.6043
G01 X16.9686 Y52.4983
G01 X16.9146 Y52.3954
G01 X16.8546 Y52.2960
G01 X16.7886 Y52.2005
G01 X16.7170 Y52.1091
G01 X16.6399 Y52.0222
G01 X16.5578 Y51.9400
G01 X16.4708 Y51.8631
G01 X16.3794 Y51.7913
G01 X16.2839 Y51.7254
G01 X16.1845 Y51.6653
G01 X16.0816 Y51.6114
G01 X15.9757 Y51.5637
G01 X15.8671 Y51.5225
G01 X15.7563 Y51.4880
G01 X15.6436 Y51.4602
G01 X15.5276 Y51.4391
G01 X15.4131 Y51.4252
G01 X15.2980 Y51.4182
G01 X15.1820 Y51.4182
G01 X15.0667 Y51.4252
G01 X14.9507 Y51.4393
G01 X14.8366 Y51.4601
G01 X14.7237 Y51.4880
G01 X14.6129 Y51.5225
G01 X14.5043 Y51.5637
G01 X14.3983 Y51.6114
G01 X14.2949 Y51.6657
G01 X14.1960 Y51.7254
G01 X14.1005 Y51.7914
G01 X14.0092 Y51.8631
G01 X13.9221 Y51.9401
G01 X13.8400 Y52.0222
G01 X13.7631 Y52.1092
G01 X13.6913 Y52.2006
G01 X13.6254 Y52.2961
G01 X13.5653 Y52.3955
G01 X13.5114 Y52.4984
G01 X13.4637 Y52.6043
G01 X13.4225 Y52.7129
G01 X13.3880 Y52.8237
G01 X13.3602 Y52.9364
G01 X13.3393 Y53.0507
G01 X13.3253 Y53.1660
G01 X13.3182 Y53.2819
G00 X13.3182 Y53.2819
G01 F20.00
G01 Z-0.8000
G01 F20.00
G01 X13.3182 Y53.3980
G01 X13.3253 Y53.5139
G01 X13.3393 Y53.6293
G01 X13.3601 Y53.7434
G01 X13.3880 Y53.8563
G01 X13.4225 Y53.9671
G01 X13.4637 Y54.0757
G01 X13.5114 Y54.1817
G01 X13.5654 Y54.2846
G01 X13.6254 Y54.3840
G01 X13.6914 Y54.4795
G01 X13.7631 Y54.5708
G01 X13.8401 Y54.6579
G01 X13.9218 Y54.7395
G01 X14.0091 Y54.8170
G01 X14.1006 Y54.8887
G01 X14.1961 Y54.9546
G01 X14.2950 Y55.0143
G01 X14.3984 Y55.0686
G01 X14.5043 Y55.1163
G01 X14.6129 Y55.1575
G01 X14.7237 Y55.1920
G01 X14.8364 Y55.2198
G01 X14.9524 Y55.2409
G01 X15.0669 Y55.2548
G01 X15.1820 Y55.2618
G01 X15.2980 Y55.2618
G01 X15.4133 Y55.2548
G01 X15.5293 Y55.2407
G01 X15.6434 Y55.2199
G01 X15.7563 Y55.1920
G01 X15.8671 Y55.1575
G01 X15.9757 Y55.1163
G01 X16.0817 Y55.0686
G01 X16.1846 Y55.0146
G01 X16.2840 Y54.9546
G01 X16.3795 Y54.8886
G01 X16.4709 Y54.8170
G01 X16.5578 Y54.7399
G01 X16.6400 Y54.6577
G01 X16.7171 Y54.5708
G01 X16.7887 Y54.4794
G01 X16.8546 Y54.3840
G01 X16.9146 Y54.2846
G01 X16.9686 Y54.1817
G01 X17.0162 Y54.0758
G01 X17.0574 Y53.9672
G01 X17.0920 Y53.8563
G01 X17.1199 Y53.7434
G01 X17.1407 Y53.6293
G01 X17.1545 Y53.5159
G01 X17.1618 Y53.3954
G01 X17.1618 Y53.2819
G01 X17.1548 Y53.1667
G01 X17.1407 Y53.0507
G01 X17.1199 Y52.9366
G01 X17.0920 Y52.8237
G01 X17.0575 Y52.7129
G01 X17.0163 Y52.6043
G01 X16.9686 Y52.4983
G01 X16.9146 Y52.3954
G01 X16.8546 Y52.2960
G01 X16.7886 Y52.2005
G01 X16.7170 Y52.1091
G01 X16.6399 Y52.0222
G01 X16.5578 Y51.9400
G01 X16.4708 Y51.8631
G01 X16.3794 Y51.7913
G01 X16.2839 Y51.7254
G01 X16.1845 Y51.6653
G01 X16.0816 Y51.6114
G01 X15.9757 Y51.5637
G01 X15.8671 Y51.5225
G01 X15.7563 Y51.4880
G01 X15.6436 Y51.4602
G01 X15.5276 Y51.4391
G01 X15.4131 Y51.4252
G01 X15.2980 Y51.4182
G01 X15.1820 Y51.4182
G01 X15.0667 Y51.4252
G01 X14.9507 Y51.4393
G01 X14.8366 Y51.4601
G01 X14.7237 Y51.4880
G01 X14.6129 Y51.5225
G01 X14.5043 Y51.5637
G01 X14.3983 Y51.6114
G01 X14.2949 Y51.6657
G01 X14.1960 Y51.7254
G01 X14.1005 Y51.7914
G01 X14.0092 Y51.8631
G01 X13.9221 Y51.9401
G01 X13.8400 Y52.0222
G01 X13.7631 Y52.1092
G01 X13.6913 Y52.2006
G01 X13.6254 Y52.2961
G01 X13.5653 Y52.3955
G01 X13.5114 Y52.4984
G01 X13.4637 Y52.6043
G01 X13.4225 Y52.7129
G01 X13.3880 Y52.8237
G01 X13.3602 Y52.9364
G01 X13.3393 Y53.0507
G01 X13.3253 Y53.1660
G01 X13.3182 Y53.2819
G00 X13.3182 Y53.2819
G01 F20.00
G01 Z-1.2000
G01 F20.00
G01 X13.3182 Y53.3980
G01 X13.3253 Y53.5139
G01 X13.3393 Y53.6293
G01 X13.3601 Y53.7434
G01 X13.3880 Y53.8563
G01 X13.4225 Y53.9671
G01 X13.4637 Y54.0757
G01 X13.5114 Y54.1817
G01 X13.5654 Y54.2846
G01 X13.6254 Y54.3840
G01 X13.6914 Y54.4795
G01 X13.7631 Y54.5708
G01 X13.8401 Y54.6579
G01 X13.9218 Y54.7395
G01 X14.0091 Y54.8170
G01 X14.1006 Y54.8887
G01 X14.1961 Y54.9546
G01 X14.2950 Y55.0143
G01 X14.3984 Y55.0686
G01 X14.5043 Y55.1163
G01 X14.6129 Y55.1575
G01 X14.7237 Y55.1920
G01 X14.8364 Y55.2198
G01 X14.9524 Y55.2409
G01 X15.0669 Y55.2548
G01 X15.1820 Y55.2618
G01 X15.2980 Y55.2618
G01 X15.4133 Y55.2548
G01 X15.5293 Y55.2407
G01 X15.6434 Y55.2199
G01 X15.7563 Y55.1920
G01 X15.8671 Y55.1575
G01 X15.9757 Y55.1163
G01 X16.0817 Y55.0686
G01 X16.1846 Y55.0146
G01 X16.2840 Y54.9546
G01 X16.3795 Y54.8886
G01 X16.4709 Y54.8170
G01 X16.5578 Y54.7399
G01 X16.6400 Y54.6577
G01 X16.7171 Y54.5708
G01 X16.7887 Y54.4794
G01 X16.8546 Y54.3840
G01 X16.9146 Y54.2846
G01 X16.9686 Y54.1817
G01 X17.0162 Y54.0758
G01 X17.0574 Y53.9672
G01 X17.0920 Y53.8563
G01 X17.1199 Y53.7434
G01 X17.1407 Y53.6293
G01 X17.1545 Y53.5159
G01 X17.1618 Y53.3954
G01 X17.1618 Y53.2819
G01 X17.1548 Y53.1667
G01 X17.1407 Y53.0507
G01 X17.1199 Y52.9366
G01 X17.0920 Y52.8237
G01 X17.0575 Y52.7129
G01 X17.0163 Y52.6043
G01 X16.9686 Y52.4983
G01 X16.9146 Y52.3954
G01 X16.8546 Y52.2960
G01 X16.7886 Y52.2005
G01 X16.7170 Y52.1091
G01 X16.6399 Y52.0222
G01 X16.5578 Y51.9400
G01 X16.4708 Y51.8631
G01 X16.3794 Y51.7913
G01 X16.2839 Y51.7254
G01 X16.1845 Y51.6653
G01 X16.0816 Y51.6114
G01 X15.9757 Y51.5637
G01 X15.8671 Y51.5225
G01 X15.7563 Y51.4880
G01 X15.6436 Y51.4602
G01 X15.5276 Y51.4391
G01 X15.4131 Y51.4252
G01 X15.2980 Y51.4182
G01 X15.1820 Y51.4182
G01 X15.0667 Y51.4252
G01 X14.9507 Y51.4393
G01 X14.8366 Y51.4601
G01 X14.7237 Y51.4880
G01 X14.6129 Y51.5225
G01 X14.5043 Y51.5637
G01 X14.3983 Y51.6114
G01 X14.2949 Y51.6657
G01 X14.1960 Y51.7254
G01 X14.1005 Y51.7914
G01 X14.0092 Y51.8631
G01 X13.9221 Y51.9401
G01 X13.8400 Y52.0222
G01 X13.7631 Y52.1092
G01 X13.6913 Y52.2006
G01 X13.6254 Y52.2961
G01 X13.5653 Y52.3955
G01 X13.5114 Y52.4984
G01 X13.4637 Y52.6043
G01 X13.4225 Y52.7129
G01 X13.3880 Y52.8237
G01 X13.3602 Y52.9364
G01 X13.3393 Y53.0507
G01 X13.3253 Y53.1660
G01 X13.3182 Y53.2819
G00 X13.3182 Y53.2819
G01 F20.00
G01 Z-1.6000
G01 F20.00
G01 X13.3182 Y53.3980
G01 X13.3253 Y53.5139
G01 X13.3393 Y53.6293
G01 X13.3601 Y53.7434
G01 X13.3880 Y53.8563
G01 X13.4225 Y53.9671
G01 X13.4637 Y54.0757
G01 X13.5114 Y54.1817
G01 X13.5654 Y54.2846
G01 X13.6254 Y54.3840
G01 X13.6914 Y54.4795
G01 X13.7631 Y54.5708
G01 X13.8401 Y54.6579
G01 X13.9218 Y54.7395
G01 X14.0091 Y54.8170
G01 X14.1006 Y54.8887
G01 X14.1961 Y54.9546
G01 X14.2950 Y55.0143
G01 X14.3984 Y55.0686
G01 X14.5043 Y55.1163
G01 X14.6129 Y55.1575
G01 X14.7237 Y55.1920
G01 X14.8364 Y55.2198
G01 X14.9524 Y55.2409
G01 X15.0669 Y55.2548
G01 X15.1820 Y55.2618
G01 X15.2980 Y55.2618
G01 X15.4133 Y55.2548
G01 X15.5293 Y55.2407
G01 X15.6434 Y55.2199
G01 X15.7563 Y55.1920
G01 X15.8671 Y55.1575
G01 X15.9757 Y55.1163
G01 X16.0817 Y55.0686
G01 X16.1846 Y55.0146
G01 X16.2840 Y54.9546
G01 X16.3795 Y54.8886
G01 X16.4709 Y54.8170
G01 X16.5578 Y54.7399
G01 X16.6400 Y54.6577
G01 X16.7171 Y54.5708
G01 X16.7887 Y54.4794
G01 X16.8546 Y54.3840
G01 X16.9146 Y54.2846
G01 X16.9686 Y54.1817
G01 X17.0162 Y54.0758
G01 X17.0574 Y53.9672
G01 X17.0920 Y53.8563
G01 X17.1199 Y53.7434
G01 X17.1407 Y53.6293
G01 X17.1545 Y53.5159
G01 X17.1618 Y53.3954
G01 X17.1618 Y53.2819
G01 X17.1548 Y53.1667
G01 X17.1407 Y53.0507
G01 X17.1199 Y52.9366
G01 X17.0920 Y52.8237
G01 X17.0575 Y52.7129
G01 X17.0163 Y52.6043
G01 X16.9686 Y52.4983
G01 X16.9146 Y52.3954
G01 X16.8546 Y52.2960
G01 X16.7886 Y52.2005
G01 X16.7170 Y52.1091
G01 X16.6399 Y52.0222
G01 X16.5578 Y51.9400
G01 X16.4708 Y51.8631
G01 X16.3794 Y51.7913
G01 X16.2839 Y51.7254
G01 X16.1845 Y51.6653
G01 X16.0816 Y51.6114
G01 X15.9757 Y51.5637
G01 X15.8671 Y51.5225
G01 X15.7563 Y51.4880
G01 X15.6436 Y51.4602
G01 X15.5276 Y51.4391
G01 X15.4131 Y51.4252
G01 X15.2980 Y51.4182
G01 X15.1820 Y51.4182
G01 X15.0667 Y51.4252
G01 X14.9507 Y51.4393
G01 X14.8366 Y51.4601
G01 X14.7237 Y51.4880
G01 X14.6129 Y51.5225
G01 X14.5043 Y51.5637
G01 X14.3983 Y51.6114
G01 X14.2949 Y51.6657
G01 X14.1960 Y51.7254
G01 X14.1005 Y51.7914
G01 X14.0092 Y51.8631
G01 X13.9221 Y51.9401
G01 X13.8400 Y52.0222
G01 X13.7631 Y52.1092
G01 X13.6913 Y52.2006
G01 X13.6254 Y52.2961
G01 X13.5653 Y52.3955
G01 X13.5114 Y52.4984
G01 X13.4637 Y52.6043
G01 X13.4225 Y52.7129
G01 X13.3880 Y52.8237
G01 X13.3602 Y52.9364
G01 X13.3393 Y53.0507
G01 X13.3253 Y53.1660
G01 X13.3182 Y53.2819
G00 Z1.0000
G00 X13.3182 Y73.6019
G01 F20.00
G01 Z-0.4000
G01 F20.00
G01 X13.3182 Y73.7180
G01 X13.3253 Y73.8339
G01 X13.3393 Y73.9493
G01 X13.3601 Y74.0634
G01 X13.3880 Y74.1763
G01 X13.4225 Y74.2871
G01 X13.4637 Y74.3957
G01 X13.5114 Y74.5017
G01 X13.5656 Y74.6049
G01 X13.6254 Y74.7040
G01 X13.6914 Y74.7995
G01 X13.7631 Y74.8908
G01 X13.8401 Y74.9779
G01 X13.9222 Y75.0599
G01 X14.0091 Y75.1370
G01 X14.1006 Y75.2087
G01 X14.1961 Y75.2746
G01 X14.2949 Y75.3343
G01 X14.3984 Y75.3886
G01 X14.5043 Y75.4363
G01 X14.6129 Y75.4775
G01 X14.7237 Y75.5120
G01 X14.8364 Y75.5398
G01 X14.9507 Y75.5607
G01 X15.0654 Y75.5746
G01 X15.1820 Y75.5818
G01 X15.2981 Y75.5818
G01 X15.4148 Y75.5746
G01 X15.5293 Y75.5607
G01 X15.6434 Y75.5399
G01 X15.7563 Y75.5120
G01 X15.8671 Y75.4775
G01 X15.9757 Y75.4363
G01 X16.0817 Y75.3886
G01 X16.1852 Y75.3342
G01 X16.2840 Y75.2746
G01 X16.3795 Y75.2086
G01 X16.4709 Y75.1370
G01 X16.5578 Y75.0599
G01 X16.6399 Y74.9778
G01 X16.7171 Y74.8908
G01 X16.7887 Y74.7994
G01 X16.8546 Y74.7040
G01 X16.9146 Y74.6046
G01 X16.9686 Y74.5017
G01 X17.0162 Y74.3958
G01 X17.0574 Y74.2872
G01 X17.0920 Y74.1763
G01 X17.1199 Y74.0634
G01 X17.1407 Y73.9493
G01 X17.1547 Y73.8340
G01 X17.1618 Y73.7154
G01 X17.1618 Y73.6019
G01 X17.1547 Y73.4860
G01 X17.1407 Y73.3707
G01 X17.1199 Y73.2566
G01 X17.0920 Y73.1437
G01 X17.0575 Y73.0329
G01 X17.0163 Y72.9243
G01 X16.9686 Y72.8183
G01 X16.9146 Y72.7154
G01 X16.8546 Y72.6160
G01 X16.7887 Y72.5206
G01 X16.7171 Y72.4292
G01 X16.6393 Y72.3416
G01 X16.5578 Y72.2600
G01 X16.4708 Y72.1831
G01 X16.3795 Y72.1114
G01 X16.2840 Y72.0454
G01 X16.1851 Y71.9857
G01 X16.0817 Y71.9314
G01 X15.9758 Y71.8838
G01 X15.8672 Y71.8426
G01 X15.7563 Y71.8080
G01 X15.6436 Y71.7802
G01 X15.5293 Y71.7593
G01 X15.4146 Y71.7454
G01 X15.2980 Y71.7382
G01 X15.1819 Y71.7382
G01 X15.0652 Y71.7454
G01 X14.9507 Y71.7593
G01 X14.8366 Y71.7801
G01 X14.7237 Y71.8080
G01 X14.6129 Y71.8425
G01 X14.5043 Y71.8837
G01 X14.3983 Y71.9314
G01 X14.2948 Y71.9858
G01 X14.1960 Y72.0454
G01 X14.1005 Y72.1114
G01 X14.0092 Y72.1831
G01 X13.9221 Y72.2601
G01 X13.8400 Y72.3422
G01 X13.7631 Y72.4292
G01 X13.6913 Y72.5206
G01 X13.6254 Y72.6161
G01 X13.5652 Y72.7159
G01 X13.5114 Y72.8184
G01 X13.4637 Y72.9243
G01 X13.4225 Y73.0329
G01 X13.3880 Y73.1437
G01 X13.3602 Y73.2564
G01 X13.3393 Y73.3707
G01 X13.3253 Y73.4860
G01 X13.3182 Y73.6019
G00 X13.3182 Y73.6019
G01 F20.00
G01 Z-0.8000
G01 F20.00
G01 X13.3182 Y73.7180
G01 X13.3253 Y73.8339
G01 X13.3393 Y73.9493
G01 X13.3601 Y74.0634
G01 X13.3880 Y74.1763
G01 X13.4225 Y74.2871
G01 X13.4637 Y74.3957
G01 X13.5114 Y74.5017
G01 X13.5656 Y74.6049
G01 X13.6254 Y74.7040
G01 X13.6914 Y74.7995
G01 X13.7631 Y74.8908
G01 X13.8401 Y74.9779
G01 X13.9222 Y75.0599
G01 X14.0091 Y75.1370
G01 X14.1006 Y75.2087
G01 X14.1961 Y75.2746
G01 X14.2949 Y75.3343
G01 X14.3984 Y75.3886
G01 X14.5043 Y75.4363
G01 X14.6129 Y75.4775
G01 X14.7237 Y75.5120
G01 X14.8364 Y75.5398
G01 X14.9507 Y75.5607
G01 X15.0654 Y75.5746
G01 X15.1820 Y75.5818
G01 X15.2981 Y75.5818
G01 X15.4148 Y75.5746
G01 X15.5293 Y75.5607
G01 X15.6434 Y75.5399
G01 X15.7563 Y75.5120
G01 X15.8671 Y75.4775
G01 X15.9757 Y75.4363
G01 X16.0817 Y75.3886
G01 X16.1852 Y75.3342
G01 X16.2840 Y75.2746
G01 X16.3795 Y75.2086
G01 X16.4709 Y75.1370
G01 X16.5578 Y75.0599
G01 X16.6399 Y74.9778
G01 X16.7171 Y74.8908
G01 X16.7887 Y74.7994
G01 X16.8546 Y74.7040
G01 X16.9146 Y74.6046
G01 X16.9686 Y74.5017
G01 X17.0162 Y74.3958
G01 X17.0574 Y74.2872
G01 X17.0920 Y74.1763
G01 X17.1199 Y74.0634
G01 X17.1407 Y73.9493
G01 X17.1547 Y73.8340
G01 X17.1618 Y73.7154
G01 X17.1618 Y73.6019
G01 X17.1547 Y73.4860
G01 X17.1407 Y73.3707
G01 X17.1199 Y73.2566
G01 X17.0920 Y73.1437
G01 X17.0575 Y73.0329
G01 X17.0163 Y72.9243
G01 X16.9686 Y72.8183
G01 X16.9146 Y72.7154
G01 X16.8546 Y72.6160
G01 X16.7887 Y72.5206
G01 X16.7171 Y72.4292
G01 X16.6393 Y72.3416
G01 X16.5578 Y72.2600
G01 X16.4708 Y72.1831
G01 X16.3795 Y72.1114
G01 X16.2840 Y72.0454
G01 X16.1851 Y71.9857
G01 X16.0817 Y71.9314
G01 X15.9758 Y71.8838
G01 X15.8672 Y71.8426
G01 X15.7563 Y71.8080
G01 X15.6436 Y71.7802
G01 X15.5293 Y71.7593
G01 X15.4146 Y71.7454
G01 X15.2980 Y71.7382
G01 X15.1819 Y71.7382
G01 X15.0652 Y71.7454
G01 X14.9507 Y71.7593
G01 X14.8366 Y71.7801
G01 X14.7237 Y71.8080
G01 X14.6129 Y71.8425
G01 X14.5043 Y71.8837
G01 X14.3983 Y71.9314
G01 X14.2948 Y71.9858
G01 X14.1960 Y72.0454
G01 X14.1005 Y72.1114
G01 X14.0092 Y72.1831
G01 X13.9221 Y72.2601
G01 X13.8400 Y72.3422
G01 X13.7631 Y72.4292
G01 X13.6913 Y72.5206
G01 X13.6254 Y72.6161
G01 X13.5652 Y72.7159
G01 X13.5114 Y72.8184
G01 X13.4637 Y72.9243
G01 X13.4225 Y73.0329
G01 X13.3880 Y73.1437
G01 X13.3602 Y73.2564
G01 X13.3393 Y73.3707
G01 X13.3253 Y73.4860
G01 X13.3182 Y73.6019
G00 X13.3182 Y73.6019
G01 F20.00
G01 Z-1.2000
G01 F20.00
G01 X13.3182 Y73.7180
G01 X13.3253 Y73.8339
G01 X13.3393 Y73.9493
G01 X13.3601 Y74.0634
G01 X13.3880 Y74.1763
G01 X13.4225 Y74.2871
G01 X13.4637 Y74.3957
G01 X13.5114 Y74.5017
G01 X13.5656 Y74.6049
G01 X13.6254 Y74.7040
G01 X13.6914 Y74.7995
G01 X13.7631 Y74.8908
G01 X13.8401 Y74.9779
G01 X13.9222 Y75.0599
G01 X14.0091 Y75.1370
G01 X14.1006 Y75.2087
G01 X14.1961 Y75.2746
G01 X14.2949 Y75.3343
G01 X14.3984 Y75.3886
G01 X14.5043 Y75.4363
G01 X14.6129 Y75.4775
G01 X14.7237 Y75.5120
G01 X14.8364 Y75.5398
G01 X14.9507 Y75.5607
G01 X15.0654 Y75.5746
G01 X15.1820 Y75.5818
G01 X15.2981 Y75.5818
G01 X15.4148 Y75.5746
G01 X15.5293 Y75.5607
G01 X15.6434 Y75.5399
G01 X15.7563 Y75.5120
G01 X15.8671 Y75.4775
G01 X15.9757 Y75.4363
G01 X16.0817 Y75.3886
G01 X16.1852 Y75.3342
G01 X16.2840 Y75.2746
G01 X16.3795 Y75.2086
G01 X16.4709 Y75.1370
G01 X16.5578 Y75.0599
G01 X16.6399 Y74.9778
G01 X16.7171 Y74.8908
G01 X16.7887 Y74.7994
G01 X16.8546 Y74.7040
G01 X16.9146 Y74.6046
G01 X16.9686 Y74.5017
G01 X17.0162 Y74.3958
G01 X17.0574 Y74.2872
G01 X17.0920 Y74.1763
G01 X17.1199 Y74.0634
G01 X17.1407 Y73.9493
G01 X17.1547 Y73.8340
G01 X17.1618 Y73.7154
G01 X17.1618 Y73.6019
G01 X17.1547 Y73.4860
G01 X17.1407 Y73.3707
G01 X17.1199 Y73.2566
G01 X17.0920 Y73.1437
G01 X17.0575 Y73.0329
G01 X17.0163 Y72.9243
G01 X16.9686 Y72.8183
G01 X16.9146 Y72.7154
G01 X16.8546 Y72.6160
G01 X16.7887 Y72.5206
G01 X16.7171 Y72.4292
G01 X16.6393 Y72.3416
G01 X16.5578 Y72.2600
G01 X16.4708 Y72.1831
G01 X16.3795 Y72.1114
G01 X16.2840 Y72.0454
G01 X16.1851 Y71.9857
G01 X16.0817 Y71.9314
G01 X15.9758 Y71.8838
G01 X15.8672 Y71.8426
G01 X15.7563 Y71.8080
G01 X15.6436 Y71.7802
G01 X15.5293 Y71.7593
G01 X15.4146 Y71.7454
G01 X15.2980 Y71.7382
G01 X15.1819 Y71.7382
G01 X15.0652 Y71.7454
G01 X14.9507 Y71.7593
G01 X14.8366 Y71.7801
G01 X14.7237 Y71.8080
G01 X14.6129 Y71.8425
G01 X14.5043 Y71.8837
G01 X14.3983 Y71.9314
G01 X14.2948 Y71.9858
G01 X14.1960 Y72.0454
G01 X14.1005 Y72.1114
G01 X14.0092 Y72.1831
G01 X13.9221 Y72.2601
G01 X13.8400 Y72.3422
G01 X13.7631 Y72.4292
G01 X13.6913 Y72.5206
G01 X13.6254 Y72.6161
G01 X13.5652 Y72.7159
G01 X13.5114 Y72.8184
G01 X13.4637 Y72.9243
G01 X13.4225 Y73.0329
G01 X13.3880 Y73.1437
G01 X13.3602 Y73.2564
G01 X13.3393 Y73.3707
G01 X13.3253 Y73.4860
G01 X13.3182 Y73.6019
G00 X13.3182 Y73.6019
G01 F20.00
G01 Z-1.6000
G01 F20.00
G01 X13.3182 Y73.7180
G01 X13.3253 Y73.8339
G01 X13.3393 Y73.9493
G01 X13.3601 Y74.0634
G01 X13.3880 Y74.1763
G01 X13.4225 Y74.2871
G01 X13.4637 Y74.3957
G01 X13.5114 Y74.5017
G01 X13.5656 Y74.6049
G01 X13.6254 Y74.7040
G01 X13.6914 Y74.7995
G01 X13.7631 Y74.8908
G01 X13.8401 Y74.9779
G01 X13.9222 Y75.0599
G01 X14.0091 Y75.1370
G01 X14.1006 Y75.2087
G01 X14.1961 Y75.2746
G01 X14.2949 Y75.3343
G01 X14.3984 Y75.3886
G01 X14.5043 Y75.4363
G01 X14.6129 Y75.4775
G01 X14.7237 Y75.5120
G01 X14.8364 Y75.5398
G01 X14.9507 Y75.5607
G01 X15.0654 Y75.5746
G01 X15.1820 Y75.5818
G01 X15.2981 Y75.5818
G01 X15.4148 Y75.5746
G01 X15.5293 Y75.5607
G01 X15.6434 Y75.5399
G01 X15.7563 Y75.5120
G01 X15.8671 Y75.4775
G01 X15.9757 Y75.4363
G01 X16.0817 Y75.3886
G01 X16.1852 Y75.3342
G01 X16.2840 Y75.2746
G01 X16.3795 Y75.2086
G01 X16.4709 Y75.1370
G01 X16.5578 Y75.0599
G01 X16.6399 Y74.9778
G01 X16.7171 Y74.8908
G01 X16.7887 Y74.7994
G01 X16.8546 Y74.7040
G01 X16.9146 Y74.6046
G01 X16.9686 Y74.5017
G01 X17.0162 Y74.3958
G01 X17.0574 Y74.2872
G01 X17.0920 Y74.1763
G01 X17.1199 Y74.0634
G01 X17.1407 Y73.9493
G01 X17.1547 Y73.8340
G01 X17.1618 Y73.7154
G01 X17.1618 Y73.6019
G01 X17.1547 Y73.4860
G01 X17.1407 Y73.3707
G01 X17.1199 Y73.2566
G01 X17.0920 Y73.1437
G01 X17.0575 Y73.0329
G01 X17.0163 Y72.9243
G01 X16.9686 Y72.8183
G01 X16.9146 Y72.7154
G01 X16.8546 Y72.6160
G01 X16.7887 Y72.5206
G01 X16.7171 Y72.4292
G01 X16.6393 Y72.3416
G01 X16.5578 Y72.2600
G01 X16.4708 Y72.1831
G01 X16.3795 Y72.1114
G01 X16.2840 Y72.0454
G01 X16.1851 Y71.9857
G01 X16.0817 Y71.9314
G01 X15.9758 Y71.8838
G01 X15.8672 Y71.8426
G01 X15.7563 Y71.8080
G01 X15.6436 Y71.7802
G01 X15.5293 Y71.7593
G01 X15.4146 Y71.7454
G01 X15.2980 Y71.7382
G01 X15.1819 Y71.7382
G01 X15.0652 Y71.7454
G01 X14.9507 Y71.7593
G01 X14.8366 Y71.7801
G01 X14.7237 Y71.8080
G01 X14.6129 Y71.8425
G01 X14.5043 Y71.8837
G01 X14.3983 Y71.9314
G01 X14.2948 Y71.9858
G01 X14.1960 Y72.0454
G01 X14.1005 Y72.1114
G01 X14.0092 Y72.1831
G01 X13.9221 Y72.2601
G01 X13.8400 Y72.3422
G01 X13.7631 Y72.4292
G01 X13.6913 Y72.5206
G01 X13.6254 Y72.6161
G01 X13.5652 Y72.7159
G01 X13.5114 Y72.8184
G01 X13.4637 Y72.9243
G01 X13.4225 Y73.0329
G01 X13.3880 Y73.1437
G01 X13.3602 Y73.2564
G01 X13.3393 Y73.3707
G01 X13.3253 Y73.4860
G01 X13.3182 Y73.6019
G00 Z1.0000
G00 X13.3182 Y93.9219
G01 F20.00
G01 Z-0.4000
G01 F20.00
G01 X13.3182 Y94.0380
G01 X13.3253 Y94.1539
G01 X13.3393 Y94.2693
G01 X13.3601 Y94.3834
G01 X13.3880 Y94.4963
G01 X13.4225 Y94.6071
G01 X13.4637 Y94.7157
G01 X13.5114 Y94.8217
G01 X13.5656 Y94.9249
G01 X13.6254 Y95.0240
G01 X13.6914 Y95.1195
G01 X13.7631 Y95.2108
G01 X13.8401 Y95.2979
G01 X13.9222 Y95.3799
G01 X14.0091 Y95.4570
G01 X14.1006 Y95.5287
G01 X14.1961 Y95.5946
G01 X14.2949 Y95.6543
G01 X14.3984 Y95.7086
G01 X14.5043 Y95.7563
G01 X14.6129 Y95.7975
G01 X14.7237 Y95.8320
G01 X14.8364 Y95.8598
G01 X14.9507 Y95.8807
G01 X15.0654 Y95.8946
G01 X15.1820 Y95.9018
G01 X15.2981 Y95.9018
G01 X15.4148 Y95.8946
G01 X15.5293 Y95.8807
G01 X15.6434 Y95.8599
G01 X15.7563 Y95.8320
G01 X15.8671 Y95.7975
G01 X15.9757 Y95.7563
G01 X16.0817 Y95.7086
G01 X16.1852 Y95.6542
G01 X16.2840 Y95.5946
G01 X16.3795 Y95.5286
G01 X16.4709 Y95.4570
G01 X16.5578 Y95.3799
G01 X16.6399 Y95.2978
G01 X16.7171 Y95.2108
G01 X16.7887 Y95.1194
G01 X16.8546 Y95.0240
G01 X16.9146 Y94.9246
G01 X16.9686 Y94.8217
G01 X17.0162 Y94.7158
G01 X17.0574 Y94.6072
G01 X17.0920 Y94.4963
G01 X17.1199 Y94.3834
G01 X17.1407 Y94.2693
G01 X17.1547 Y94.1540
G01 X17.1618 Y94.0354
G01 X17.1618 Y93.9219
G01 X17.1547 Y93.8060
G01 X17.1407 Y93.6907
G01 X17.1199 Y93.5766
G01 X17.0920 Y93.4637
G01 X17.0575 Y93.3529
G01 X17.0163 Y93.2443
G01 X16.9686 Y93.1383
G01 X16.9146 Y93.0354
G01 X16.8546 Y92.9360
G01 X16.7887 Y92.8406
G01 X16.7171 Y92.7492
G01 X16.6393 Y92.6616
G01 X16.5578 Y92.5800
G01 X16.4708 Y92.5031
G01 X16.3795 Y92.4314
G01 X16.2840 Y92.3654
G01 X16.1851 Y92.3057
G01 X16.0817 Y92.2514
G01 X15.9758 Y92.2038
G01 X15.8672 Y92.1626
G01 X15.7563 Y92.1280
G01 X15.6436 Y92.1002
G01 X15.5293 Y92.0793
G01 X15.4146 Y92.0654
G01 X15.2980 Y92.0582
G01 X15.1819 Y92.0582
G01 X15.0652 Y92.0654
G01 X14.9507 Y92.0793
G01 X14.8366 Y92.1001
G01 X14.7237 Y92.1280
G01 X14.6129 Y92.1625
G01 X14.5043 Y92.2037
G01 X14.3983 Y92.2514
G01 X14.2948 Y92.3058
G01 X14.1960 Y92.3654
G01 X14.1005 Y92.4314
G01 X14.0092 Y92.5031
G01 X13.9221 Y92.5801
G01 X13.8400 Y92.6622
G01 X13.7631 Y92.7492
G01 X13.6913 Y92.8406
G01 X13.6254 Y92.9361
G01 X13.5652 Y93.0359
G01 X13.5114 Y93.1384
G01 X13.4637 Y93.2443
G01 X13.4225 Y93.3529
G01 X13.3880 Y93.4637
G01 X13.3602 Y93.5764
G01 X13.3393 Y93.6907
G01 X13.3253 Y93.8060
G01 X13.3182 Y93.9219
G00 X13.3182 Y93.9219
G01 F20.00
G01 Z-0.8000
G01 F20.00
G01 X13.3182 Y94.0380
G01 X13.3253 Y94.1539
G01 X13.3393 Y94.2693
G01 X13.3601 Y94.3834
G01 X13.3880 Y94.4963
G01 X13.4225 Y94.6071
G01 X13.4637 Y94.7157
G01 X13.5114 Y94.8217
G01 X13.5656 Y94.9249
G01 X13.6254 Y95.0240
G01 X13.6914 Y95.1195
G01 X13.7631 Y95.2108
G01 X13.8401 Y95.2979
G01 X13.9222 Y95.3799
G01 X14.0091 Y95.4570
G01 X14.1006 Y95.5287
G01 X14.1961 Y95.5946
G01 X14.2949 Y95.6543
G01 X14.3984 Y95.7086
G01 X14.5043 Y95.7563
G01 X14.6129 Y95.7975
G01 X14.7237 Y95.8320
G01 X14.8364 Y95.8598
G01 X14.9507 Y95.8807
G01 X15.0654 Y95.8946
G01 X15.1820 Y95.9018
G01 X15.2981 Y95.9018
G01 X15.4148 Y95.8946
G01 X15.5293 Y95.8807
G01 X15.6434 Y95.8599
G01 X15.7563 Y95.8320
G01 X15.8671 Y95.7975
G01 X15.9757 Y95.7563
G01 X16.0817 Y95.7086
G01 X16.1852 Y95.6542
G01 X16.2840 Y95.5946
G01 X16.3795 Y95.5286
G01 X16.4709 Y95.4570
G01 X16.5578 Y95.3799
G01 X16.6399 Y95.2978
G01 X16.7171 Y95.2108
G01 X16.7887 Y95.1194
G01 X16.8546 Y95.0240
G01 X16.9146 Y94.9246
G01 X16.9686 Y94.8217
G01 X17.0162 Y94.7158
G01 X17.0574 Y94.6072
G01 X17.0920 Y94.4963
G01 X17.1199 Y94.3834
G01 X17.1407 Y94.2693
G01 X17.1547 Y94.1540
G01 X17.1618 Y94.0354
G01 X17.1618 Y93.9219
G01 X17.1547 Y93.8060
G01 X17.1407 Y93.6907
G01 X17.1199 Y93.5766
G01 X17.0920 Y93.4637
G01 X17.0575 Y93.3529
G01 X17.0163 Y93.2443
G01 X16.9686 Y93.1383
G01 X16.9146 Y93.0354
G01 X16.8546 Y92.9360
G01 X16.7887 Y92.8406
G01 X16.7171 Y92.7492
G01 X16.6393 Y92.6616
G01 X16.5578 Y92.5800
G01 X16.4708 Y92.5031
G01 X16.3795 Y92.4314
G01 X16.2840 Y92.3654
G01 X16.1851 Y92.3057
G01 X16.0817 Y92.2514
G01 X15.9758 Y92.2038
G01 X15.8672 Y92.1626
G01 X15.7563 Y92.1280
G01 X15.6436 Y92.1002
G01 X15.5293 Y92.0793
G01 X15.4146 Y92.0654
G01 X15.2980 Y92.0582
G01 X15.1819 Y92.0582
G01 X15.0652 Y92.0654
G01 X14.9507 Y92.0793
G01 X14.8366 Y92.1001
G01 X14.7237 Y92.1280
G01 X14.6129 Y92.1625
G01 X14.5043 Y92.2037
G01 X14.3983 Y92.2514
G01 X14.2948 Y92.3058
G01 X14.1960 Y92.3654
G01 X14.1005 Y92.4314
G01 X14.0092 Y92.5031
G01 X13.9221 Y92.5801
G01 X13.8400 Y92.6622
G01 X13.7631 Y92.7492
G01 X13.6913 Y92.8406
G01 X13.6254 Y92.9361
G01 X13.5652 Y93.0359
G01 X13.5114 Y93.1384
G01 X13.4637 Y93.2443
G01 X13.4225 Y93.3529
G01 X13.3880 Y93.4637
G01 X13.3602 Y93.5764
G01 X13.3393 Y93.6907
G01 X13.3253 Y93.8060
G01 X13.3182 Y93.9219
G00 X13.3182 Y93.9219
G01 F20.00
G01 Z-1.2000
G01 F20.00
G01 X13.3182 Y94.0380
G01 X13.3253 Y94.1539
G01 X13.3393 Y94.2693
G01 X13.3601 Y94.3834
G01 X13.3880 Y94.4963
G01 X13.4225 Y94.6071
G01 X13.4637 Y94.7157
G01 X13.5114 Y94.8217
G01 X13.5656 Y94.9249
G01 X13.6254 Y95.0240
G01 X13.6914 Y95.1195
G01 X13.7631 Y95.2108
G01 X13.8401 Y95.2979
G01 X13.9222 Y95.3799
G01 X14.0091 Y95.4570
G01 X14.1006 Y95.5287
G01 X14.1961 Y95.5946
G01 X14.2949 Y95.6543
G01 X14.3984 Y95.7086
G01 X14.5043 Y95.7563
G01 X14.6129 Y95.7975
G01 X14.7237 Y95.8320
G01 X14.8364 Y95.8598
G01 X14.9507 Y95.8807
G01 X15.0654 Y95.8946
G01 X15.1820 Y95.9018
G01 X15.2981 Y95.9018
G01 X15.4148 Y95.8946
G01 X15.5293 Y95.8807
G01 X15.6434 Y95.8599
G01 X15.7563 Y95.8320
G01 X15.8671 Y95.7975
G01 X15.9757 Y95.7563
G01 X16.0817 Y95.7086
G01 X16.1852 Y95.6542
G01 X16.2840 Y95.5946
G01 X16.3795 Y95.5286
G01 X16.4709 Y95.4570
G01 X16.5578 Y95.3799
G01 X16.6399 Y95.2978
G01 X16.7171 Y95.2108
G01 X16.7887 Y95.1194
G01 X16.8546 Y95.0240
G01 X16.9146 Y94.9246
G01 X16.9686 Y94.8217
G01 X17.0162 Y94.7158
G01 X17.0574 Y94.6072
G01 X17.0920 Y94.4963
G01 X17.1199 Y94.3834
G01 X17.1407 Y94.2693
G01 X17.1547 Y94.1540
G01 X17.1618 Y94.0354
G01 X17.1618 Y93.9219
G01 X17.1547 Y93.8060
G01 X17.1407 Y93.6907
G01 X17.1199 Y93.5766
G01 X17.0920 Y93.4637
G01 X17.0575 Y93.3529
G01 X17.0163 Y93.2443
G01 X16.9686 Y93.1383
G01 X16.9146 Y93.0354
G01 X16.8546 Y92.9360
G01 X16.7887 Y92.8406
G01 X16.7171 Y92.7492
G01 X16.6393 Y92.6616
G01 X16.5578 Y92.5800
G01 X16.4708 Y92.5031
G01 X16.3795 Y92.4314
G01 X16.2840 Y92.3654
G01 X16.1851 Y92.3057
G01 X16.0817 Y92.2514
G01 X15.9758 Y92.2038
G01 X15.8672 Y92.1626
G01 X15.7563 Y92.1280
G01 X15.6436 Y92.1002
G01 X15.5293 Y92.0793
G01 X15.4146 Y92.0654
G01 X15.2980 Y92.0582
G01 X15.1819 Y92.0582
G01 X15.0652 Y92.0654
G01 X14.9507 Y92.0793
G01 X14.8366 Y92.1001
G01 X14.7237 Y92.1280
G01 X14.6129 Y92.1625
G01 X14.5043 Y92.2037
G01 X14.3983 Y92.2514
G01 X14.2948 Y92.3058
G01 X14.1960 Y92.3654
G01 X14.1005 Y92.4314
G01 X14.0092 Y92.5031
G01 X13.9221 Y92.5801
G01 X13.8400 Y92.6622
G01 X13.7631 Y92.7492
G01 X13.6913 Y92.8406
G01 X13.6254 Y92.9361
G01 X13.5652 Y93.0359
G01 X13.5114 Y93.1384
G01 X13.4637 Y93.2443
G01 X13.4225 Y93.3529
G01 X13.3880 Y93.4637
G01 X13.3602 Y93.5764
G01 X13.3393 Y93.6907
G01 X13.3253 Y93.8060
G01 X13.3182 Y93.9219
G00 X13.3182 Y93.9219
G01 F20.00
G01 Z-1.6000
G01 F20.00
G01 X13.3182 Y94.0380
G01 X13.3253 Y94.1539
G01 X13.3393 Y94.2693
G01 X13.3601 Y94.3834
G01 X13.3880 Y94.4963
G01 X13.4225 Y94.6071
G01 X13.4637 Y94.7157
G01 X13.5114 Y94.8217
G01 X13.5656 Y94.9249
G01 X13.6254 Y95.0240
G01 X13.6914 Y95.1195
G01 X13.7631 Y95.2108
G01 X13.8401 Y95.2979
G01 X13.9222 Y95.3799
G01 X14.0091 Y95.4570
G01 X14.1006 Y95.5287
G01 X14.1961 Y95.5946
G01 X14.2949 Y95.6543
G01 X14.3984 Y95.7086
G01 X14.5043 Y95.7563
G01 X14.6129 Y95.7975
G01 X14.7237 Y95.8320
G01 X14.8364 Y95.8598
G01 X14.9507 Y95.8807
G01 X15.0654 Y95.8946
G01 X15.1820 Y95.9018
G01 X15.2981 Y95.9018
G01 X15.4148 Y95.8946
G01 X15.5293 Y95.8807
G01 X15.6434 Y95.8599
G01 X15.7563 Y95.8320
G01 X15.8671 Y95.7975
G01 X15.9757 Y95.7563
G01 X16.0817 Y95.7086
G01 X16.1852 Y95.6542
G01 X16.2840 Y95.5946
G01 X16.3795 Y95.5286
G01 X16.4709 Y95.4570
G01 X16.5578 Y95.3799
G01 X16.6399 Y95.2978
G01 X16.7171 Y95.2108
G01 X16.7887 Y95.1194
G01 X16.8546 Y95.0240
G01 X16.9146 Y94.9246
G01 X16.9686 Y94.8217
G01 X17.0162 Y94.7158
G01 X17.0574 Y94.6072
G01 X17.0920 Y94.4963
G01 X17.1199 Y94.3834
G01 X17.1407 Y94.2693
G01 X17.1547 Y94.1540
G01 X17.1618 Y94.0354
G01 X17.1618 Y93.9219
G01 X17.1547 Y93.8060
G01 X17.1407 Y93.6907
G01 X17.1199 Y93.5766
G01 X17.0920 Y93.4637
G01 X17.0575 Y93.3529
G01 X17.0163 Y93.2443
G01 X16.9686 Y93.1383
G01 X16.9146 Y93.0354
G01 X16.8546 Y92.9360
G01 X16.7887 Y92.8406
G01 X16.7171 Y92.7492
G01 X16.6393 Y92.6616
G01 X16.5578 Y92.5800
G01 X16.4708 Y92.5031
G01 X16.3795 Y92.4314
G01 X16.2840 Y92.3654
G01 X16.1851 Y92.3057
G01 X16.0817 Y92.2514
G01 X15.9758 Y92.2038
G01 X15.8672 Y92.1626
G01 X15.7563 Y92.1280
G01 X15.6436 Y92.1002
G01 X15.5293 Y92.0793
G01 X15.4146 Y92.0654
G01 X15.2980 Y92.0582
G01 X15.1819 Y92.0582
G01 X15.0652 Y92.0654
G01 X14.9507 Y92.0793
G01 X14.8366 Y92.1001
G01 X14.7237 Y92.1280
G01 X14.6129 Y92.1625
G01 X14.5043 Y92.2037
G01 X14.3983 Y92.2514
G01 X14.2948 Y92.3058
G01 X14.1960 Y92.3654
G01 X14.1005 Y92.4314
G01 X14.0092 Y92.5031
G01 X13.9221 Y92.5801
G01 X13.8400 Y92.6622
G01 X13.7631 Y92.7492
G01 X13.6913 Y92.8406
G01 X13.6254 Y92.9361
G01 X13.5652 Y93.0359
G01 X13.5114 Y93.1384
G01 X13.4637 Y93.2443
G01 X13.4225 Y93.3529
G01 X13.3880 Y93.4637
G01 X13.3602 Y93.5764
G01 X13.3393 Y93.6907
G01 X13.3253 Y93.8060
G01 X13.3182 Y93.9219
G00 Z1.0000
G00 X36.1782 Y93.9219
G01 F20.00
G01 Z-0.4000
G01 F20.00
G01 X36.1782 Y94.0380
G01 X36.1852 Y94.1533
G01 X36.1993 Y94.2693
G01 X36.2201 Y94.3834
G01 X36.2480 Y94.4963
G01 X36.2825 Y94.6071
G01 X36.3237 Y94.7157
G01 X36.3714 Y94.8217
G01 X36.4251 Y94.9240
G01 X36.4854 Y95.0240
G01 X36.5514 Y95.1195
G01 X36.6231 Y95.2108
G01 X36.7001 Y95.2979
G01 X36.7827 Y95.3804
G01 X36.8691 Y95.4570
G01 X36.9606 Y95.5287
G01 X37.0561 Y95.5946
G01 X37.1563 Y95.6551
G01 X37.2584 Y95.7086
G01 X37.3637 Y95.7560
G01 X37.4735 Y95.7976
G01 X37.5838 Y95.8320
G01 X37.6964 Y95.8598
G01 X37.8124 Y95.8809
G01 X37.9265 Y95.8947
G01 X38.0420 Y95.9018
G01 X38.1581 Y95.9018
G01 X38.2744 Y95.8946
G01 X38.3897 Y95.8806
G01 X38.5036 Y95.8598
G01 X38.6162 Y95.8320
G01 X38.7279 Y95.7972
G01 X38.8363 Y95.7560
G01 X38.9417 Y95.7086
G01 X39.0439 Y95.6550
G01 X39.1439 Y95.5946
G01 X39.2395 Y95.5286
G01 X39.3308 Y95.4571
G01 X39.4173 Y95.3804
G01 X39.5000 Y95.2977
G01 X39.5771 Y95.2108
G01 X39.6487 Y95.1194
G01 X39.7146 Y95.0239
G01 X39.7750 Y94.9239
G01 X39.8286 Y94.8216
G01 X39.8762 Y94.7158
G01 X39.9174 Y94.6072
G01 X39.9520 Y94.4963
G01 X39.9799 Y94.3834
G01 X40.0007 Y94.2693
G01 X40.0148 Y94.1531
G01 X40.0218 Y94.0354
G01 X40.0218 Y93.9219
G01 X40.0148 Y93.8067
G01 X40.0007 Y93.6907
G01 X39.9799 Y93.5766
G01 X39.9520 Y93.4637
G01 X39.9175 Y93.3529
G01 X39.8763 Y93.2443
G01 X39.8286 Y93.1383
G01 X39.7749 Y93.0360
G01 X39.7146 Y92.9360
G01 X39.6486 Y92.8405
G01 X39.5770 Y92.7491
G01 X39.4999 Y92.6622
G01 X39.4178 Y92.5800
G01 X39.3308 Y92.5031
G01 X39.2394 Y92.4313
G01 X39.1439 Y92.3654
G01 X39.0437 Y92.3049
G01 X38.9416 Y92.2514
G01 X38.8363 Y92.2040
G01 X38.7265 Y92.1624
G01 X38.6162 Y92.1280
G01 X38.5036 Y92.1002
G01 X38.3876 Y92.0791
G01 X38.2735 Y92.0653
G01 X38.1580 Y92.0582
G01 X38.0419 Y92.0582
G01 X37.9256 Y92.0654
G01 X37.8103 Y92.0794
G01 X37.6966 Y92.1001
G01 X37.5837 Y92.1280
G01 X37.4734 Y92.1624
G01 X37.3661 Y92.2030
G01 X37.2583 Y92.2514
G01 X37.1561 Y92.3050
G01 X37.0561 Y92.3654
G01 X36.9605 Y92.4314
G01 X36.8692 Y92.5031
G01 X36.7821 Y92.5801
G01 X36.7000 Y92.6622
G01 X36.6231 Y92.7492
G01 X36.5513 Y92.8406
G01 X36.4854 Y92.9361
G01 X36.4250 Y93.0361
G01 X36.3714 Y93.1384
G01 X36.3237 Y93.2443
G01 X36.2825 Y93.3529
G01 X36.2480 Y93.4637
G01 X36.2202 Y93.5764
G01 X36.1991 Y93.6924
G01 X36.1852 Y93.8069
G01 X36.1782 Y93.9219
G00 X36.1782 Y93.9219
G01 F20.00
G01 Z-0.8000
G01 F20.00
G01 X36.1782 Y94.0380
G01 X36.1852 Y94.1533
G01 X36.1993 Y94.2693
G01 X36.2201 Y94.3834
G01 X36.2480 Y94.4963
G01 X36.2825 Y94.6071
G01 X36.3237 Y94.7157
G01 X36.3714 Y94.8217
G01 X36.4251 Y94.9240
G01 X36.4854 Y95.0240
G01 X36.5514 Y95.1195
G01 X36.6231 Y95.2108
G01 X36.7001 Y95.2979
G01 X36.7827 Y95.3804
G01 X36.8691 Y95.4570
G01 X36.9606 Y95.5287
G01 X37.0561 Y95.5946
G01 X37.1563 Y95.6551
G01 X37.2584 Y95.7086
G01 X37.3637 Y95.7560
G01 X37.4735 Y95.7976
G01 X37.5838 Y95.8320
G01 X37.6964 Y95.8598
G01 X37.8124 Y95.8809
G01 X37.9265 Y95.8947
G01 X38.0420 Y95.9018
G01 X38.1581 Y95.9018
G01 X38.2744 Y95.8946
G01 X38.3897 Y95.8806
G01 X38.5036 Y95.8598
G01 X38.6162 Y95.8320
G01 X38.7279 Y95.7972
G01 X38.8363 Y95.7560
G01 X38.9417 Y95.7086
G01 X39.0439 Y95.6550
G01 X39.1439 Y95.5946
G01 X39.2395 Y95.5286
G01 X39.3308 Y95.4571
G01 X39.4173 Y95.3804
G01 X39.5000 Y95.2977
G01 X39.5771 Y95.2108
G01 X39.6487 Y95.1194
G01 X39.7146 Y95.0239
G01 X39.7750 Y94.9239
G01 X39.8286 Y94.8216
G01 X39.8762 Y94.7158
G01 X39.9174 Y94.6072
G01 X39.9520 Y94.4963
G01 X39.9799 Y94.3834
G01 X40.0007 Y94.2693
G01 X40.0148 Y94.1531
G01 X40.0218 Y94.0354
G01 X40.0218 Y93.9219
G01 X40.0148 Y93.8067
G01 X40.0007 Y93.6907
G01 X39.9799 Y93.5766
G01 X39.9520 Y93.4637
G01 X39.9175 Y93.3529
G01 X39.8763 Y93.2443
G01 X39.8286 Y93.1383
G01 X39.7749 Y93.0360
G01 X39.7146 Y92.9360
G01 X39.6486 Y92.8405
G01 X39.5770 Y92.7491
G01 X39.4999 Y92.6622
G01 X39.4178 Y92.5800
G01 X39.3308 Y92.5031
G01 X39.2394 Y92.4313
G01 X39.1439 Y92.3654
G01 X39.0437 Y92.3049
G01 X38.9416 Y92.2514
G01 X38.8363 Y92.2040
G01 X38.7265 Y92.1624
G01 X38.6162 Y92.1280
G01 X38.5036 Y92.1002
G01 X38.3876 Y92.0791
G01 X38.2735 Y92.0653
G01 X38.1580 Y92.0582
G01 X38.0419 Y92.0582
G01 X37.9256 Y92.0654
G01 X37.8103 Y92.0794
G01 X37.6966 Y92.1001
G01 X37.5837 Y92.1280
G01 X37.4734 Y92.1624
G01 X37.3661 Y92.2030
G01 X37.2583 Y92.2514
G01 X37.1561 Y92.3050
G01 X37.0561 Y92.3654
G01 X36.9605 Y92.4314
G01 X36.8692 Y92.5031
G01 X36.7821 Y92.5801
G01 X36.7000 Y92.6622
G01 X36.6231 Y92.7492
G01 X36.5513 Y92.8406
G01 X36.4854 Y92.9361
G01 X36.4250 Y93.0361
G01 X36.3714 Y93.1384
G01 X36.3237 Y93.2443
G01 X36.2825 Y93.3529
G01 X36.2480 Y93.4637
G01 X36.2202 Y93.5764
G01 X36.1991 Y93.6924
G01 X36.1852 Y93.8069
G01 X36.1782 Y93.9219
G00 X36.1782 Y93.9219
G01 F20.00
G01 Z-1.2000
G01 F20.00
G01 X36.1782 Y94.0380
G01 X36.1852 Y94.1533
G01 X36.1993 Y94.2693
G01 X36.2201 Y94.3834
G01 X36.2480 Y94.4963
G01 X36.2825 Y94.6071
G01 X36.3237 Y94.7157
G01 X36.3714 Y94.8217
G01 X36.4251 Y94.9240
G01 X36.4854 Y95.0240
G01 X36.5514 Y95.1195
G01 X36.6231 Y95.2108
G01 X36.7001 Y95.2979
G01 X36.7827 Y95.3804
G01 X36.8691 Y95.4570
G01 X36.9606 Y95.5287
G01 X37.0561 Y95.5946
G01 X37.1563 Y95.6551
G01 X37.2584 Y95.7086
G01 X37.3637 Y95.7560
G01 X37.4735 Y95.7976
G01 X37.5838 Y95.8320
G01 X37.6964 Y95.8598
G01 X37.8124 Y95.8809
G01 X37.9265 Y95.8947
G01 X38.0420 Y95.9018
G01 X38.1581 Y95.9018
G01 X38.2744 Y95.8946
G01 X38.3897 Y95.8806
G01 X38.5036 Y95.8598
G01 X38.6162 Y95.8320
G01 X38.7279 Y95.7972
G01 X38.8363 Y95.7560
G01 X38.9417 Y95.7086
G01 X39.0439 Y95.6550
G01 X39.1439 Y95.5946
G01 X39.2395 Y95.5286
G01 X39.3308 Y95.4571
G01 X39.4173 Y95.3804
G01 X39.5000 Y95.2977
G01 X39.5771 Y95.2108
G01 X39.6487 Y95.1194
G01 X39.7146 Y95.0239
G01 X39.7750 Y94.9239
G01 X39.8286 Y94.8216
G01 X39.8762 Y94.7158
G01 X39.9174 Y94.6072
G01 X39.9520 Y94.4963
G01 X39.9799 Y94.3834
G01 X40.0007 Y94.2693
G01 X40.0148 Y94.1531
G01 X40.0218 Y94.0354
G01 X40.0218 Y93.9219
G01 X40.0148 Y93.8067
G01 X40.0007 Y93.6907
G01 X39.9799 Y93.5766
G01 X39.9520 Y93.4637
G01 X39.9175 Y93.3529
G01 X39.8763 Y93.2443
G01 X39.8286 Y93.1383
G01 X39.7749 Y93.0360
G01 X39.7146 Y92.9360
G01 X39.6486 Y92.8405
G01 X39.5770 Y92.7491
G01 X39.4999 Y92.6622
G01 X39.4178 Y92.5800
G01 X39.3308 Y92.5031
G01 X39.2394 Y92.4313
G01 X39.1439 Y92.3654
G01 X39.0437 Y92.3049
G01 X38.9416 Y92.2514
G01 X38.8363 Y92.2040
G01 X38.7265 Y92.1624
G01 X38.6162 Y92.1280
G01 X38.5036 Y92.1002
G01 X38.3876 Y92.0791
G01 X38.2735 Y92.0653
G01 X38.1580 Y92.0582
G01 X38.0419 Y92.0582
G01 X37.9256 Y92.0654
G01 X37.8103 Y92.0794
G01 X37.6966 Y92.1001
G01 X37.5837 Y92.1280
G01 X37.4734 Y92.1624
G01 X37.3661 Y92.2030
G01 X37.2583 Y92.2514
G01 X37.1561 Y92.3050
G01 X37.0561 Y92.3654
G01 X36.9605 Y92.4314
G01 X36.8692 Y92.5031
G01 X36.7821 Y92.5801
G01 X36.7000 Y92.6622
G01 X36.6231 Y92.7492
G01 X36.5513 Y92.8406
G01 X36.4854 Y92.9361
G01 X36.4250 Y93.0361
G01 X36.3714 Y93.1384
G01 X36.3237 Y93.2443
G01 X36.2825 Y93.3529
G01 X36.2480 Y93.4637
G01 X36.2202 Y93.5764
G01 X36.1991 Y93.6924
G01 X36.1852 Y93.8069
G01 X36.1782 Y93.9219
G00 X36.1782 Y93.9219
G01 F20.00
G01 Z-1.6000
G01 F20.00
G01 X36.1782 Y94.0380
G01 X36.1852 Y94.1533
G01 X36.1993 Y94.2693
G01 X36.2201 Y94.3834
G01 X36.2480 Y94.4963
G01 X36.2825 Y94.6071
G01 X36.3237 Y94.7157
G01 X36.3714 Y94.8217
G01 X36.4251 Y94.9240
G01 X36.4854 Y95.0240
G01 X36.5514 Y95.1195
G01 X36.6231 Y95.2108
G01 X36.7001 Y95.2979
G01 X36.7827 Y95.3804
G01 X36.8691 Y95.4570
G01 X36.9606 Y95.5287
G01 X37.0561 Y95.5946
G01 X37.1563 Y95.6551
G01 X37.2584 Y95.7086
G01 X37.3637 Y95.7560
G01 X37.4735 Y95.7976
G01 X37.5838 Y95.8320
G01 X37.6964 Y95.8598
G01 X37.8124 Y95.8809
G01 X37.9265 Y95.8947
G01 X38.0420 Y95.9018
G01 X38.1581 Y95.9018
G01 X38.2744 Y95.8946
G01 X38.3897 Y95.8806
G01 X38.5036 Y95.8598
G01 X38.6162 Y95.8320
G01 X38.7279 Y95.7972
G01 X38.8363 Y95.7560
G01 X38.9417 Y95.7086
G01 X39.0439 Y95.6550
G01 X39.1439 Y95.5946
G01 X39.2395 Y95.5286
G01 X39.3308 Y95.4571
G01 X39.4173 Y95.3804
G01 X39.5000 Y95.2977
G01 X39.5771 Y95.2108
G01 X39.6487 Y95.1194
G01 X39.7146 Y95.0239
G01 X39.7750 Y94.9239
G01 X39.8286 Y94.8216
G01 X39.8762 Y94.7158
G01 X39.9174 Y94.6072
G01 X39.9520 Y94.4963
G01 X39.9799 Y94.3834
G01 X40.0007 Y94.2693
G01 X40.0148 Y94.1531
G01 X40.0218 Y94.0354
G01 X40.0218 Y93.9219
G01 X40.0148 Y93.8067
G01 X40.0007 Y93.6907
G01 X39.9799 Y93.5766
G01 X39.9520 Y93.4637
G01 X39.9175 Y93.3529
G01 X39.8763 Y93.2443
G01 X39.8286 Y93.1383
G01 X39.7749 Y93.0360
G01 X39.7146 Y92.9360
G01 X39.6486 Y92.8405
G01 X39.5770 Y92.7491
G01 X39.4999 Y92.6622
G01 X39.4178 Y92.5800
G01 X39.3308 Y92.5031
G01 X39.2394 Y92.4313
G01 X39.1439 Y92.3654
G01 X39.0437 Y92.3049
G01 X38.9416 Y92.2514
G01 X38.8363 Y92.2040
G01 X38.7265 Y92.1624
G01 X38.6162 Y92.1280
G01 X38.5036 Y92.1002
G01 X38.3876 Y92.0791
G01 X38.2735 Y92.0653
G01 X38.1580 Y92.0582
G01 X38.0419 Y92.0582
G01 X37.9256 Y92.0654
G01 X37.8103 Y92.0794
G01 X37.6966 Y92.1001
G01 X37.5837 Y92.1280
G01 X37.4734 Y92.1624
G01 X37.3661 Y92.2030
G01 X37.2583 Y92.2514
G01 X37.1561 Y92.3050
G01 X37.0561 Y92.3654
G01 X36.9605 Y92.4314
G01 X36.8692 Y92.5031
G01 X36.7821 Y92.5801
G01 X36.7000 Y92.6622
G01 X36.6231 Y92.7492
G01 X36.5513 Y92.8406
G01 X36.4854 Y92.9361
G01 X36.4250 Y93.0361
G01 X36.3714 Y93.1384
G01 X36.3237 Y93.2443
G01 X36.2825 Y93.3529
G01 X36.2480 Y93.4637
G01 X36.2202 Y93.5764
G01 X36.1991 Y93.6924
G01 X36.1852 Y93.8069
G01 X36.1782 Y93.9219
G00 Z1.0000
G00 X36.1782 Y73.6019
G01 F20.00
G01 Z-0.4000
G01 F20.00
G01 X36.1782 Y73.7180
G01 X36.1852 Y73.8333
G01 X36.1993 Y73.9493
G01 X36.2201 Y74.0634
G01 X36.2480 Y74.1763
G01 X36.2825 Y74.2871
G01 X36.3237 Y74.3957
G01 X36.3714 Y74.5017
G01 X36.4251 Y74.6040
G01 X36.4854 Y74.7040
G01 X36.5514 Y74.7995
G01 X36.6231 Y74.8908
G01 X36.7001 Y74.9779
G01 X36.7827 Y75.0604
G01 X36.8691 Y75.1370
G01 X36.9606 Y75.2087
G01 X37.0561 Y75.2746
G01 X37.1563 Y75.3351
G01 X37.2584 Y75.3886
G01 X37.3637 Y75.4360
G01 X37.4735 Y75.4776
G01 X37.5838 Y75.5120
G01 X37.6964 Y75.5398
G01 X37.8124 Y75.5609
G01 X37.9265 Y75.5747
G01 X38.0420 Y75.5818
G01 X38.1581 Y75.5818
G01 X38.2744 Y75.5746
G01 X38.3897 Y75.5606
G01 X38.5036 Y75.5398
G01 X38.6162 Y75.5120
G01 X38.7279 Y75.4772
G01 X38.8363 Y75.4360
G01 X38.9417 Y75.3886
G01 X39.0439 Y75.3350
G01 X39.1439 Y75.2746
G01 X39.2395 Y75.2086
G01 X39.3308 Y75.1371
G01 X39.4173 Y75.0604
G01 X39.5000 Y74.9777
G01 X39.5771 Y74.8908
G01 X39.6487 Y74.7994
G01 X39.7146 Y74.7039
G01 X39.7750 Y74.6039
G01 X39.8286 Y74.5016
G01 X39.8762 Y74.3958
G01 X39.9174 Y74.2872
G01 X39.9520 Y74.1763
G01 X39.9799 Y74.0634
G01 X40.0007 Y73.9493
G01 X40.0148 Y73.8331
G01 X40.0218 Y73.7154
G01 X40.0218 Y73.6019
G01 X40.0148 Y73.4867
G01 X40.0007 Y73.3707
G01 X39.9799 Y73.2566
G01 X39.9520 Y73.1437
G01 X39.9175 Y73.0329
G01 X39.8763 Y72.9243
G01 X39.8286 Y72.8183
G01 X39.7749 Y72.7160
G01 X39.7146 Y72.6160
G01 X39.6486 Y72.5205
G01 X39.5770 Y72.4291
G01 X39.4999 Y72.3422
G01 X39.4178 Y72.2600
G01 X39.3308 Y72.1831
G01 X39.2394 Y72.1113
G01 X39.1439 Y72.0454
G01 X39.0437 Y71.9849
G01 X38.9416 Y71.9314
G01 X38.8363 Y71.8840
G01 X38.7265 Y71.8424
G01 X38.6162 Y71.8080
G01 X38.5036 Y71.7802
G01 X38.3876 Y71.7591
G01 X38.2735 Y71.7453
G01 X38.1580 Y71.7382
G01 X38.0419 Y71.7382
G01 X37.9256 Y71.7454
G01 X37.8103 Y71.7594
G01 X37.6966 Y71.7801
G01 X37.5837 Y71.8080
G01 X37.4734 Y71.8424
G01 X37.3661 Y71.8830
G01 X37.2583 Y71.9314
G01 X37.1561 Y71.9850
G01 X37.0561 Y72.0454
G01 X36.9605 Y72.1114
G01 X36.8692 Y72.1831
G01 X36.7821 Y72.2601
G01 X36.7000 Y72.3422
G01 X36.6231 Y72.4292
G01 X36.5513 Y72.5206
G01 X36.4854 Y72.6161
G01 X36.4250 Y72.7161
G01 X36.3714 Y72.8184
G01 X36.3237 Y72.9243
G01 X36.2825 Y73.0329
G01 X36.2480 Y73.1437
G01 X36.2202 Y73.2564
G01 X36.1991 Y73.3724
G01 X36.1852 Y73.4869
G01 X36.1782 Y73.6019
G00 X36.1782 Y73.6019
G01 F20.00
G01 Z-0.8000
G01 F20.00
G01 X36.1782 Y73.7180
G01 X36.1852 Y73.8333
G01 X36.1993 Y73.9493
G01 X36.2201 Y74.0634
G01 X36.2480 Y74.1763
G01 X36.2825 Y74.2871
G01 X36.3237 Y74.3957
G01 X36.3714 Y74.5017
G01 X36.4251 Y74.6040
G01 X36.4854 Y74.7040
G01 X36.5514 Y74.7995
G01 X36.6231 Y74.8908
G01 X36.7001 Y74.9779
G01 X36.7827 Y75.0604
G01 X36.8691 Y75.1370
G01 X36.9606 Y75.2087
G01 X37.0561 Y75.2746
G01 X37.1563 Y75.3351
G01 X37.2584 Y75.3886
G01 X37.3637 Y75.4360
G01 X37.4735 Y75.4776
G01 X37.5838 Y75.5120
G01 X37.6964 Y75.5398
G01 X37.8124 Y75.5609
G01 X37.9265 Y75.5747
G01 X38.0420 Y75.5818
G01 X38.1581 Y75.5818
G01 X38.2744 Y75.5746
G01 X38.3897 Y75.5606
G01 X38.5036 Y75.5398
G01 X38.6162 Y75.5120
G01 X38.7279 Y75.4772
G01 X38.8363 Y75.4360
G01 X38.9417 Y75.3886
G01 X39.0439 Y75.3350
G01 X39.1439 Y75.2746
G01 X39.2395 Y75.2086
G01 X39.3308 Y75.1371
G01 X39.4173 Y75.0604
G01 X39.5000 Y74.9777
G01 X39.5771 Y74.8908
G01 X39.6487 Y74.7994
G01 X39.7146 Y74.7039
G01 X39.7750 Y74.6039
G01 X39.8286 Y74.5016
G01 X39.8762 Y74.3958
G01 X39.9174 Y74.2872
G01 X39.9520 Y74.1763
G01 X39.9799 Y74.0634
G01 X40.0007 Y73.9493
G01 X40.0148 Y73.8331
G01 X40.0218 Y73.7154
G01 X40.0218 Y73.6019
G01 X40.0148 Y73.4867
G01 X40.0007 Y73.3707
G01 X39.9799 Y73.2566
G01 X39.9520 Y73.1437
G01 X39.9175 Y73.0329
G01 X39.8763 Y72.9243
G01 X39.8286 Y72.8183
G01 X39.7749 Y72.7160
G01 X39.7146 Y72.6160
G01 X39.6486 Y72.5205
G01 X39.5770 Y72.4291
G01 X39.4999 Y72.3422
G01 X39.4178 Y72.2600
G01 X39.3308 Y72.1831
G01 X39.2394 Y72.1113
G01 X39.1439 Y72.0454
G01 X39.0437 Y71.9849
G01 X38.9416 Y71.9314
G01 X38.8363 Y71.8840
G01 X38.7265 Y71.8424
G01 X38.6162 Y71.8080
G01 X38.5036 Y71.7802
G01 X38.3876 Y71.7591
G01 X38.2735 Y71.7453
G01 X38.1580 Y71.7382
G01 X38.0419 Y71.7382
G01 X37.9256 Y71.7454
G01 X37.8103 Y71.7594
G01 X37.6966 Y71.7801
G01 X37.5837 Y71.8080
G01 X37.4734 Y71.8424
G01 X37.3661 Y71.8830
G01 X37.2583 Y71.9314
G01 X37.1561 Y71.9850
G01 X37.0561 Y72.0454
G01 X36.9605 Y72.1114
G01 X36.8692 Y72.1831
G01 X36.7821 Y72.2601
G01 X36.7000 Y72.3422
G01 X36.6231 Y72.4292
G01 X36.5513 Y72.5206
G01 X36.4854 Y72.6161
G01 X36.4250 Y72.7161
G01 X36.3714 Y72.8184
G01 X36.3237 Y72.9243
G01 X36.2825 Y73.0329
G01 X36.2480 Y73.1437
G01 X36.2202 Y73.2564
G01 X36.1991 Y73.3724
G01 X36.1852 Y73.4869
G01 X36.1782 Y73.6019
G00 X36.1782 Y73.6019
G01 F20.00
G01 Z-1.2000
G01 F20.00
G01 X36.1782 Y73.7180
G01 X36.1852 Y73.8333
G01 X36.1993 Y73.9493
G01 X36.2201 Y74.0634
G01 X36.2480 Y74.1763
G01 X36.2825 Y74.2871
G01 X36.3237 Y74.3957
G01 X36.3714 Y74.5017
G01 X36.4251 Y74.6040
G01 X36.4854 Y74.7040
G01 X36.5514 Y74.7995
G01 X36.6231 Y74.8908
G01 X36.7001 Y74.9779
G01 X36.7827 Y75.0604
G01 X36.8691 Y75.1370
G01 X36.9606 Y75.2087
G01 X37.0561 Y75.2746
G01 X37.1563 Y75.3351
G01 X37.2584 Y75.3886
G01 X37.3637 Y75.4360
G01 X37.4735 Y75.4776
G01 X37.5838 Y75.5120
G01 X37.6964 Y75.5398
G01 X37.8124 Y75.5609
G01 X37.9265 Y75.5747
G01 X38.0420 Y75.5818
G01 X38.1581 Y75.5818
G01 X38.2744 Y75.5746
G01 X38.3897 Y75.5606
G01 X38.5036 Y75.5398
G01 X38.6162 Y75.5120
G01 X38.7279 Y75.4772
G01 X38.8363 Y75.4360
G01 X38.9417 Y75.3886
G01 X39.0439 Y75.3350
G01 X39.1439 Y75.2746
G01 X39.2395 Y75.2086
G01 X39.3308 Y75.1371
G01 X39.4173 Y75.0604
G01 X39.5000 Y74.9777
G01 X39.5771 Y74.8908
G01 X39.6487 Y74.7994
G01 X39.7146 Y74.7039
G01 X39.7750 Y74.6039
G01 X39.8286 Y74.5016
G01 X39.8762 Y74.3958
G01 X39.9174 Y74.2872
G01 X39.9520 Y74.1763
G01 X39.9799 Y74.0634
G01 X40.0007 Y73.9493
G01 X40.0148 Y73.8331
G01 X40.0218 Y73.7154
G01 X40.0218 Y73.6019
G01 X40.0148 Y73.4867
G01 X40.0007 Y73.3707
G01 X39.9799 Y73.2566
G01 X39.9520 Y73.1437
G01 X39.9175 Y73.0329
G01 X39.8763 Y72.9243
G01 X39.8286 Y72.8183
G01 X39.7749 Y72.7160
G01 X39.7146 Y72.6160
G01 X39.6486 Y72.5205
G01 X39.5770 Y72.4291
G01 X39.4999 Y72.3422
G01 X39.4178 Y72.2600
G01 X39.3308 Y72.1831
G01 X39.2394 Y72.1113
G01 X39.1439 Y72.0454
G01 X39.0437 Y71.9849
G01 X38.9416 Y71.9314
G01 X38.8363 Y71.8840
G01 X38.7265 Y71.8424
G01 X38.6162 Y71.8080
G01 X38.5036 Y71.7802
G01 X38.3876 Y71.7591
G01 X38.2735 Y71.7453
G01 X38.1580 Y71.7382
G01 X38.0419 Y71.7382
G01 X37.9256 Y71.7454
G01 X37.8103 Y71.7594
G01 X37.6966 Y71.7801
G01 X37.5837 Y71.8080
G01 X37.4734 Y71.8424
G01 X37.3661 Y71.8830
G01 X37.2583 Y71.9314
G01 X37.1561 Y71.9850
G01 X37.0561 Y72.0454
G01 X36.9605 Y72.1114
G01 X36.8692 Y72.1831
G01 X36.7821 Y72.2601
G01 X36.7000 Y72.3422
G01 X36.6231 Y72.4292
G01 X36.5513 Y72.5206
G01 X36.4854 Y72.6161
G01 X36.4250 Y72.7161
G01 X36.3714 Y72.8184
G01 X36.3237 Y72.9243
G01 X36.2825 Y73.0329
G01 X36.2480 Y73.1437
G01 X36.2202 Y73.2564
G01 X36.1991 Y73.3724
G01 X36.1852 Y73.4869
G01 X36.1782 Y73.6019
G00 X36.1782 Y73.6019
G01 F20.00
G01 Z-1.6000
G01 F20.00
G01 X36.1782 Y73.7180
G01 X36.1852 Y73.8333
G01 X36.1993 Y73.9493
G01 X36.2201 Y74.0634
G01 X36.2480 Y74.1763
G01 X36.2825 Y74.2871
G01 X36.3237 Y74.3957
G01 X36.3714 Y74.5017
G01 X36.4251 Y74.6040
G01 X36.4854 Y74.7040
G01 X36.5514 Y74.7995
G01 X36.6231 Y74.8908
G01 X36.7001 Y74.9779
G01 X36.7827 Y75.0604
G01 X36.8691 Y75.1370
G01 X36.9606 Y75.2087
G01 X37.0561 Y75.2746
G01 X37.1563 Y75.3351
G01 X37.2584 Y75.3886
G01 X37.3637 Y75.4360
G01 X37.4735 Y75.4776
G01 X37.5838 Y75.5120
G01 X37.6964 Y75.5398
G01 X37.8124 Y75.5609
G01 X37.9265 Y75.5747
G01 X38.0420 Y75.5818
G01 X38.1581 Y75.5818
G01 X38.2744 Y75.5746
G01 X38.3897 Y75.5606
G01 X38.5036 Y75.5398
G01 X38.6162 Y75.5120
G01 X38.7279 Y75.4772
G01 X38.8363 Y75.4360
G01 X38.9417 Y75.3886
G01 X39.0439 Y75.3350
G01 X39.1439 Y75.2746
G01 X39.2395 Y75.2086
G01 X39.3308 Y75.1371
G01 X39.4173 Y75.0604
G01 X39.5000 Y74.9777
G01 X39.5771 Y74.8908
G01 X39.6487 Y74.7994
G01 X39.7146 Y74.7039
G01 X39.7750 Y74.6039
G01 X39.8286 Y74.5016
G01 X39.8762 Y74.3958
G01 X39.9174 Y74.2872
G01 X39.9520 Y74.1763
G01 X39.9799 Y74.0634
G01 X40.0007 Y73.9493
G01 X40.0148 Y73.8331
G01 X40.0218 Y73.7154
G01 X40.0218 Y73.6019
G01 X40.0148 Y73.4867
G01 X40.0007 Y73.3707
G01 X39.9799 Y73.2566
G01 X39.9520 Y73.1437
G01 X39.9175 Y73.0329
G01 X39.8763 Y72.9243
G01 X39.8286 Y72.8183
G01 X39.7749 Y72.7160
G01 X39.7146 Y72.6160
G01 X39.6486 Y72.5205
G01 X39.5770 Y72.4291
G01 X39.4999 Y72.3422
G01 X39.4178 Y72.2600
G01 X39.3308 Y72.1831
G01 X39.2394 Y72.1113
G01 X39.1439 Y72.0454
G01 X39.0437 Y71.9849
G01 X38.9416 Y71.9314
G01 X38.8363 Y71.8840
G01 X38.7265 Y71.8424
G01 X38.6162 Y71.8080
G01 X38.5036 Y71.7802
G01 X38.3876 Y71.7591
G01 X38.2735 Y71.7453
G01 X38.1580 Y71.7382
G01 X38.0419 Y71.7382
G01 X37.9256 Y71.7454
G01 X37.8103 Y71.7594
G01 X37.6966 Y71.7801
G01 X37.5837 Y71.8080
G01 X37.4734 Y71.8424
G01 X37.3661 Y71.8830
G01 X37.2583 Y71.9314
G01 X37.1561 Y71.9850
G01 X37.0561 Y72.0454
G01 X36.9605 Y72.1114
G01 X36.8692 Y72.1831
G01 X36.7821 Y72.2601
G01 X36.7000 Y72.3422
G01 X36.6231 Y72.4292
G01 X36.5513 Y72.5206
G01 X36.4854 Y72.6161
G01 X36.4250 Y72.7161
G01 X36.3714 Y72.8184
G01 X36.3237 Y72.9243
G01 X36.2825 Y73.0329
G01 X36.2480 Y73.1437
G01 X36.2202 Y73.2564
G01 X36.1991 Y73.3724
G01 X36.1852 Y73.4869
G01 X36.1782 Y73.6019
G00 Z1.0000
G00 X36.1782 Y53.3980
G01 F20.00
G01 Z-0.4000
G01 F20.00
G01 X36.1855 Y53.5157
G01 X36.1994 Y53.6298
G01 X36.2202 Y53.7436
G01 X36.2480 Y53.8563
G01 X36.2825 Y53.9671
G01 X36.3237 Y54.0757
G01 X36.3714 Y54.1816
G01 X36.4253 Y54.2845
G01 X36.4854 Y54.3839
G01 X36.5513 Y54.4794
G01 X36.6231 Y54.5708
G01 X36.7000 Y54.6578
G01 X36.7823 Y54.7400
G01 X36.8691 Y54.8170
G01 X36.9605 Y54.8886
G01 X37.0560 Y54.9546
G01 X37.1554 Y55.0146
G01 X37.2583 Y55.0686
G01 X37.3643 Y55.1163
G01 X37.4729 Y55.1575
G01 X37.5837 Y55.1920
G01 X37.6966 Y55.2199
G01 X37.8107 Y55.2407
G01 X37.9266 Y55.2547
G01 X38.0419 Y55.2618
G01 X38.1580 Y55.2618
G01 X38.2757 Y55.2545
G01 X38.3898 Y55.2406
G01 X38.5036 Y55.2198
G01 X38.6163 Y55.1920
G01 X38.7271 Y55.1575
G01 X38.8357 Y55.1163
G01 X38.9416 Y55.0686
G01 X39.0445 Y55.0147
G01 X39.1439 Y54.9546
G01 X39.2394 Y54.8887
G01 X39.3309 Y54.8170
G01 X39.4178 Y54.7399
G01 X39.5000 Y54.6577
G01 X39.5770 Y54.5709
G01 X39.6486 Y54.4795
G01 X39.7146 Y54.3840
G01 X39.7746 Y54.2846
G01 X39.8286 Y54.1817
G01 X39.8763 Y54.0757
G01 X39.9175 Y53.9671
G01 X39.9520 Y53.8563
G01 X39.9799 Y53.7434
G01 X40.0007 Y53.6293
G01 X40.0147 Y53.5134
G01 X40.0216 Y53.4008
G01 X40.0218 Y53.2820
G01 X40.0145 Y53.1643
G01 X40.0006 Y53.0502
G01 X39.9798 Y52.9364
G01 X39.9520 Y52.8237
G01 X39.9175 Y52.7129
G01 X39.8763 Y52.6043
G01 X39.8286 Y52.4984
G01 X39.7747 Y52.3955
G01 X39.7146 Y52.2961
G01 X39.6487 Y52.2006
G01 X39.5770 Y52.1091
G01 X39.5000 Y52.0223
G01 X39.4179 Y51.9401
G01 X39.3308 Y51.8631
G01 X39.2395 Y51.7914
G01 X39.1440 Y51.7254
G01 X39.0446 Y51.6654
G01 X38.9417 Y51.6114
G01 X38.8357 Y51.5637
G01 X38.7271 Y51.5225
G01 X38.6163 Y51.4880
G01 X38.5034 Y51.4601
G01 X38.3893 Y51.4393
G01 X38.2734 Y51.4253
G01 X38.1581 Y51.4182
G01 X38.0420 Y51.4182
G01 X37.9243 Y51.4255
G01 X37.8102 Y51.4394
G01 X37.6964 Y51.4602
G01 X37.5837 Y51.4880
G01 X37.4729 Y51.5225
G01 X37.3643 Y51.5637
G01 X37.2584 Y51.6114
G01 X37.1555 Y51.6653
G01 X37.0561 Y51.7254
G01 X36.9606 Y51.7913
G01 X36.8692 Y51.8631
G01 X36.7822 Y51.9400
G01 X36.7001 Y52.0221
G01 X36.6231 Y52.1092
G01 X36.5514 Y52.2005
G01 X36.4854 Y52.2960
G01 X36.4254 Y52.3954
G01 X36.3714 Y52.4983
G01 X36.3237 Y52.6043
G01 X36.2825 Y52.7129
G01 X36.2480 Y52.8237
G01 X36.2201 Y52.9366
G01 X36.1993 Y53.0507
G01 X36.1853 Y53.1666
G01 X36.1782 Y53.2819
G01 X36.1782 Y53.3980
G00 X36.1782 Y53.3980
G01 F20.00
G01 Z-0.8000
G01 F20.00
G01 X36.1855 Y53.5157
G01 X36.1994 Y53.6298
G01 X36.2202 Y53.7436
G01 X36.2480 Y53.8563
G01 X36.2825 Y53.9671
G01 X36.3237 Y54.0757
G01 X36.3714 Y54.1816
G01 X36.4253 Y54.2845
G01 X36.4854 Y54.3839
G01 X36.5513 Y54.4794
G01 X36.6231 Y54.5708
G01 X36.7000 Y54.6578
G01 X36.7823 Y54.7400
G01 X36.8691 Y54.8170
G01 X36.9605 Y54.8886
G01 X37.0560 Y54.9546
G01 X37.1554 Y55.0146
G01 X37.2583 Y55.0686
G01 X37.3643 Y55.1163
G01 X37.4729 Y55.1575
G01 X37.5837 Y55.1920
G01 X37.6966 Y55.2199
G01 X37.8107 Y55.2407
G01 X37.9266 Y55.2547
G01 X38.0419 Y55.2618
G01 X38.1580 Y55.2618
G01 X38.2757 Y55.2545
G01 X38.3898 Y55.2406
G01 X38.5036 Y55.2198
G01 X38.6163 Y55.1920
G01 X38.7271 Y55.1575
G01 X38.8357 Y55.1163
G01 X38.9416 Y55.0686
G01 X39.0445 Y55.0147
G01 X39.1439 Y54.9546
G01 X39.2394 Y54.8887
G01 X39.3309 Y54.8170
G01 X39.4178 Y54.7399
G01 X39.5000 Y54.6577
G01 X39.5770 Y54.5709
G01 X39.6486 Y54.4795
G01 X39.7146 Y54.3840
G01 X39.7746 Y54.2846
G01 X39.8286 Y54.1817
G01 X39.8763 Y54.0757
G01 X39.9175 Y53.9671
G01 X39.9520 Y53.8563
G01 X39.9799 Y53.7434
G01 X40.0007 Y53.6293
G01 X40.0147 Y53.5134
G01 X40.0216 Y53.4008
G01 X40.0218 Y53.2820
G01 X40.0145 Y53.1643
G01 X40.0006 Y53.0502
G01 X39.9798 Y52.9364
G01 X39.9520 Y52.8237
G01 X39.9175 Y52.7129
G01 X39.8763 Y52.6043
G01 X39.8286 Y52.4984
G01 X39.7747 Y52.3955
G01 X39.7146 Y52.2961
G01 X39.6487 Y52.2006
G01 X39.5770 Y52.1091
G01 X39.5000 Y52.0223
G01 X39.4179 Y51.9401
G01 X39.3308 Y51.8631
G01 X39.2395 Y51.7914
G01 X39.1440 Y51.7254
G01 X39.0446 Y51.6654
G01 X38.9417 Y51.6114
G01 X38.8357 Y51.5637
G01 X38.7271 Y51.5225
G01 X38.6163 Y51.4880
G01 X38.5034 Y51.4601
G01 X38.3893 Y51.4393
G01 X38.2734 Y51.4253
G01 X38.1581 Y51.4182
G01 X38.0420 Y51.4182
G01 X37.9243 Y51.4255
G01 X37.8102 Y51.4394
G01 X37.6964 Y51.4602
G01 X37.5837 Y51.4880
G01 X37.4729 Y51.5225
G01 X37.3643 Y51.5637
G01 X37.2584 Y51.6114
G01 X37.1555 Y51.6653
G01 X37.0561 Y51.7254
G01 X36.9606 Y51.7913
G01 X36.8692 Y51.8631
G01 X36.7822 Y51.9400
G01 X36.7001 Y52.0221
G01 X36.6231 Y52.1092
G01 X36.5514 Y52.2005
G01 X36.4854 Y52.2960
G01 X36.4254 Y52.3954
G01 X36.3714 Y52.4983
G01 X36.3237 Y52.6043
G01 X36.2825 Y52.7129
G01 X36.2480 Y52.8237
G01 X36.2201 Y52.9366
G01 X36.1993 Y53.0507
G01 X36.1853 Y53.1666
G01 X36.1782 Y53.2819
G01 X36.1782 Y53.3980
G00 X36.1782 Y53.3980
G01 F20.00
G01 Z-1.2000
G01 F20.00
G01 X36.1855 Y53.5157
G01 X36.1994 Y53.6298
G01 X36.2202 Y53.7436
G01 X36.2480 Y53.8563
G01 X36.2825 Y53.9671
G01 X36.3237 Y54.0757
G01 X36.3714 Y54.1816
G01 X36.4253 Y54.2845
G01 X36.4854 Y54.3839
G01 X36.5513 Y54.4794
G01 X36.6231 Y54.5708
G01 X36.7000 Y54.6578
G01 X36.7823 Y54.7400
G01 X36.8691 Y54.8170
G01 X36.9605 Y54.8886
G01 X37.0560 Y54.9546
G01 X37.1554 Y55.0146
G01 X37.2583 Y55.0686
G01 X37.3643 Y55.1163
G01 X37.4729 Y55.1575
G01 X37.5837 Y55.1920
G01 X37.6966 Y55.2199
G01 X37.8107 Y55.2407
G01 X37.9266 Y55.2547
G01 X38.0419 Y55.2618
G01 X38.1580 Y55.2618
G01 X38.2757 Y55.2545
G01 X38.3898 Y55.2406
G01 X38.5036 Y55.2198
G01 X38.6163 Y55.1920
G01 X38.7271 Y55.1575
G01 X38.8357 Y55.1163
G01 X38.9416 Y55.0686
G01 X39.0445 Y55.0147
G01 X39.1439 Y54.9546
G01 X39.2394 Y54.8887
G01 X39.3309 Y54.8170
G01 X39.4178 Y54.7399
G01 X39.5000 Y54.6577
G01 X39.5770 Y54.5709
G01 X39.6486 Y54.4795
G01 X39.7146 Y54.3840
G01 X39.7746 Y54.2846
G01 X39.8286 Y54.1817
G01 X39.8763 Y54.0757
G01 X39.9175 Y53.9671
G01 X39.9520 Y53.8563
G01 X39.9799 Y53.7434
G01 X40.0007 Y53.6293
G01 X40.0147 Y53.5134
G01 X40.0216 Y53.4008
G01 X40.0218 Y53.2820
G01 X40.0145 Y53.1643
G01 X40.0006 Y53.0502
G01 X39.9798 Y52.9364
G01 X39.9520 Y52.8237
G01 X39.9175 Y52.7129
G01 X39.8763 Y52.6043
G01 X39.8286 Y52.4984
G01 X39.7747 Y52.3955
G01 X39.7146 Y52.2961
G01 X39.6487 Y52.2006
G01 X39.5770 Y52.1091
G01 X39.5000 Y52.0223
G01 X39.4179 Y51.9401
G01 X39.3308 Y51.8631
G01 X39.2395 Y51.7914
G01 X39.1440 Y51.7254
G01 X39.0446 Y51.6654
G01 X38.9417 Y51.6114
G01 X38.8357 Y51.5637
G01 X38.7271 Y51.5225
G01 X38.6163 Y51.4880
G01 X38.5034 Y51.4601
G01 X38.3893 Y51.4393
G01 X38.2734 Y51.4253
G01 X38.1581 Y51.4182
G01 X38.0420 Y51.4182
G01 X37.9243 Y51.4255
G01 X37.8102 Y51.4394
G01 X37.6964 Y51.4602
G01 X37.5837 Y51.4880
G01 X37.4729 Y51.5225
G01 X37.3643 Y51.5637
G01 X37.2584 Y51.6114
G01 X37.1555 Y51.6653
G01 X37.0561 Y51.7254
G01 X36.9606 Y51.7913
G01 X36.8692 Y51.8631
G01 X36.7822 Y51.9400
G01 X36.7001 Y52.0221
G01 X36.6231 Y52.1092
G01 X36.5514 Y52.2005
G01 X36.4854 Y52.2960
G01 X36.4254 Y52.3954
G01 X36.3714 Y52.4983
G01 X36.3237 Y52.6043
G01 X36.2825 Y52.7129
G01 X36.2480 Y52.8237
G01 X36.2201 Y52.9366
G01 X36.1993 Y53.0507
G01 X36.1853 Y53.1666
G01 X36.1782 Y53.2819
G01 X36.1782 Y53.3980
G00 X36.1782 Y53.3980
G01 F20.00
G01 Z-1.6000
G01 F20.00
G01 X36.1855 Y53.5157
G01 X36.1994 Y53.6298
G01 X36.2202 Y53.7436
G01 X36.2480 Y53.8563
G01 X36.2825 Y53.9671
G01 X36.3237 Y54.0757
G01 X36.3714 Y54.1816
G01 X36.4253 Y54.2845
G01 X36.4854 Y54.3839
G01 X36.5513 Y54.4794
G01 X36.6231 Y54.5708
G01 X36.7000 Y54.6578
G01 X36.7823 Y54.7400
G01 X36.8691 Y54.8170
G01 X36.9605 Y54.8886
G01 X37.0560 Y54.9546
G01 X37.1554 Y55.0146
G01 X37.2583 Y55.0686
G01 X37.3643 Y55.1163
G01 X37.4729 Y55.1575
G01 X37.5837 Y55.1920
G01 X37.6966 Y55.2199
G01 X37.8107 Y55.2407
G01 X37.9266 Y55.2547
G01 X38.0419 Y55.2618
G01 X38.1580 Y55.2618
G01 X38.2757 Y55.2545
G01 X38.3898 Y55.2406
G01 X38.5036 Y55.2198
G01 X38.6163 Y55.1920
G01 X38.7271 Y55.1575
G01 X38.8357 Y55.1163
G01 X38.9416 Y55.0686
G01 X39.0445 Y55.0147
G01 X39.1439 Y54.9546
G01 X39.2394 Y54.8887
G01 X39.3309 Y54.8170
G01 X39.4178 Y54.7399
G01 X39.5000 Y54.6577
G01 X39.5770 Y54.5709
G01 X39.6486 Y54.4795
G01 X39.7146 Y54.3840
G01 X39.7746 Y54.2846
G01 X39.8286 Y54.1817
G01 X39.8763 Y54.0757
G01 X39.9175 Y53.9671
G01 X39.9520 Y53.8563
G01 X39.9799 Y53.7434
G01 X40.0007 Y53.6293
G01 X40.0147 Y53.5134
G01 X40.0216 Y53.4008
G01 X40.0218 Y53.2820
G01 X40.0145 Y53.1643
G01 X40.0006 Y53.0502
G01 X39.9798 Y52.9364
G01 X39.9520 Y52.8237
G01 X39.9175 Y52.7129
G01 X39.8763 Y52.6043
G01 X39.8286 Y52.4984
G01 X39.7747 Y52.3955
G01 X39.7146 Y52.2961
G01 X39.6487 Y52.2006
G01 X39.5770 Y52.1091
G01 X39.5000 Y52.0223
G01 X39.4179 Y51.9401
G01 X39.3308 Y51.8631
G01 X39.2395 Y51.7914
G01 X39.1440 Y51.7254
G01 X39.0446 Y51.6654
G01 X38.9417 Y51.6114
G01 X38.8357 Y51.5637
G01 X38.7271 Y51.5225
G01 X38.6163 Y51.4880
G01 X38.5034 Y51.4601
G01 X38.3893 Y51.4393
G01 X38.2734 Y51.4253
G01 X38.1581 Y51.4182
G01 X38.0420 Y51.4182
G01 X37.9243 Y51.4255
G01 X37.8102 Y51.4394
G01 X37.6964 Y51.4602
G01 X37.5837 Y51.4880
G01 X37.4729 Y51.5225
G01 X37.3643 Y51.5637
G01 X37.2584 Y51.6114
G01 X37.1555 Y51.6653
G01 X37.0561 Y51.7254
G01 X36.9606 Y51.7913
G01 X36.8692 Y51.8631
G01 X36.7822 Y51.9400
G01 X36.7001 Y52.0221
G01 X36.6231 Y52.1092
G01 X36.5514 Y52.2005
G01 X36.4854 Y52.2960
G01 X36.4254 Y52.3954
G01 X36.3714 Y52.4983
G01 X36.3237 Y52.6043
G01 X36.2825 Y52.7129
G01 X36.2480 Y52.8237
G01 X36.2201 Y52.9366
G01 X36.1993 Y53.0507
G01 X36.1853 Y53.1666
G01 X36.1782 Y53.2819
G01 X36.1782 Y53.3980
G00 Z1.0000
G00 X36.1782 Y33.0780
G01 F20.00
G01 Z-0.4000
G01 F20.00
G01 X36.1855 Y33.1957
G01 X36.1994 Y33.3098
G01 X36.2202 Y33.4236
G01 X36.2480 Y33.5363
G01 X36.2825 Y33.6471
G01 X36.3237 Y33.7557
G01 X36.3714 Y33.8616
G01 X36.4253 Y33.9645
G01 X36.4854 Y34.0639
G01 X36.5513 Y34.1594
G01 X36.6231 Y34.2508
G01 X36.7000 Y34.3378
G01 X36.7823 Y34.4200
G01 X36.8691 Y34.4970
G01 X36.9605 Y34.5686
G01 X37.0560 Y34.6346
G01 X37.1554 Y34.6946
G01 X37.2583 Y34.7486
G01 X37.3643 Y34.7963
G01 X37.4729 Y34.8375
G01 X37.5837 Y34.8720
G01 X37.6966 Y34.8999
G01 X37.8107 Y34.9207
G01 X37.9266 Y34.9347
G01 X38.0419 Y34.9418
G01 X38.1580 Y34.9418
G01 X38.2757 Y34.9345
G01 X38.3898 Y34.9206
G01 X38.5036 Y34.8998
G01 X38.6163 Y34.8720
G01 X38.7271 Y34.8375
G01 X38.8357 Y34.7963
G01 X38.9416 Y34.7486
G01 X39.0445 Y34.6947
G01 X39.1439 Y34.6346
G01 X39.2394 Y34.5687
G01 X39.3309 Y34.4970
G01 X39.4178 Y34.4199
G01 X39.5000 Y34.3377
G01 X39.5770 Y34.2509
G01 X39.6486 Y34.1595
G01 X39.7146 Y34.0640
G01 X39.7746 Y33.9646
G01 X39.8286 Y33.8617
G01 X39.8763 Y33.7557
G01 X39.9175 Y33.6471
G01 X39.9520 Y33.5363
G01 X39.9799 Y33.4234
G01 X40.0007 Y33.3093
G01 X40.0147 Y33.1934
G01 X40.0216 Y33.0808
G01 X40.0218 Y32.9620
G01 X40.0145 Y32.8443
G01 X40.0006 Y32.7302
G01 X39.9798 Y32.6164
G01 X39.9520 Y32.5037
G01 X39.9175 Y32.3929
G01 X39.8763 Y32.2843
G01 X39.8286 Y32.1784
G01 X39.7747 Y32.0755
G01 X39.7146 Y31.9761
G01 X39.6487 Y31.8806
G01 X39.5770 Y31.7891
G01 X39.5000 Y31.7023
G01 X39.4179 Y31.6201
G01 X39.3308 Y31.5431
G01 X39.2395 Y31.4714
G01 X39.1440 Y31.4054
G01 X39.0446 Y31.3454
G01 X38.9417 Y31.2914
G01 X38.8357 Y31.2437
G01 X38.7271 Y31.2025
G01 X38.6163 Y31.1680
G01 X38.5034 Y31.1401
G01 X38.3893 Y31.1193
G01 X38.2733 Y31.1052
G01 X38.1580 Y31.0982
G01 X38.0420 Y31.0982
G01 X37.9253 Y31.1054
G01 X37.8107 Y31.1193
G01 X37.6964 Y31.1402
G01 X37.5837 Y31.1680
G01 X37.4729 Y31.2025
G01 X37.3643 Y31.2437
G01 X37.2584 Y31.2914
G01 X37.1555 Y31.3453
G01 X37.0561 Y31.4054
G01 X36.9606 Y31.4713
G01 X36.8692 Y31.5431
G01 X36.7822 Y31.6200
G01 X36.7001 Y31.7021
G01 X36.6231 Y31.7892
G01 X36.5514 Y31.8805
G01 X36.4854 Y31.9760
G01 X36.4254 Y32.0754
G01 X36.3714 Y32.1783
G01 X36.3237 Y32.2843
G01 X36.2825 Y32.3929
G01 X36.2480 Y32.5037
G01 X36.2201 Y32.6166
G01 X36.1993 Y32.7307
G01 X36.1853 Y32.8466
G01 X36.1782 Y32.9619
G01 X36.1782 Y33.0780
G00 X36.1782 Y33.0780
G01 F20.00
G01 Z-0.8000
G01 F20.00
G01 X36.1855 Y33.1957
G01 X36.1994 Y33.3098
G01 X36.2202 Y33.4236
G01 X36.2480 Y33.5363
G01 X36.2825 Y33.6471
G01 X36.3237 Y33.7557
G01 X36.3714 Y33.8616
G01 X36.4253 Y33.9645
G01 X36.4854 Y34.0639
G01 X36.5513 Y34.1594
G01 X36.6231 Y34.2508
G01 X36.7000 Y34.3378
G01 X36.7823 Y34.4200
G01 X36.8691 Y34.4970
G01 X36.9605 Y34.5686
G01 X37.0560 Y34.6346
G01 X37.1554 Y34.6946
G01 X37.2583 Y34.7486
G01 X37.3643 Y34.7963
G01 X37.4729 Y34.8375
G01 X37.5837 Y34.8720
G01 X37.6966 Y34.8999
G01 X37.8107 Y34.9207
G01 X37.9266 Y34.9347
G01 X38.0419 Y34.9418
G01 X38.1580 Y34.9418
G01 X38.2757 Y34.9345
G01 X38.3898 Y34.9206
G01 X38.5036 Y34.8998
G01 X38.6163 Y34.8720
G01 X38.7271 Y34.8375
G01 X38.8357 Y34.7963
G01 X38.9416 Y34.7486
G01 X39.0445 Y34.6947
G01 X39.1439 Y34.6346
G01 X39.2394 Y34.5687
G01 X39.3309 Y34.4970
G01 X39.4178 Y34.4199
G01 X39.5000 Y34.3377
G01 X39.5770 Y34.2509
G01 X39.6486 Y34.1595
G01 X39.7146 Y34.0640
G01 X39.7746 Y33.9646
G01 X39.8286 Y33.8617
G01 X39.8763 Y33.7557
G01 X39.9175 Y33.6471
G01 X39.9520 Y33.5363
G01 X39.9799 Y33.4234
G01 X40.0007 Y33.3093
G01 X40.0147 Y33.1934
G01 X40.0216 Y33.0808
G01 X40.0218 Y32.9620
G01 X40.0145 Y32.8443
G01 X40.0006 Y32.7302
G01 X39.9798 Y32.6164
G01 X39.9520 Y32.5037
G01 X39.9175 Y32.3929
G01 X39.8763 Y32.2843
G01 X39.8286 Y32.1784
G01 X39.7747 Y32.0755
G01 X39.7146 Y31.9761
G01 X39.6487 Y31.8806
G01 X39.5770 Y31.7891
G01 X39.5000 Y31.7023
G01 X39.4179 Y31.6201
G01 X39.3308 Y31.5431
G01 X39.2395 Y31.4714
G01 X39.1440 Y31.4054
G01 X39.0446 Y31.3454
G01 X38.9417 Y31.2914
G01 X38.8357 Y31.2437
G01 X38.7271 Y31.2025
G01 X38.6163 Y31.1680
G01 X38.5034 Y31.1401
G01 X38.3893 Y31.1193
G01 X38.2733 Y31.1052
G01 X38.1580 Y31.0982
G01 X38.0420 Y31.0982
G01 X37.9253 Y31.1054
G01 X37.8107 Y31.1193
G01 X37.6964 Y31.1402
G01 X37.5837 Y31.1680
G01 X37.4729 Y31.2025
G01 X37.3643 Y31.2437
G01 X37.2584 Y31.2914
G01 X37.1555 Y31.3453
G01 X37.0561 Y31.4054
G01 X36.9606 Y31.4713
G01 X36.8692 Y31.5431
G01 X36.7822 Y31.6200
G01 X36.7001 Y31.7021
G01 X36.6231 Y31.7892
G01 X36.5514 Y31.8805
G01 X36.4854 Y31.9760
G01 X36.4254 Y32.0754
G01 X36.3714 Y32.1783
G01 X36.3237 Y32.2843
G01 X36.2825 Y32.3929
G01 X36.2480 Y32.5037
G01 X36.2201 Y32.6166
G01 X36.1993 Y32.7307
G01 X36.1853 Y32.8466
G01 X36.1782 Y32.9619
G01 X36.1782 Y33.0780
G00 X36.1782 Y33.0780
G01 F20.00
G01 Z-1.2000
G01 F20.00
G01 X36.1855 Y33.1957
G01 X36.1994 Y33.3098
G01 X36.2202 Y33.4236
G01 X36.2480 Y33.5363
G01 X36.2825 Y33.6471
G01 X36.3237 Y33.7557
G01 X36.3714 Y33.8616
G01 X36.4253 Y33.9645
G01 X36.4854 Y34.0639
G01 X36.5513 Y34.1594
G01 X36.6231 Y34.2508
G01 X36.7000 Y34.3378
G01 X36.7823 Y34.4200
G01 X36.8691 Y34.4970
G01 X36.9605 Y34.5686
G01 X37.0560 Y34.6346
G01 X37.1554 Y34.6946
G01 X37.2583 Y34.7486
G01 X37.3643 Y34.7963
G01 X37.4729 Y34.8375
G01 X37.5837 Y34.8720
G01 X37.6966 Y34.8999
G01 X37.8107 Y34.9207
G01 X37.9266 Y34.9347
G01 X38.0419 Y34.9418
G01 X38.1580 Y34.9418
G01 X38.2757 Y34.9345
G01 X38.3898 Y34.9206
G01 X38.5036 Y34.8998
G01 X38.6163 Y34.8720
G01 X38.7271 Y34.8375
G01 X38.8357 Y34.7963
G01 X38.9416 Y34.7486
G01 X39.0445 Y34.6947
G01 X39.1439 Y34.6346
G01 X39.2394 Y34.5687
G01 X39.3309 Y34.4970
G01 X39.4178 Y34.4199
G01 X39.5000 Y34.3377
G01 X39.5770 Y34.2509
G01 X39.6486 Y34.1595
G01 X39.7146 Y34.0640
G01 X39.7746 Y33.9646
G01 X39.8286 Y33.8617
G01 X39.8763 Y33.7557
G01 X39.9175 Y33.6471
G01 X39.9520 Y33.5363
G01 X39.9799 Y33.4234
G01 X40.0007 Y33.3093
G01 X40.0147 Y33.1934
G01 X40.0216 Y33.0808
G01 X40.0218 Y32.9620
G01 X40.0145 Y32.8443
G01 X40.0006 Y32.7302
G01 X39.9798 Y32.6164
G01 X39.9520 Y32.5037
G01 X39.9175 Y32.3929
G01 X39.8763 Y32.2843
G01 X39.8286 Y32.1784
G01 X39.7747 Y32.0755
G01 X39.7146 Y31.9761
G01 X39.6487 Y31.8806
G01 X39.5770 Y31.7891
G01 X39.5000 Y31.7023
G01 X39.4179 Y31.6201
G01 X39.3308 Y31.5431
G01 X39.2395 Y31.4714
G01 X39.1440 Y31.4054
G01 X39.0446 Y31.3454
G01 X38.9417 Y31.2914
G01 X38.8357 Y31.2437
G01 X38.7271 Y31.2025
G01 X38.6163 Y31.1680
G01 X38.5034 Y31.1401
G01 X38.3893 Y31.1193
G01 X38.2733 Y31.1052
G01 X38.1580 Y31.0982
G01 X38.0420 Y31.0982
G01 X37.9253 Y31.1054
G01 X37.8107 Y31.1193
G01 X37.6964 Y31.1402
G01 X37.5837 Y31.1680
G01 X37.4729 Y31.2025
G01 X37.3643 Y31.2437
G01 X37.2584 Y31.2914
G01 X37.1555 Y31.3453
G01 X37.0561 Y31.4054
G01 X36.9606 Y31.4713
G01 X36.8692 Y31.5431
G01 X36.7822 Y31.6200
G01 X36.7001 Y31.7021
G01 X36.6231 Y31.7892
G01 X36.5514 Y31.8805
G01 X36.4854 Y31.9760
G01 X36.4254 Y32.0754
G01 X36.3714 Y32.1783
G01 X36.3237 Y32.2843
G01 X36.2825 Y32.3929
G01 X36.2480 Y32.5037
G01 X36.2201 Y32.6166
G01 X36.1993 Y32.7307
G01 X36.1853 Y32.8466
G01 X36.1782 Y32.9619
G01 X36.1782 Y33.0780
G00 X36.1782 Y33.0780
G01 F20.00
G01 Z-1.6000
G01 F20.00
G01 X36.1855 Y33.1957
G01 X36.1994 Y33.3098
G01 X36.2202 Y33.4236
G01 X36.2480 Y33.5363
G01 X36.2825 Y33.6471
G01 X36.3237 Y33.7557
G01 X36.3714 Y33.8616
G01 X36.4253 Y33.9645
G01 X36.4854 Y34.0639
G01 X36.5513 Y34.1594
G01 X36.6231 Y34.2508
G01 X36.7000 Y34.3378
G01 X36.7823 Y34.4200
G01 X36.8691 Y34.4970
G01 X36.9605 Y34.5686
G01 X37.0560 Y34.6346
G01 X37.1554 Y34.6946
G01 X37.2583 Y34.7486
G01 X37.3643 Y34.7963
G01 X37.4729 Y34.8375
G01 X37.5837 Y34.8720
G01 X37.6966 Y34.8999
G01 X37.8107 Y34.9207
G01 X37.9266 Y34.9347
G01 X38.0419 Y34.9418
G01 X38.1580 Y34.9418
G01 X38.2757 Y34.9345
G01 X38.3898 Y34.9206
G01 X38.5036 Y34.8998
G01 X38.6163 Y34.8720
G01 X38.7271 Y34.8375
G01 X38.8357 Y34.7963
G01 X38.9416 Y34.7486
G01 X39.0445 Y34.6947
G01 X39.1439 Y34.6346
G01 X39.2394 Y34.5687
G01 X39.3309 Y34.4970
G01 X39.4178 Y34.4199
G01 X39.5000 Y34.3377
G01 X39.5770 Y34.2509
G01 X39.6486 Y34.1595
G01 X39.7146 Y34.0640
G01 X39.7746 Y33.9646
G01 X39.8286 Y33.8617
G01 X39.8763 Y33.7557
G01 X39.9175 Y33.6471
G01 X39.9520 Y33.5363
G01 X39.9799 Y33.4234
G01 X40.0007 Y33.3093
G01 X40.0147 Y33.1934
G01 X40.0216 Y33.0808
G01 X40.0218 Y32.9620
G01 X40.0145 Y32.8443
G01 X40.0006 Y32.7302
G01 X39.9798 Y32.6164
G01 X39.9520 Y32.5037
G01 X39.9175 Y32.3929
G01 X39.8763 Y32.2843
G01 X39.8286 Y32.1784
G01 X39.7747 Y32.0755
G01 X39.7146 Y31.9761
G01 X39.6487 Y31.8806
G01 X39.5770 Y31.7891
G01 X39.5000 Y31.7023
G01 X39.4179 Y31.6201
G01 X39.3308 Y31.5431
G01 X39.2395 Y31.4714
G01 X39.1440 Y31.4054
G01 X39.0446 Y31.3454
G01 X38.9417 Y31.2914
G01 X38.8357 Y31.2437
G01 X38.7271 Y31.2025
G01 X38.6163 Y31.1680
G01 X38.5034 Y31.1401
G01 X38.3893 Y31.1193
G01 X38.2733 Y31.1052
G01 X38.1580 Y31.0982
G01 X38.0420 Y31.0982
G01 X37.9253 Y31.1054
G01 X37.8107 Y31.1193
G01 X37.6964 Y31.1402
G01 X37.5837 Y31.1680
G01 X37.4729 Y31.2025
G01 X37.3643 Y31.2437
G01 X37.2584 Y31.2914
G01 X37.1555 Y31.3453
G01 X37.0561 Y31.4054
G01 X36.9606 Y31.4713
G01 X36.8692 Y31.5431
G01 X36.7822 Y31.6200
G01 X36.7001 Y31.7021
G01 X36.6231 Y31.7892
G01 X36.5514 Y31.8805
G01 X36.4854 Y31.9760
G01 X36.4254 Y32.0754
G01 X36.3714 Y32.1783
G01 X36.3237 Y32.2843
G01 X36.2825 Y32.3929
G01 X36.2480 Y32.5037
G01 X36.2201 Y32.6166
G01 X36.1993 Y32.7307
G01 X36.1853 Y32.8466
G01 X36.1782 Y32.9619
G01 X36.1782 Y33.0780
G00 Z1.0000
G00 X86.9782 Y33.0780
G01 F20.00
G01 Z-0.4000
G01 F20.00
G01 X86.9855 Y33.1959
G01 X86.9994 Y33.3097
G01 X87.0202 Y33.4236
G01 X87.0480 Y33.5362
G01 X87.0824 Y33.6466
G01 X87.1240 Y33.7563
G01 X87.1714 Y33.8616
G01 X87.2250 Y33.9639
G01 X87.2854 Y34.0639
G01 X87.3513 Y34.1594
G01 X87.4231 Y34.2508
G01 X87.5000 Y34.3378
G01 X87.5823 Y34.4200
G01 X87.6691 Y34.4970
G01 X87.7605 Y34.5686
G01 X87.8560 Y34.6346
G01 X87.9561 Y34.6950
G01 X88.0583 Y34.7486
G01 X88.1643 Y34.7963
G01 X88.2729 Y34.8375
G01 X88.3837 Y34.8720
G01 X88.4966 Y34.8999
G01 X88.6107 Y34.9207
G01 X88.7269 Y34.9348
G01 X88.8420 Y34.9418
G01 X88.9580 Y34.9418
G01 X89.0759 Y34.9345
G01 X89.1893 Y34.9207
G01 X89.3036 Y34.8998
G01 X89.4163 Y34.8720
G01 X89.5271 Y34.8375
G01 X89.6357 Y34.7963
G01 X89.7416 Y34.7486
G01 X89.8440 Y34.6949
G01 X89.9439 Y34.6346
G01 X90.0395 Y34.5686
G01 X90.1309 Y34.4970
G01 X90.2177 Y34.4200
G01 X90.3004 Y34.3373
G01 X90.3771 Y34.2508
G01 X90.4486 Y34.1595
G01 X90.5146 Y34.0639
G01 X90.5751 Y33.9637
G01 X90.6286 Y33.8617
G01 X90.6760 Y33.7563
G01 X90.7168 Y33.6490
G01 X90.7520 Y33.5362
G01 X90.7799 Y33.4234
G01 X90.8007 Y33.3093
G01 X90.8147 Y33.1935
G01 X90.8216 Y33.0808
G01 X90.8218 Y32.9620
G01 X90.8145 Y32.8441
G01 X90.8006 Y32.7303
G01 X90.7798 Y32.6164
G01 X90.7520 Y32.5038
G01 X90.7176 Y32.3934
G01 X90.6760 Y32.2837
G01 X90.6286 Y32.1784
G01 X90.5742 Y32.0748
G01 X90.5146 Y31.9761
G01 X90.4487 Y31.8806
G01 X90.3770 Y31.7891
G01 X90.3000 Y31.7023
G01 X90.2179 Y31.6201
G01 X90.1308 Y31.5431
G01 X90.0395 Y31.4714
G01 X89.9440 Y31.4054
G01 X89.8446 Y31.3454
G01 X89.7417 Y31.2914
G01 X89.6357 Y31.2437
G01 X89.5271 Y31.2025
G01 X89.4163 Y31.1680
G01 X89.3034 Y31.1401
G01 X89.1893 Y31.1193
G01 X89.0739 Y31.1053
G01 X88.9580 Y31.0982
G01 X88.8420 Y31.0982
G01 X88.7260 Y31.1053
G01 X88.6107 Y31.1193
G01 X88.4964 Y31.1402
G01 X88.3837 Y31.1680
G01 X88.2729 Y31.2025
G01 X88.1643 Y31.2437
G01 X88.0584 Y31.2914
G01 X87.9555 Y31.3453
G01 X87.8561 Y31.4054
G01 X87.7606 Y31.4713
G01 X87.6692 Y31.5431
G01 X87.5822 Y31.6200
G01 X87.5001 Y31.7021
G01 X87.4231 Y31.7892
G01 X87.3514 Y31.8805
G01 X87.2854 Y31.9761
G01 X87.2257 Y32.0749
G01 X87.1714 Y32.1783
G01 X87.1235 Y32.2850
G01 X87.0824 Y32.3935
G01 X87.0480 Y32.5037
G01 X87.0201 Y32.6166
G01 X86.9993 Y32.7307
G01 X86.9853 Y32.8465
G01 X86.9782 Y32.9619
G01 X86.9782 Y33.0780
G00 X86.9782 Y33.0780
G01 F20.00
G01 Z-0.8000
G01 F20.00
G01 X86.9855 Y33.1959
G01 X86.9994 Y33.3097
G01 X87.0202 Y33.4236
G01 X87.0480 Y33.5362
G01 X87.0824 Y33.6466
G01 X87.1240 Y33.7563
G01 X87.1714 Y33.8616
G01 X87.2250 Y33.9639
G01 X87.2854 Y34.0639
G01 X87.3513 Y34.1594
G01 X87.4231 Y34.2508
G01 X87.5000 Y34.3378
G01 X87.5823 Y34.4200
G01 X87.6691 Y34.4970
G01 X87.7605 Y34.5686
G01 X87.8560 Y34.6346
G01 X87.9561 Y34.6950
G01 X88.0583 Y34.7486
G01 X88.1643 Y34.7963
G01 X88.2729 Y34.8375
G01 X88.3837 Y34.8720
G01 X88.4966 Y34.8999
G01 X88.6107 Y34.9207
G01 X88.7269 Y34.9348
G01 X88.8420 Y34.9418
G01 X88.9580 Y34.9418
G01 X89.0759 Y34.9345
G01 X89.1893 Y34.9207
G01 X89.3036 Y34.8998
G01 X89.4163 Y34.8720
G01 X89.5271 Y34.8375
G01 X89.6357 Y34.7963
G01 X89.7416 Y34.7486
G01 X89.8440 Y34.6949
G01 X89.9439 Y34.6346
G01 X90.0395 Y34.5686
G01 X90.1309 Y34.4970
G01 X90.2177 Y34.4200
G01 X90.3004 Y34.3373
G01 X90.3771 Y34.2508
G01 X90.4486 Y34.1595
G01 X90.5146 Y34.0639
G01 X90.5751 Y33.9637
G01 X90.6286 Y33.8617
G01 X90.6760 Y33.7563
G01 X90.7168 Y33.6490
G01 X90.7520 Y33.5362
G01 X90.7799 Y33.4234
G01 X90.8007 Y33.3093
G01 X90.8147 Y33.1935
G01 X90.8216 Y33.0808
G01 X90.8218 Y32.9620
G01 X90.8145 Y32.8441
G01 X90.8006 Y32.7303
G01 X90.7798 Y32.6164
G01 X90.7520 Y32.5038
G01 X90.7176 Y32.3934
G01 X90.6760 Y32.2837
G01 X90.6286 Y32.1784
G01 X90.5742 Y32.0748
G01 X90.5146 Y31.9761
G01 X90.4487 Y31.8806
G01 X90.3770 Y31.7891
G01 X90.3000 Y31.7023
G01 X90.2179 Y31.6201
G01 X90.1308 Y31.5431
G01 X90.0395 Y31.4714
G01 X89.9440 Y31.4054
G01 X89.8446 Y31.3454
G01 X89.7417 Y31.2914
G01 X89.6357 Y31.2437
G01 X89.5271 Y31.2025
G01 X89.4163 Y31.1680
G01 X89.3034 Y31.1401
G01 X89.1893 Y31.1193
G01 X89.0739 Y31.1053
G01 X88.9580 Y31.0982
G01 X88.8420 Y31.0982
G01 X88.7260 Y31.1053
G01 X88.6107 Y31.1193
G01 X88.4964 Y31.1402
G01 X88.3837 Y31.1680
G01 X88.2729 Y31.2025
G01 X88.1643 Y31.2437
G01 X88.0584 Y31.2914
G01 X87.9555 Y31.3453
G01 X87.8561 Y31.4054
G01 X87.7606 Y31.4713
G01 X87.6692 Y31.5431
G01 X87.5822 Y31.6200
G01 X87.5001 Y31.7021
G01 X87.4231 Y31.7892
G01 X87.3514 Y31.8805
G01 X87.2854 Y31.9761
G01 X87.2257 Y32.0749
G01 X87.1714 Y32.1783
G01 X87.1235 Y32.2850
G01 X87.0824 Y32.3935
G01 X87.0480 Y32.5037
G01 X87.0201 Y32.6166
G01 X86.9993 Y32.7307
G01 X86.9853 Y32.8465
G01 X86.9782 Y32.9619
G01 X86.9782 Y33.0780
G00 X86.9782 Y33.0780
G01 F20.00
G01 Z-1.2000
G01 F20.00
G01 X86.9855 Y33.1959
G01 X86.9994 Y33.3097
G01 X87.0202 Y33.4236
G01 X87.0480 Y33.5362
G01 X87.0824 Y33.6466
G01 X87.1240 Y33.7563
G01 X87.1714 Y33.8616
G01 X87.2250 Y33.9639
G01 X87.2854 Y34.0639
G01 X87.3513 Y34.1594
G01 X87.4231 Y34.2508
G01 X87.5000 Y34.3378
G01 X87.5823 Y34.4200
G01 X87.6691 Y34.4970
G01 X87.7605 Y34.5686
G01 X87.8560 Y34.6346
G01 X87.9561 Y34.6950
G01 X88.0583 Y34.7486
G01 X88.1643 Y34.7963
G01 X88.2729 Y34.8375
G01 X88.3837 Y34.8720
G01 X88.4966 Y34.8999
G01 X88.6107 Y34.9207
G01 X88.7269 Y34.9348
G01 X88.8420 Y34.9418
G01 X88.9580 Y34.9418
G01 X89.0759 Y34.9345
G01 X89.1893 Y34.9207
G01 X89.3036 Y34.8998
G01 X89.4163 Y34.8720
G01 X89.5271 Y34.8375
G01 X89.6357 Y34.7963
G01 X89.7416 Y34.7486
G01 X89.8440 Y34.6949
G01 X89.9439 Y34.6346
G01 X90.0395 Y34.5686
G01 X90.1309 Y34.4970
G01 X90.2177 Y34.4200
G01 X90.3004 Y34.3373
G01 X90.3771 Y34.2508
G01 X90.4486 Y34.1595
G01 X90.5146 Y34.0639
G01 X90.5751 Y33.9637
G01 X90.6286 Y33.8617
G01 X90.6760 Y33.7563
G01 X90.7168 Y33.6490
G01 X90.7520 Y33.5362
G01 X90.7799 Y33.4234
G01 X90.8007 Y33.3093
G01 X90.8147 Y33.1935
G01 X90.8216 Y33.0808
G01 X90.8218 Y32.9620
G01 X90.8145 Y32.8441
G01 X90.8006 Y32.7303
G01 X90.7798 Y32.6164
G01 X90.7520 Y32.5038
G01 X90.7176 Y32.3934
G01 X90.6760 Y32.2837
G01 X90.6286 Y32.1784
G01 X90.5742 Y32.0748
G01 X90.5146 Y31.9761
G01 X90.4487 Y31.8806
G01 X90.3770 Y31.7891
G01 X90.3000 Y31.7023
G01 X90.2179 Y31.6201
G01 X90.1308 Y31.5431
G01 X90.0395 Y31.4714
G01 X89.9440 Y31.4054
G01 X89.8446 Y31.3454
G01 X89.7417 Y31.2914
G01 X89.6357 Y31.2437
G01 X89.5271 Y31.2025
G01 X89.4163 Y31.1680
G01 X89.3034 Y31.1401
G01 X89.1893 Y31.1193
G01 X89.0739 Y31.1053
G01 X88.9580 Y31.0982
G01 X88.8420 Y31.0982
G01 X88.7260 Y31.1053
G01 X88.6107 Y31.1193
G01 X88.4964 Y31.1402
G01 X88.3837 Y31.1680
G01 X88.2729 Y31.2025
G01 X88.1643 Y31.2437
G01 X88.0584 Y31.2914
G01 X87.9555 Y31.3453
G01 X87.8561 Y31.4054
G01 X87.7606 Y31.4713
G01 X87.6692 Y31.5431
G01 X87.5822 Y31.6200
G01 X87.5001 Y31.7021
G01 X87.4231 Y31.7892
G01 X87.3514 Y31.8805
G01 X87.2854 Y31.9761
G01 X87.2257 Y32.0749
G01 X87.1714 Y32.1783
G01 X87.1235 Y32.2850
G01 X87.0824 Y32.3935
G01 X87.0480 Y32.5037
G01 X87.0201 Y32.6166
G01 X86.9993 Y32.7307
G01 X86.9853 Y32.8465
G01 X86.9782 Y32.9619
G01 X86.9782 Y33.0780
G00 X86.9782 Y33.0780
G01 F20.00
G01 Z-1.6000
G01 F20.00
G01 X86.9855 Y33.1959
G01 X86.9994 Y33.3097
G01 X87.0202 Y33.4236
G01 X87.0480 Y33.5362
G01 X87.0824 Y33.6466
G01 X87.1240 Y33.7563
G01 X87.1714 Y33.8616
G01 X87.2250 Y33.9639
G01 X87.2854 Y34.0639
G01 X87.3513 Y34.1594
G01 X87.4231 Y34.2508
G01 X87.5000 Y34.3378
G01 X87.5823 Y34.4200
G01 X87.6691 Y34.4970
G01 X87.7605 Y34.5686
G01 X87.8560 Y34.6346
G01 X87.9561 Y34.6950
G01 X88.0583 Y34.7486
G01 X88.1643 Y34.7963
G01 X88.2729 Y34.8375
G01 X88.3837 Y34.8720
G01 X88.4966 Y34.8999
G01 X88.6107 Y34.9207
G01 X88.7269 Y34.9348
G01 X88.8420 Y34.9418
G01 X88.9580 Y34.9418
G01 X89.0759 Y34.9345
G01 X89.1893 Y34.9207
G01 X89.3036 Y34.8998
G01 X89.4163 Y34.8720
G01 X89.5271 Y34.8375
G01 X89.6357 Y34.7963
G01 X89.7416 Y34.7486
G01 X89.8440 Y34.6949
G01 X89.9439 Y34.6346
G01 X90.0395 Y34.5686
G01 X90.1309 Y34.4970
G01 X90.2177 Y34.4200
G01 X90.3004 Y34.3373
G01 X90.3771 Y34.2508
G01 X90.4486 Y34.1595
G01 X90.5146 Y34.0639
G01 X90.5751 Y33.9637
G01 X90.6286 Y33.8617
G01 X90.6760 Y33.7563
G01 X90.7168 Y33.6490
G01 X90.7520 Y33.5362
G01 X90.7799 Y33.4234
G01 X90.8007 Y33.3093
G01 X90.8147 Y33.1935
G01 X90.8216 Y33.0808
G01 X90.8218 Y32.9620
G01 X90.8145 Y32.8441
G01 X90.8006 Y32.7303
G01 X90.7798 Y32.6164
G01 X90.7520 Y32.5038
G01 X90.7176 Y32.3934
G01 X90.6760 Y32.2837
G01 X90.6286 Y32.1784
G01 X90.5742 Y32.0748
G01 X90.5146 Y31.9761
G01 X90.4487 Y31.8806
G01 X90.3770 Y31.7891
G01 X90.3000 Y31.7023
G01 X90.2179 Y31.6201
G01 X90.1308 Y31.5431
G01 X90.0395 Y31.4714
G01 X89.9440 Y31.4054
G01 X89.8446 Y31.3454
G01 X89.7417 Y31.2914
G01 X89.6357 Y31.2437
G01 X89.5271 Y31.2025
G01 X89.4163 Y31.1680
G01 X89.3034 Y31.1401
G01 X89.1893 Y31.1193
G01 X89.0739 Y31.1053
G01 X88.9580 Y31.0982
G01 X88.8420 Y31.0982
G01 X88.7260 Y31.1053
G01 X88.6107 Y31.1193
G01 X88.4964 Y31.1402
G01 X88.3837 Y31.1680
G01 X88.2729 Y31.2025
G01 X88.1643 Y31.2437
G01 X88.0584 Y31.2914
G01 X87.9555 Y31.3453
G01 X87.8561 Y31.4054
G01 X87.7606 Y31.4713
G01 X87.6692 Y31.5431
G01 X87.5822 Y31.6200
G01 X87.5001 Y31.7021
G01 X87.4231 Y31.7892
G01 X87.3514 Y31.8805
G01 X87.2854 Y31.9761
G01 X87.2257 Y32.0749
G01 X87.1714 Y32.1783
G01 X87.1235 Y32.2850
G01 X87.0824 Y32.3935
G01 X87.0480 Y32.5037
G01 X87.0201 Y32.6166
G01 X86.9993 Y32.7307
G01 X86.9853 Y32.8465
G01 X86.9782 Y32.9619
G01 X86.9782 Y33.0780
G00 Z1.0000
G00 X86.9782 Y53.3980
G01 F20.00
G01 Z-0.4000
G01 F20.00
G01 X86.9855 Y53.5159
G01 X86.9994 Y53.6297
G01 X87.0202 Y53.7436
G01 X87.0480 Y53.8562
G01 X87.0824 Y53.9666
G01 X87.1240 Y54.0763
G01 X87.1714 Y54.1816
G01 X87.2250 Y54.2839
G01 X87.2854 Y54.3839
G01 X87.3513 Y54.4794
G01 X87.4231 Y54.5708
G01 X87.5000 Y54.6578
G01 X87.5823 Y54.7400
G01 X87.6691 Y54.8170
G01 X87.7605 Y54.8886
G01 X87.8560 Y54.9546
G01 X87.9561 Y55.0150
G01 X88.0583 Y55.0686
G01 X88.1643 Y55.1163
G01 X88.2729 Y55.1575
G01 X88.3837 Y55.1920
G01 X88.4966 Y55.2199
G01 X88.6107 Y55.2407
G01 X88.7269 Y55.2548
G01 X88.8420 Y55.2618
G01 X88.9580 Y55.2618
G01 X89.0759 Y55.2545
G01 X89.1893 Y55.2407
G01 X89.3036 Y55.2198
G01 X89.4163 Y55.1920
G01 X89.5271 Y55.1575
G01 X89.6357 Y55.1163
G01 X89.7416 Y55.0686
G01 X89.8440 Y55.0149
G01 X89.9439 Y54.9546
G01 X90.0395 Y54.8886
G01 X90.1309 Y54.8170
G01 X90.2177 Y54.7400
G01 X90.3004 Y54.6573
G01 X90.3771 Y54.5708
G01 X90.4486 Y54.4795
G01 X90.5146 Y54.3839
G01 X90.5751 Y54.2837
G01 X90.6286 Y54.1817
G01 X90.6760 Y54.0763
G01 X90.7168 Y53.9690
G01 X90.7520 Y53.8562
G01 X90.7799 Y53.7434
G01 X90.8007 Y53.6293
G01 X90.8147 Y53.5135
G01 X90.8216 Y53.4008
G01 X90.8218 Y53.2820
G01 X90.8145 Y53.1641
G01 X90.8006 Y53.0503
G01 X90.7798 Y52.9364
G01 X90.7520 Y52.8238
G01 X90.7176 Y52.7134
G01 X90.6760 Y52.6037
G01 X90.6286 Y52.4984
G01 X90.5750 Y52.3961
G01 X90.5146 Y52.2961
G01 X90.4487 Y52.2006
G01 X90.3770 Y52.1091
G01 X90.3004 Y52.0227
G01 X90.2179 Y51.9401
G01 X90.1308 Y51.8631
G01 X90.0395 Y51.7914
G01 X89.9440 Y51.7254
G01 X89.8439 Y51.6650
G01 X89.7417 Y51.6114
G01 X89.6357 Y51.5637
G01 X89.5271 Y51.5225
G01 X89.4163 Y51.4880
G01 X89.3034 Y51.4601
G01 X89.1893 Y51.4393
G01 X89.0731 Y51.4252
G01 X88.9580 Y51.4182
G01 X88.8420 Y51.4182
G01 X88.7241 Y51.4255
G01 X88.6107 Y51.4393
G01 X88.4964 Y51.4602
G01 X88.3837 Y51.4880
G01 X88.2729 Y51.5225
G01 X88.1643 Y51.5637
G01 X88.0584 Y51.6114
G01 X87.9560 Y51.6651
G01 X87.8561 Y51.7254
G01 X87.7606 Y51.7913
G01 X87.6692 Y51.8631
G01 X87.5822 Y51.9400
G01 X87.5001 Y52.0221
G01 X87.4231 Y52.1092
G01 X87.3514 Y52.2005
G01 X87.2854 Y52.2961
G01 X87.2249 Y52.3963
G01 X87.1714 Y52.4983
G01 X87.1235 Y52.6050
G01 X87.0824 Y52.7135
G01 X87.0480 Y52.8237
G01 X87.0201 Y52.9366
G01 X86.9993 Y53.0507
G01 X86.9853 Y53.1665
G01 X86.9782 Y53.2819
G01 X86.9782 Y53.3980
G00 X86.9782 Y53.3980
G01 F20.00
G01 Z-0.8000
G01 F20.00
G01 X86.9855 Y53.5159
G01 X86.9994 Y53.6297
G01 X87.0202 Y53.7436
G01 X87.0480 Y53.8562
G01 X87.0824 Y53.9666
G01 X87.1240 Y54.0763
G01 X87.1714 Y54.1816
G01 X87.2250 Y54.2839
G01 X87.2854 Y54.3839
G01 X87.3513 Y54.4794
G01 X87.4231 Y54.5708
G01 X87.5000 Y54.6578
G01 X87.5823 Y54.7400
G01 X87.6691 Y54.8170
G01 X87.7605 Y54.8886
G01 X87.8560 Y54.9546
G01 X87.9561 Y55.0150
G01 X88.0583 Y55.0686
G01 X88.1643 Y55.1163
G01 X88.2729 Y55.1575
G01 X88.3837 Y55.1920
G01 X88.4966 Y55.2199
G01 X88.6107 Y55.2407
G01 X88.7269 Y55.2548
G01 X88.8420 Y55.2618
G01 X88.9580 Y55.2618
G01 X89.0759 Y55.2545
G01 X89.1893 Y55.2407
G01 X89.3036 Y55.2198
G01 X89.4163 Y55.1920
G01 X89.5271 Y55.1575
G01 X89.6357 Y55.1163
G01 X89.7416 Y55.0686
G01 X89.8440 Y55.0149
G01 X89.9439 Y54.9546
G01 X90.0395 Y54.8886
G01 X90.1309 Y54.8170
G01 X90.2177 Y54.7400
G01 X90.3004 Y54.6573
G01 X90.3771 Y54.5708
G01 X90.4486 Y54.4795
G01 X90.5146 Y54.3839
G01 X90.5751 Y54.2837
G01 X90.6286 Y54.1817
G01 X90.6760 Y54.0763
G01 X90.7168 Y53.9690
G01 X90.7520 Y53.8562
G01 X90.7799 Y53.7434
G01 X90.8007 Y53.6293
G01 X90.8147 Y53.5135
G01 X90.8216 Y53.4008
G01 X90.8218 Y53.2820
G01 X90.8145 Y53.1641
G01 X90.8006 Y53.0503
G01 X90.7798 Y52.9364
G01 X90.7520 Y52.8238
G01 X90.7176 Y52.7134
G01 X90.6760 Y52.6037
G01 X90.6286 Y52.4984
G01 X90.5750 Y52.3961
G01 X90.5146 Y52.2961
G01 X90.4487 Y52.2006
G01 X90.3770 Y52.1091
G01 X90.3004 Y52.0227
G01 X90.2179 Y51.9401
G01 X90.1308 Y51.8631
G01 X90.0395 Y51.7914
G01 X89.9440 Y51.7254
G01 X89.8439 Y51.6650
G01 X89.7417 Y51.6114
G01 X89.6357 Y51.5637
G01 X89.5271 Y51.5225
G01 X89.4163 Y51.4880
G01 X89.3034 Y51.4601
G01 X89.1893 Y51.4393
G01 X89.0731 Y51.4252
G01 X88.9580 Y51.4182
G01 X88.8420 Y51.4182
G01 X88.7241 Y51.4255
G01 X88.6107 Y51.4393
G01 X88.4964 Y51.4602
G01 X88.3837 Y51.4880
G01 X88.2729 Y51.5225
G01 X88.1643 Y51.5637
G01 X88.0584 Y51.6114
G01 X87.9560 Y51.6651
G01 X87.8561 Y51.7254
G01 X87.7606 Y51.7913
G01 X87.6692 Y51.8631
G01 X87.5822 Y51.9400
G01 X87.5001 Y52.0221
G01 X87.4231 Y52.1092
G01 X87.3514 Y52.2005
G01 X87.2854 Y52.2961
G01 X87.2249 Y52.3963
G01 X87.1714 Y52.4983
G01 X87.1235 Y52.6050
G01 X87.0824 Y52.7135
G01 X87.0480 Y52.8237
G01 X87.0201 Y52.9366
G01 X86.9993 Y53.0507
G01 X86.9853 Y53.1665
G01 X86.9782 Y53.2819
G01 X86.9782 Y53.3980
G00 X86.9782 Y53.3980
G01 F20.00
G01 Z-1.2000
G01 F20.00
G01 X86.9855 Y53.5159
G01 X86.9994 Y53.6297
G01 X87.0202 Y53.7436
G01 X87.0480 Y53.8562
G01 X87.0824 Y53.9666
G01 X87.1240 Y54.0763
G01 X87.1714 Y54.1816
G01 X87.2250 Y54.2839
G01 X87.2854 Y54.3839
G01 X87.3513 Y54.4794
G01 X87.4231 Y54.5708
G01 X87.5000 Y54.6578
G01 X87.5823 Y54.7400
G01 X87.6691 Y54.8170
G01 X87.7605 Y54.8886
G01 X87.8560 Y54.9546
G01 X87.9561 Y55.0150
G01 X88.0583 Y55.0686
G01 X88.1643 Y55.1163
G01 X88.2729 Y55.1575
G01 X88.3837 Y55.1920
G01 X88.4966 Y55.2199
G01 X88.6107 Y55.2407
G01 X88.7269 Y55.2548
G01 X88.8420 Y55.2618
G01 X88.9580 Y55.2618
G01 X89.0759 Y55.2545
G01 X89.1893 Y55.2407
G01 X89.3036 Y55.2198
